(.../pcb-gcode-3.6.2.4/pcb-gcode.ulp)
(Copyright 2005 - 2012 by John Johnson)
(See readme.txt for licensing terms.)
(This file generated from the board:)
(.../my projects/My Controllers/atmega8.brd)
(Current profile is .../pcb-gcode-3.6.2.4/profiles/emc.pp  )
(This file generated 28.05.2017 16:47:09)
(Settings from pcb-machine.h)
(spindle on time = 3.0000)
(  Tool Size)
(0.1500 )
(spindle speed = 20000.0000)
(tool change at 0.0000 0.0000 40.0000 )
(feed rate xy = F1000.00 )
(feed rate z  = F254.00 )
(Z Axis Settings)
(  High     Up        Down     Drill)
(15.0000 	5.0000 	-0.1400 	-1.5000 )
(Settings from pcb-defaults.h)
(isolate min = 0.0100)
(isolate max = 1.2700)
(isolate step = 0.1270)
(Generated top outlines, top drill, bottom outlines, bottom drill, )
(Unit of measure: mm)
(Metric Mode)
G21
(Absolute Coordinates)
G90
S20000
G00 Z15.0000 
G00 X0.0000 Y0.0000 
M03
G04 P3.000000
G00 Z5.0000 
G00 X1.5839 Y1.3539 
G01 Z-0.1400 F254.00 
G01 X1.3539 Y1.5839 F1000.00 
G01 X1.1475 Y1.8354 
G01 X0.9668 Y2.1059 
G01 X0.8135 Y2.3927 
G01 X0.6890 Y2.6933 
G01 X0.5945 Y3.0046 
G01 X0.5311 Y3.3236 
G01 X0.4992 Y3.6473 
G01 X0.4992 Y3.9726 
G01 X0.5311 Y4.2964 
G01 X0.5945 Y4.6154 
G01 X0.6890 Y4.9267 
G01 X0.8135 Y5.2273 
G01 X0.9668 Y5.5141 
G01 X1.1475 Y5.7846 
G01 X1.3539 Y6.0361 
G01 X1.5839 Y6.2661 
G01 X1.8354 Y6.4725 
G01 X2.1059 Y6.6532 
G01 X2.3927 Y6.8065 
G01 X2.6933 Y6.9310 
G01 X3.0046 Y7.0255 
G01 X3.3236 Y7.0889 
G01 X3.6473 Y7.1208 
G01 X3.9726 Y7.1208 
G01 X4.2964 Y7.0889 
G01 X4.6154 Y7.0255 
G01 X4.9267 Y6.9310 
G01 X5.2273 Y6.8065 
G01 X5.5141 Y6.6532 
G01 X5.7846 Y6.4725 
G01 X6.0361 Y6.2661 
G01 X6.2661 Y6.0361 
G01 X6.4725 Y5.7846 
G01 X6.6532 Y5.5141 
G01 X6.8065 Y5.2273 
G01 X6.9310 Y4.9267 
G01 X7.0255 Y4.6154 
G01 X7.0889 Y4.2964 
G01 X7.1208 Y3.9726 
G01 X7.1208 Y3.6473 
G01 X7.0889 Y3.3236 
G01 X7.0255 Y3.0046 
G01 X6.9310 Y2.6933 
G01 X6.8065 Y2.3927 
G01 X6.6532 Y2.1059 
G01 X6.4725 Y1.8354 
G01 X6.2661 Y1.5839 
G01 X6.0361 Y1.3539 
G01 X5.7846 Y1.1475 
G01 X5.5141 Y0.9668 
G01 X5.2273 Y0.8135 
G01 X4.9267 Y0.6890 
G01 X4.6154 Y0.5945 
G01 X4.2964 Y0.5311 
G01 X3.9726 Y0.4992 
G01 X3.6473 Y0.4992 
G01 X3.3236 Y0.5311 
G01 X3.0046 Y0.5945 
G01 X2.6933 Y0.6890 
G01 X2.3927 Y0.8135 
G01 X2.1059 Y0.9668 
G01 X1.8354 Y1.1475 
G01 X1.5839 Y1.3539 
G00 Z5.0000 
G00 X6.1757 Y1.3029 
G01 Z-0.1400 F254.00 
G01 X6.2425 Y1.3697 F1000.00 
G01 X6.5672 Y1.6944 
G01 X7.0208 Y2.4800 
G01 X7.2556 Y3.3564 
G01 X7.2556 Y4.2636 
G01 X7.0208 Y5.1399 
G01 X6.5672 Y5.9256 
G01 X5.9256 Y6.5672 
G01 X5.1399 Y7.0208 
G01 X4.2636 Y7.2556 
G01 X3.3564 Y7.2556 
G01 X2.4800 Y7.0208 
G01 X1.6944 Y6.5672 
G01 X1.3697 Y6.2425 
G01 X1.3098 Y6.1826 
G01 X1.3029 Y6.1757 
G01 X1.2156 Y6.1395 
G01 X1.1212 Y6.1395 
G01 X1.0364 Y6.1747 
G01 X0.9671 Y6.2425 
G01 X0.9310 Y6.3297 
G01 X0.9310 Y26.6410 
G01 X0.9671 Y26.7283 
G01 X1.0339 Y26.7951 
G01 X1.1212 Y26.8312 
G01 X1.4906 Y26.8312 
G01 X1.8981 Y27.0000 
G01 X2.2100 Y27.3119 
G01 X2.3788 Y27.7194 
G01 X2.3788 Y28.1606 
G01 X2.2100 Y28.5681 
G01 X1.9991 Y28.7789 
G01 X1.9323 Y28.8457 
G01 X1.8966 Y28.9320 
G01 X1.8962 Y72.6670 
G01 X1.9323 Y72.7543 
G01 X1.9991 Y72.8210 
G01 X2.2100 Y73.0319 
G01 X2.3788 Y73.4394 
G01 X2.3788 Y73.8805 
G01 X2.2100 Y74.2881 
G01 X1.8981 Y74.6000 
G01 X1.4906 Y74.7688 
G01 X1.1212 Y74.7688 
G01 X1.0339 Y74.8049 
G01 X0.9671 Y74.8717 
G01 X0.9310 Y74.9590 
G01 X0.9310 Y83.8788 
G01 X0.9671 Y83.9661 
G01 X1.0339 Y84.0329 
G01 X1.1212 Y84.0690 
G01 X78.6703 Y84.0690 
G01 X78.7575 Y84.0329 
G01 X78.8243 Y83.9661 
G01 X78.8605 Y83.8788 
G01 X78.8605 Y83.7844 
G01 X78.8243 Y83.6971 
G01 X78.7575 Y83.6303 
G01 X78.5228 Y83.3956 
G01 X78.0692 Y82.6099 
G01 X77.8344 Y81.7336 
G01 X77.8344 Y80.8264 
G01 X78.0692 Y79.9500 
G01 X78.5228 Y79.1643 
G01 X79.1643 Y78.5228 
G01 X79.9500 Y78.0692 
G01 X80.8264 Y77.8344 
G01 X81.7336 Y77.8344 
G01 X82.6099 Y78.0692 
G01 X83.3956 Y78.5228 
G01 X83.6303 Y78.7575 
G01 X83.6971 Y78.8243 
G01 X83.7833 Y78.8600 
G01 X83.8788 Y78.8605 
G01 X83.9636 Y78.8253 
G01 X83.9671 Y78.8233 
G01 X84.0329 Y78.7575 
G01 X84.0686 Y78.6713 
G01 X84.0690 Y67.9667 
G01 X84.0690 Y67.9197 
G01 X84.0690 Y67.8722 
G01 X84.0596 Y67.8495 
G01 X84.0329 Y67.7850 
G01 X84.0164 Y67.7685 
G01 X83.9661 Y67.7182 
G01 X83.9267 Y67.7019 
G01 X83.8788 Y67.6820 
G01 X83.8318 Y67.6820 
G01 X83.7844 Y67.6820 
G01 X83.7617 Y67.6915 
G01 X83.6971 Y67.7182 
G01 X83.6817 Y67.7337 
G01 X82.9474 Y68.0378 
G01 X82.6948 Y68.0378 
G01 X69.1481 Y68.0378 
G01 X69.1130 Y68.0523 
G01 X69.0608 Y68.0739 
G01 X68.9941 Y68.1407 
G01 X68.9446 Y68.1902 
G01 X68.2154 Y68.1902 
G01 X68.0643 Y68.0391 
G01 X67.9976 Y67.9723 
G01 X67.9113 Y67.9366 
G01 X66.7097 Y67.9362 
G01 X66.6746 Y67.9507 
G01 X66.6224 Y67.9723 
G01 X66.5557 Y68.0391 
G01 X66.5386 Y68.0562 
G01 X66.2151 Y68.1902 
G01 X65.8649 Y68.1902 
G01 X65.5414 Y68.0562 
G01 X65.2938 Y67.8086 
G01 X65.1598 Y67.4851 
G01 X65.1598 Y67.1349 
G01 X65.2938 Y66.8114 
G01 X65.5414 Y66.5638 
G01 X65.8649 Y66.4298 
G01 X66.2151 Y66.4298 
G01 X66.5386 Y66.5638 
G01 X66.5557 Y66.5809 
G01 X66.6201 Y66.6453 
G01 X66.6725 Y66.6684 
G01 X66.7097 Y66.6838 
G01 X67.9103 Y66.6838 
G01 X67.9976 Y66.6477 
G01 X68.0643 Y66.5809 
G01 X68.2154 Y66.4298 
G01 X68.9446 Y66.4298 
G01 X68.9941 Y66.4793 
G01 X69.0592 Y66.5444 
G01 X69.1109 Y66.5668 
G01 X69.1481 Y66.5822 
G01 X82.5148 Y66.5822 
G01 X82.5263 Y66.5857 
G01 X82.5617 Y66.5822 
G01 X82.5972 Y66.5822 
G01 X82.6083 Y66.5776 
G01 X82.6211 Y66.5763 
G01 X82.6567 Y66.5763 
G01 X82.6678 Y66.5717 
G01 X82.6797 Y66.5706 
G01 X82.7111 Y66.5538 
G01 X82.7666 Y66.5308 
G01 X82.8538 Y66.4947 
G01 X83.0047 Y66.3438 
G01 X83.0408 Y66.2566 
G01 X83.0638 Y66.2011 
G01 X83.0806 Y66.1697 
G01 X83.0817 Y66.1578 
G01 X83.0863 Y66.1467 
G01 X83.0863 Y66.1111 
G01 X83.0876 Y66.0983 
G01 X83.0922 Y66.0872 
G01 X83.0922 Y66.0517 
G01 X83.0957 Y66.0163 
G01 X83.0922 Y66.0048 
G01 X83.0922 Y3.8476 
G01 X83.0952 Y3.8384 
G01 X83.0922 Y3.8007 
G01 X83.0922 Y3.7628 
G01 X83.0885 Y3.7539 
G01 X83.0735 Y3.5636 
G01 X83.0758 Y3.5352 
G01 X83.0699 Y3.5170 
G01 X83.0684 Y3.4979 
G01 X83.0554 Y3.4725 
G01 X82.9118 Y3.0306 
G01 X82.9030 Y2.9937 
G01 X82.8973 Y2.9859 
G01 X82.8943 Y2.9768 
G01 X82.8697 Y2.9480 
G01 X82.5911 Y2.5644 
G01 X82.5713 Y2.5321 
G01 X82.5635 Y2.5265 
G01 X82.5579 Y2.5187 
G01 X82.5255 Y2.4989 
G01 X82.1420 Y2.2203 
G01 X82.1132 Y2.1957 
G01 X82.1041 Y2.1927 
G01 X82.0963 Y2.1870 
G01 X82.0594 Y2.1782 
G01 X81.6175 Y2.0346 
G01 X81.5921 Y2.0216 
G01 X81.5730 Y2.0201 
G01 X81.5548 Y2.0142 
G01 X81.5263 Y2.0165 
G01 X81.3361 Y2.0015 
G01 X81.3272 Y1.9978 
G01 X81.2893 Y1.9978 
G01 X81.2515 Y1.9948 
G01 X81.2424 Y1.9978 
G01 X26.7076 Y1.9978 
G01 X26.6984 Y1.9948 
G01 X26.6607 Y1.9978 
G01 X26.6228 Y1.9978 
G01 X26.6139 Y2.0015 
G01 X26.4236 Y2.0165 
G01 X26.3952 Y2.0142 
G01 X26.3770 Y2.0201 
G01 X26.3579 Y2.0216 
G01 X26.3325 Y2.0346 
G01 X25.8906 Y2.1782 
G01 X25.8537 Y2.1870 
G01 X25.8459 Y2.1927 
G01 X25.8368 Y2.1957 
G01 X25.8080 Y2.2203 
G01 X25.4245 Y2.4989 
G01 X25.3921 Y2.5187 
G01 X25.3865 Y2.5265 
G01 X25.3787 Y2.5321 
G01 X25.3589 Y2.5644 
G01 X25.0803 Y2.9480 
G01 X25.0557 Y2.9768 
G01 X25.0527 Y2.9859 
G01 X25.0470 Y2.9937 
G01 X25.0382 Y3.0306 
G01 X24.8946 Y3.4725 
G01 X24.8816 Y3.4979 
G01 X24.8801 Y3.5170 
G01 X24.8742 Y3.5352 
G01 X24.8765 Y3.5636 
G01 X24.8615 Y3.7539 
G01 X24.8578 Y3.7628 
G01 X24.8578 Y3.8007 
G01 X24.8548 Y3.8384 
G01 X24.8578 Y3.8476 
G01 X24.8578 Y12.8996 
G01 X24.8939 Y12.9869 
G01 X24.9607 Y13.0537 
G01 X25.0480 Y13.0898 
G01 X25.7646 Y13.0898 
G01 X26.2802 Y13.6054 
G01 X26.2802 Y14.3346 
G01 X25.7646 Y14.8502 
G01 X25.0480 Y14.8502 
G01 X24.9607 Y14.8863 
G01 X24.8939 Y14.9531 
G01 X24.8578 Y15.0404 
G01 X24.8578 Y17.8018 
G01 X24.8939 Y17.8891 
G01 X24.9607 Y17.9559 
G01 X25.0480 Y17.9920 
G01 X25.1786 Y17.9920 
G01 X25.5675 Y18.1531 
G01 X25.8651 Y18.4507 
G01 X26.0262 Y18.8395 
G01 X26.0262 Y19.2604 
G01 X25.8651 Y19.6493 
G01 X25.5675 Y19.9469 
G01 X25.1786 Y20.1080 
G01 X23.0813 Y20.1080 
G01 X22.6925 Y19.9469 
G01 X22.3949 Y19.6493 
G01 X22.2338 Y19.2604 
G01 X22.2338 Y18.8395 
G01 X22.3949 Y18.4507 
G01 X22.6925 Y18.1531 
G01 X23.0813 Y17.9920 
G01 X23.2120 Y17.9920 
G01 X23.2993 Y17.9559 
G01 X23.3661 Y17.8891 
G01 X23.4022 Y17.8018 
G01 X23.4022 Y15.1986 
G01 X23.3877 Y15.1635 
G01 X23.3661 Y15.1114 
G01 X23.2993 Y15.0446 
G01 X23.2120 Y15.0085 
G01 X23.1176 Y15.0085 
G01 X23.0785 Y15.0247 
G01 X23.0704 Y15.0280 
G01 X22.6496 Y15.0280 
G01 X22.2607 Y14.8669 
G01 X21.9631 Y14.5693 
G01 X21.8020 Y14.1804 
G01 X21.8020 Y13.7595 
G01 X21.9631 Y13.3707 
G01 X22.2607 Y13.0731 
G01 X22.6495 Y12.9120 
G01 X23.0704 Y12.9120 
G01 X23.0762 Y12.9144 
G01 X23.1176 Y12.9315 
G01 X23.2120 Y12.9315 
G01 X23.2993 Y12.8954 
G01 X23.3650 Y12.8296 
G01 X23.3868 Y12.7785 
G01 X23.4022 Y12.7413 
G01 X23.4022 Y3.2924 
G01 X23.7221 Y2.3080 
G01 X24.3305 Y1.4705 
G01 X24.4593 Y1.3770 
G01 X24.4769 Y1.3697 
G01 X24.4971 Y1.3495 
G01 X24.5202 Y1.3327 
G01 X24.5302 Y1.3164 
G01 X24.5437 Y1.3029 
G01 X24.5546 Y1.2765 
G01 X24.5695 Y1.2522 
G01 X24.5725 Y1.2333 
G01 X24.5799 Y1.2156 
G01 X24.5799 Y1.1871 
G01 X24.5843 Y1.1589 
G01 X24.5799 Y1.1403 
G01 X24.5799 Y1.1212 
G01 X24.5689 Y1.0948 
G01 X24.5623 Y1.0671 
G01 X24.5510 Y1.0516 
G01 X24.5437 Y1.0339 
G01 X24.5235 Y1.0137 
G01 X24.5068 Y0.9907 
G01 X24.4905 Y0.9807 
G01 X24.4769 Y0.9671 
G01 X24.4506 Y0.9562 
G01 X24.4262 Y0.9413 
G01 X24.4073 Y0.9383 
G01 X24.3897 Y0.9310 
G01 X24.3611 Y0.9310 
G01 X24.3330 Y0.9265 
G01 X24.3144 Y0.9310 
G01 X6.3297 Y0.9310 
G01 X6.2425 Y0.9671 
G01 X6.1757 Y1.0339 
G01 X6.1395 Y1.1212 
G01 X6.1395 Y1.2156 
G01 X6.1757 Y1.3029 
G00 Z5.0000 
G00 X11.5570 Y8.0461 
G01 Z-0.1400 F254.00 
G01 X11.9761 Y7.6270 F1000.00 
G01 X12.5237 Y7.4002 
G01 X13.1163 Y7.4002 
G01 X13.6639 Y7.6270 
G01 X14.0830 Y8.0461 
G01 X14.3098 Y8.5937 
G01 X14.3098 Y11.7263 
G01 X14.0830 Y12.2739 
G01 X13.7777 Y12.5792 
G01 X13.7177 Y12.6392 
G01 X13.7109 Y12.6459 
G01 X13.6748 Y12.7332 
G01 X13.6748 Y13.5587 
G01 X13.7109 Y13.6459 
G01 X13.7580 Y13.7595 
G01 X13.7580 Y14.1804 
G01 X13.5969 Y14.5693 
G01 X13.2993 Y14.8669 
G01 X12.9104 Y15.0280 
G01 X12.4895 Y15.0280 
G01 X12.1007 Y14.8669 
G01 X11.8031 Y14.5693 
G01 X11.6420 Y14.1804 
G01 X11.6420 Y13.7595 
G01 X11.8031 Y13.3707 
G01 X11.9291 Y13.2447 
G01 X11.9652 Y13.1574 
G01 X11.9652 Y12.7332 
G01 X11.9291 Y12.6459 
G01 X11.8623 Y12.5792 
G01 X11.5570 Y12.2739 
G01 X11.3302 Y11.7263 
G01 X11.3302 Y8.5937 
G01 X11.5570 Y8.0461 
G00 Z5.0000 
G00 X11.6611 Y8.1798 
G01 Z-0.1400 F254.00 
G01 X11.5643 Y8.3699 F1000.00 
G01 X11.4984 Y8.5727 
G01 X11.4650 Y8.7834 
G01 X11.4650 Y11.5366 
G01 X11.4984 Y11.7473 
G01 X11.5643 Y11.9501 
G01 X11.6611 Y12.1402 
G01 X11.7865 Y12.3127 
G01 X11.9373 Y12.4635 
G01 X12.1000 Y12.5818 
G01 X12.1000 Y13.2644 
G01 X11.9829 Y13.3815 
G01 X11.8819 Y13.5327 
G01 X11.8123 Y13.7007 
G01 X11.7768 Y13.8791 
G01 X11.7768 Y14.0609 
G01 X11.8123 Y14.2393 
G01 X11.8819 Y14.4073 
G01 X11.9829 Y14.5585 
G01 X12.1115 Y14.6871 
G01 X12.2627 Y14.7881 
G01 X12.4307 Y14.8577 
G01 X12.6091 Y14.8932 
G01 X12.7909 Y14.8932 
G01 X12.9693 Y14.8577 
G01 X13.1373 Y14.7881 
G01 X13.2885 Y14.6871 
G01 X13.4171 Y14.5585 
G01 X13.5181 Y14.4073 
G01 X13.5877 Y14.2393 
G01 X13.6232 Y14.0609 
G01 X13.6232 Y13.8791 
G01 X13.5877 Y13.7007 
G01 X13.5400 Y13.5855 
G01 X13.5400 Y12.5818 
G01 X13.7027 Y12.4635 
G01 X13.8535 Y12.3127 
G01 X13.9789 Y12.1402 
G01 X14.0757 Y11.9501 
G01 X14.1416 Y11.7473 
G01 X14.1750 Y11.5366 
G01 X14.1750 Y8.7834 
G01 X14.1416 Y8.5727 
G01 X14.0757 Y8.3699 
G01 X13.9789 Y8.1798 
G01 X13.8535 Y8.0073 
G01 X13.7027 Y7.8565 
G01 X13.5302 Y7.7311 
G01 X13.3401 Y7.6343 
G01 X13.1373 Y7.5684 
G01 X12.9266 Y7.5350 
G01 X12.7134 Y7.5350 
G01 X12.5027 Y7.5684 
G01 X12.2999 Y7.6343 
G01 X12.1098 Y7.7311 
G01 X11.9373 Y7.8565 
G01 X11.7865 Y8.0073 
G01 X11.6611 Y8.1798 
G00 Z5.0000 
G00 X10.7294 Y19.5239 
G01 Z-0.1400 F254.00 
G01 X11.2101 Y20.0046 F1000.00 
G01 X11.5500 Y20.5934 
G01 X11.7260 Y21.2501 
G01 X11.7260 Y21.9299 
G01 X11.5500 Y22.5866 
G01 X11.2101 Y23.1754 
G01 X10.7294 Y23.6561 
G01 X10.1406 Y23.9960 
G01 X9.4839 Y24.1720 
G01 X8.8041 Y24.1720 
G01 X8.1474 Y23.9960 
G01 X7.5586 Y23.6561 
G01 X7.0779 Y23.1754 
G01 X6.7380 Y22.5866 
G01 X6.5620 Y21.9299 
G01 X6.5620 Y21.2501 
G01 X6.7380 Y20.5934 
G01 X7.0779 Y20.0046 
G01 X7.5586 Y19.5239 
G01 X8.1474 Y19.1840 
G01 X8.8041 Y19.0080 
G01 X9.4839 Y19.0080 
G01 X10.1406 Y19.1840 
G01 X10.7294 Y19.5239 
G00 Z5.0000 
G00 X9.5597 Y29.8538 
G01 Z-0.1400 F254.00 
G01 X12.0303 Y29.8538 F1000.00 
G01 X12.1175 Y29.8177 
G01 X12.1843 Y29.7509 
G01 X12.3354 Y29.5998 
G01 X13.0646 Y29.5998 
G01 X13.5802 Y30.1154 
G01 X13.5802 Y30.8446 
G01 X13.0646 Y31.3602 
G01 X12.3354 Y31.3602 
G01 X12.1175 Y31.1423 
G01 X12.0303 Y31.1062 
G01 X9.5597 Y31.1062 
G01 X9.4724 Y31.1423 
G01 X9.4057 Y31.2091 
G01 X9.2546 Y31.3602 
G01 X8.5254 Y31.3602 
G01 X8.0098 Y30.8446 
G01 X8.0098 Y30.1154 
G01 X8.5254 Y29.5998 
G01 X9.2546 Y29.5998 
G01 X9.4724 Y29.8177 
G01 X9.5597 Y29.8538 
G00 Z5.0000 
G00 X9.4528 Y29.9886 
G01 Z-0.1400 F254.00 
G01 X9.1988 Y29.7346 F1000.00 
G01 X8.5812 Y29.7346 
G01 X8.1446 Y30.1712 
G01 X8.1446 Y30.7888 
G01 X8.5812 Y31.2254 
G01 X9.1988 Y31.2254 
G01 X9.4528 Y30.9714 
G01 X12.1372 Y30.9714 
G01 X12.3912 Y31.2254 
G01 X13.0088 Y31.2254 
G01 X13.4454 Y30.7888 
G01 X13.4454 Y30.1712 
G01 X13.0088 Y29.7346 
G01 X12.3912 Y29.7346 
G01 X12.1372 Y29.9886 
G01 X9.4528 Y29.9886 
G00 Z5.0000 
G00 X9.8053 Y32.4891 
G01 Z-0.1400 F254.00 
G01 X10.0354 Y32.3938 F1000.00 
G01 X12.0303 Y32.3938 
G01 X12.1176 Y32.3577 
G01 X12.1843 Y32.2909 
G01 X12.3354 Y32.1398 
G01 X13.0646 Y32.1398 
G01 X13.5802 Y32.6554 
G01 X13.5802 Y33.3846 
G01 X13.0646 Y33.9002 
G01 X12.3354 Y33.9002 
G01 X12.1843 Y33.7491 
G01 X12.1176 Y33.6823 
G01 X12.0313 Y33.6466 
G01 X10.4705 Y33.6462 
G01 X10.3832 Y33.6823 
G01 X10.3165 Y33.7491 
G01 X9.5523 Y34.5132 
G01 X9.5162 Y34.6005 
G01 X9.5162 Y34.8903 
G01 X9.5523 Y34.9776 
G01 X9.6191 Y35.0443 
G01 X9.7702 Y35.1954 
G01 X9.7702 Y35.9246 
G01 X9.2546 Y36.4402 
G01 X8.5254 Y36.4402 
G01 X8.0098 Y35.9246 
G01 X8.0098 Y35.1954 
G01 X8.2277 Y34.9776 
G01 X8.2638 Y34.8903 
G01 X8.2638 Y34.1654 
G01 X8.3591 Y33.9353 
G01 X8.6021 Y33.6923 
G01 X9.8053 Y32.4891 
G00 Z5.0000 
G00 X9.8583 Y32.6268 
G01 Z-0.1400 F254.00 
G01 X9.7668 Y32.7183 F1000.00 
G01 X8.5883 Y33.8968 
G01 X8.4968 Y33.9883 
G01 X8.4321 Y34.1003 
G01 X8.3986 Y34.2253 
G01 X8.3986 Y34.9972 
G01 X8.1446 Y35.2512 
G01 X8.1446 Y35.8688 
G01 X8.5812 Y36.3054 
G01 X9.1988 Y36.3054 
G01 X9.6354 Y35.8688 
G01 X9.6354 Y35.2512 
G01 X9.3814 Y34.9972 
G01 X9.3814 Y34.4935 
G01 X10.3635 Y33.5114 
G01 X12.1372 Y33.5114 
G01 X12.3912 Y33.7654 
G01 X13.0088 Y33.7654 
G01 X13.4454 Y33.3288 
G01 X13.4454 Y32.7112 
G01 X13.0088 Y32.2746 
G01 X12.3912 Y32.2746 
G01 X12.1372 Y32.5286 
G01 X10.0953 Y32.5286 
G01 X9.9703 Y32.5621 
G01 X9.8583 Y32.6268 
G00 Z5.0000 
G00 X9.8053 Y37.5691 
G01 Z-0.1400 F254.00 
G01 X10.0354 Y37.4738 F1000.00 
G01 X23.4603 Y37.4738 
G01 X23.5476 Y37.4377 
G01 X23.6143 Y37.3709 
G01 X23.7654 Y37.2198 
G01 X24.4946 Y37.2198 
G01 X25.0102 Y37.7354 
G01 X25.0102 Y38.4646 
G01 X24.4946 Y38.9802 
G01 X23.7654 Y38.9802 
G01 X23.5476 Y38.7623 
G01 X23.4603 Y38.7262 
G01 X10.4705 Y38.7262 
G01 X10.3832 Y38.7623 
G01 X10.3165 Y38.8291 
G01 X9.5523 Y39.5932 
G01 X9.5162 Y39.6805 
G01 X9.5162 Y39.9703 
G01 X9.5523 Y40.0575 
G01 X9.6191 Y40.1243 
G01 X9.7702 Y40.2754 
G01 X9.7702 Y41.0046 
G01 X9.2546 Y41.5202 
G01 X8.5254 Y41.5202 
G01 X8.0098 Y41.0046 
G01 X8.0098 Y40.2754 
G01 X8.2277 Y40.0575 
G01 X8.2638 Y39.9703 
G01 X8.2638 Y39.2454 
G01 X8.3591 Y39.0153 
G01 X8.6021 Y38.7724 
G01 X9.8053 Y37.5691 
G00 Z5.0000 
G00 X9.8583 Y37.7068 
G01 Z-0.1400 F254.00 
G01 X8.5883 Y38.9768 F1000.00 
G01 X8.4968 Y39.0683 
G01 X8.4321 Y39.1803 
G01 X8.3986 Y39.3053 
G01 X8.3986 Y40.0772 
G01 X8.1446 Y40.3312 
G01 X8.1446 Y40.9488 
G01 X8.5812 Y41.3854 
G01 X9.1988 Y41.3854 
G01 X9.6354 Y40.9488 
G01 X9.6354 Y40.3312 
G01 X9.3814 Y40.0772 
G01 X9.3814 Y39.5735 
G01 X10.3635 Y38.5914 
G01 X23.5672 Y38.5914 
G01 X23.8212 Y38.8454 
G01 X24.4388 Y38.8454 
G01 X24.8754 Y38.4088 
G01 X24.8754 Y37.7912 
G01 X24.4388 Y37.3546 
G01 X23.8212 Y37.3546 
G01 X23.5672 Y37.6086 
G01 X10.0953 Y37.6086 
G01 X9.9703 Y37.6421 
G01 X9.8583 Y37.7068 
G00 Z5.0000 
G00 X16.1553 Y36.0909 
G01 Z-0.1400 F254.00 
G01 X15.9791 Y35.9147 F1000.00 
G01 X15.8838 Y35.6846 
G01 X15.8838 Y30.3554 
G01 X15.9791 Y30.1253 
G01 X16.1553 Y29.9491 
G01 X16.3854 Y29.8538 
G01 X19.6503 Y29.8538 
G01 X19.7375 Y29.8177 
G01 X19.8043 Y29.7509 
G01 X19.9554 Y29.5998 
G01 X20.6846 Y29.5998 
G01 X21.2002 Y30.1154 
G01 X21.2002 Y30.8446 
G01 X20.6846 Y31.3602 
G01 X19.9554 Y31.3602 
G01 X19.7375 Y31.1423 
G01 X19.6503 Y31.1062 
G01 X19.5558 Y31.1062 
G01 X17.3264 Y31.1062 
G01 X17.2391 Y31.1423 
G01 X17.1723 Y31.2091 
G01 X17.1362 Y31.2964 
G01 X17.1362 Y34.7436 
G01 X17.1723 Y34.8309 
G01 X17.2391 Y34.8977 
G01 X17.3264 Y34.9338 
G01 X26.5619 Y34.9338 
G01 X26.5851 Y34.9384 
G01 X26.6086 Y34.9338 
G01 X26.6326 Y34.9338 
G01 X26.6545 Y34.9247 
G01 X26.6707 Y34.9215 
G01 X26.6861 Y34.9246 
G01 X26.7083 Y34.9338 
G01 X26.7320 Y34.9338 
G01 X26.7553 Y34.9384 
G01 X26.7788 Y34.9338 
G01 X26.7946 Y34.9338 
G01 X26.8098 Y34.9401 
G01 X26.8295 Y34.9533 
G01 X26.8530 Y34.9580 
G01 X26.8751 Y34.9672 
G01 X26.8988 Y34.9672 
G01 X26.9149 Y34.9704 
G01 X26.9281 Y34.9792 
G01 X26.9450 Y34.9961 
G01 X26.9669 Y35.0052 
G01 X26.9866 Y35.0184 
G01 X27.0101 Y35.0231 
G01 X27.0247 Y35.0291 
G01 X27.0363 Y35.0408 
G01 X27.0495 Y35.0605 
G01 X27.0694 Y35.0738 
G01 X27.0864 Y35.0908 
G01 X27.1083 Y35.0999 
G01 X27.1219 Y35.1090 
G01 X27.1307 Y35.1221 
G01 X27.1399 Y35.1443 
G01 X27.1566 Y35.1611 
G01 X27.1698 Y35.1808 
G01 X27.1897 Y35.1941 
G01 X27.2009 Y35.2053 
G01 X27.2072 Y35.2205 
G01 X27.2118 Y35.2438 
G01 X27.2251 Y35.2637 
G01 X27.2342 Y35.2858 
G01 X27.2510 Y35.3026 
G01 X32.2107 Y42.7421 
G01 X32.2199 Y42.7643 
G01 X32.2366 Y42.7811 
G01 X32.2498 Y42.8008 
G01 X32.2697 Y42.8141 
G01 X32.2809 Y42.8253 
G01 X32.2872 Y42.8405 
G01 X32.2918 Y42.8637 
G01 X32.3051 Y42.8837 
G01 X32.3142 Y42.9058 
G01 X32.3310 Y42.9226 
G01 X32.3401 Y42.9363 
G01 X32.3432 Y42.9518 
G01 X32.3432 Y42.9757 
G01 X32.3523 Y42.9976 
G01 X32.3569 Y43.0209 
G01 X32.3702 Y43.0408 
G01 X32.3762 Y43.0554 
G01 X32.3762 Y43.0719 
G01 X32.3715 Y43.0951 
G01 X32.3762 Y43.1186 
G01 X32.3762 Y43.1426 
G01 X32.3853 Y43.1645 
G01 X32.3885 Y43.1807 
G01 X32.3854 Y43.1961 
G01 X32.3762 Y43.2183 
G01 X32.3762 Y43.2420 
G01 X32.3715 Y43.2653 
G01 X32.3762 Y43.2888 
G01 X32.3762 Y48.4914 
G01 X32.3594 Y48.5165 
G01 X32.3032 Y48.6522 
G01 X32.2746 Y48.7962 
G01 X32.2746 Y50.2638 
G01 X32.3032 Y50.4078 
G01 X32.3594 Y50.5435 
G01 X32.3762 Y50.5686 
G01 X32.3762 Y52.1946 
G01 X32.2809 Y52.4247 
G01 X32.1047 Y52.6009 
G01 X31.8746 Y52.6962 
G01 X25.2754 Y52.6962 
G01 X25.0453 Y52.6009 
G01 X24.8691 Y52.4247 
G01 X24.7738 Y52.1946 
G01 X24.7738 Y50.8601 
G01 X24.7593 Y50.8250 
G01 X24.7377 Y50.7728 
G01 X24.6709 Y50.7061 
G01 X24.6538 Y50.6890 
G01 X24.5198 Y50.3655 
G01 X24.5198 Y48.6945 
G01 X24.6538 Y48.3710 
G01 X24.9014 Y48.1234 
G01 X25.2249 Y47.9894 
G01 X25.5751 Y47.9894 
G01 X25.8986 Y48.1234 
G01 X26.1462 Y48.3710 
G01 X26.2802 Y48.6945 
G01 X26.2802 Y50.3655 
G01 X26.1462 Y50.6890 
G01 X26.1291 Y50.7061 
G01 X26.0647 Y50.7705 
G01 X26.0416 Y50.8229 
G01 X26.0262 Y50.8601 
G01 X26.0262 Y51.2536 
G01 X26.0623 Y51.3409 
G01 X26.1291 Y51.4077 
G01 X26.2164 Y51.4438 
G01 X27.5196 Y51.4438 
G01 X27.5548 Y51.4293 
G01 X27.6069 Y51.4077 
G01 X27.6737 Y51.3409 
G01 X27.7098 Y51.2536 
G01 X27.7098 Y51.1592 
G01 X27.6953 Y51.1241 
G01 X27.6737 Y51.0719 
G01 X27.6069 Y51.0051 
G01 X27.5196 Y50.9690 
G01 X27.4414 Y50.9366 
G01 X27.1938 Y50.6890 
G01 X27.0598 Y50.3655 
G01 X27.0598 Y48.6945 
G01 X27.1622 Y48.4473 
G01 X27.1754 Y48.4276 
G01 X27.1801 Y48.4041 
G01 X27.1893 Y48.3819 
G01 X27.1893 Y48.3582 
G01 X27.1939 Y48.3349 
G01 X27.1893 Y48.3114 
G01 X27.1893 Y48.2875 
G01 X27.1802 Y48.2656 
G01 X27.1756 Y48.2423 
G01 X27.1623 Y48.2224 
G01 X27.1531 Y48.2002 
G01 X27.1364 Y48.1835 
G01 X25.1627 Y45.2229 
G01 X25.1535 Y45.2008 
G01 X25.1367 Y45.1840 
G01 X25.1236 Y45.1643 
G01 X25.1037 Y45.1510 
G01 X25.0867 Y45.1340 
G01 X25.0648 Y45.1249 
G01 X25.0451 Y45.1117 
G01 X25.0216 Y45.1070 
G01 X24.9995 Y45.0979 
G01 X24.9758 Y45.0979 
G01 X24.9525 Y45.0932 
G01 X24.9290 Y45.0979 
G01 X24.9050 Y45.0979 
G01 X24.8831 Y45.1069 
G01 X24.8599 Y45.1115 
G01 X24.8399 Y45.1248 
G01 X24.8178 Y45.1340 
G01 X24.8010 Y45.1508 
G01 X24.7813 Y45.1639 
G01 X24.7680 Y45.1838 
G01 X24.7556 Y45.1962 
G01 X24.4321 Y45.3302 
G01 X24.0819 Y45.3302 
G01 X23.7584 Y45.1962 
G01 X23.6745 Y45.1123 
G01 X23.5873 Y45.0762 
G01 X19.7197 Y45.0762 
G01 X19.6324 Y45.1123 
G01 X19.5657 Y45.1791 
G01 X19.4146 Y45.3302 
G01 X18.6854 Y45.3302 
G01 X18.1698 Y44.8146 
G01 X18.1698 Y44.0854 
G01 X18.6854 Y43.5698 
G01 X19.4146 Y43.5698 
G01 X19.6324 Y43.7877 
G01 X19.7197 Y43.8238 
G01 X23.5873 Y43.8238 
G01 X23.6745 Y43.7877 
G01 X23.7413 Y43.7209 
G01 X23.7584 Y43.7038 
G01 X24.0819 Y43.5698 
G01 X24.4321 Y43.5698 
G01 X24.7556 Y43.7038 
G01 X24.8394 Y43.7877 
G01 X24.9267 Y43.8238 
G01 X25.2919 Y43.8238 
G01 X25.3151 Y43.8284 
G01 X25.3386 Y43.8238 
G01 X25.3626 Y43.8238 
G01 X25.3845 Y43.8147 
G01 X25.4007 Y43.8115 
G01 X25.4161 Y43.8146 
G01 X25.4383 Y43.8238 
G01 X25.4620 Y43.8238 
G01 X25.4853 Y43.8284 
G01 X25.5088 Y43.8238 
G01 X25.5246 Y43.8238 
G01 X25.5398 Y43.8301 
G01 X25.5595 Y43.8433 
G01 X25.5830 Y43.8480 
G01 X25.6051 Y43.8572 
G01 X25.6288 Y43.8572 
G01 X25.6449 Y43.8604 
G01 X25.6581 Y43.8692 
G01 X25.6750 Y43.8861 
G01 X25.6969 Y43.8952 
G01 X25.7166 Y43.9084 
G01 X25.7401 Y43.9131 
G01 X25.7547 Y43.9191 
G01 X25.7663 Y43.9308 
G01 X25.7795 Y43.9505 
G01 X25.7994 Y43.9638 
G01 X25.8164 Y43.9808 
G01 X25.8383 Y43.9899 
G01 X25.8519 Y43.9990 
G01 X25.8607 Y44.0121 
G01 X25.8699 Y44.0343 
G01 X25.8866 Y44.0511 
G01 X25.8998 Y44.0708 
G01 X25.9197 Y44.0841 
G01 X25.9309 Y44.0953 
G01 X25.9372 Y44.1105 
G01 X25.9418 Y44.1338 
G01 X25.9551 Y44.1537 
G01 X25.9642 Y44.1758 
G01 X25.9810 Y44.1926 
G01 X28.4007 Y47.8221 
G01 X28.4099 Y47.8443 
G01 X28.4266 Y47.8611 
G01 X28.4398 Y47.8808 
G01 X28.4597 Y47.8941 
G01 X28.4709 Y47.9053 
G01 X28.4772 Y47.9205 
G01 X28.4818 Y47.9437 
G01 X28.4951 Y47.9637 
G01 X28.5042 Y47.9858 
G01 X28.5210 Y48.0026 
G01 X28.5301 Y48.0163 
G01 X28.5332 Y48.0318 
G01 X28.5332 Y48.0557 
G01 X28.5423 Y48.0776 
G01 X28.5469 Y48.1009 
G01 X28.5602 Y48.1208 
G01 X28.5662 Y48.1354 
G01 X28.5662 Y48.1999 
G01 X28.6023 Y48.2871 
G01 X28.6691 Y48.3539 
G01 X28.6862 Y48.3710 
G01 X28.8202 Y48.6945 
G01 X28.8202 Y50.3655 
G01 X28.6862 Y50.6890 
G01 X28.4386 Y50.9366 
G01 X28.3604 Y50.9690 
G01 X28.2731 Y51.0051 
G01 X28.2074 Y51.0709 
G01 X28.1856 Y51.1220 
G01 X28.1702 Y51.1592 
G01 X28.1702 Y51.2536 
G01 X28.2063 Y51.3409 
G01 X28.2721 Y51.4066 
G01 X28.3232 Y51.4284 
G01 X28.3603 Y51.4438 
G01 X30.0596 Y51.4438 
G01 X30.0948 Y51.4293 
G01 X30.1469 Y51.4077 
G01 X30.2137 Y51.3409 
G01 X30.2498 Y51.2536 
G01 X30.2498 Y51.1592 
G01 X30.2353 Y51.1241 
G01 X30.2137 Y51.0719 
G01 X30.1469 Y51.0051 
G01 X30.0596 Y50.9690 
G01 X29.9814 Y50.9366 
G01 X29.7338 Y50.6890 
G01 X29.5998 Y50.3655 
G01 X29.5998 Y48.6945 
G01 X29.7338 Y48.3710 
G01 X29.8177 Y48.2871 
G01 X29.8538 Y48.1999 
G01 X29.8538 Y47.2394 
G01 X29.8571 Y47.2287 
G01 X29.8538 Y47.1925 
G01 X29.8538 Y47.1562 
G01 X29.8495 Y47.1458 
G01 X29.8485 Y47.1346 
G01 X29.8316 Y47.1025 
G01 X29.8177 Y47.0689 
G01 X29.8097 Y47.0610 
G01 X28.9413 Y45.4109 
G01 X28.9274 Y45.3774 
G01 X28.9194 Y45.3694 
G01 X28.9142 Y45.3595 
G01 X28.8863 Y45.3363 
G01 X28.8606 Y45.3106 
G01 X28.8502 Y45.3063 
G01 X28.8416 Y45.2991 
G01 X28.8069 Y45.2884 
G01 X28.5844 Y45.1962 
G01 X28.3368 Y44.9486 
G01 X28.2028 Y44.6251 
G01 X28.2028 Y44.2749 
G01 X28.3368 Y43.9514 
G01 X28.5477 Y43.7405 
G01 X28.5838 Y43.6533 
G01 X28.5838 Y43.4905 
G01 X28.5477 Y43.4032 
G01 X28.4809 Y43.3365 
G01 X27.7168 Y42.5723 
G01 X27.6295 Y42.5362 
G01 X19.7197 Y42.5362 
G01 X19.6324 Y42.5723 
G01 X19.5657 Y42.6391 
G01 X19.4146 Y42.7902 
G01 X18.6854 Y42.7902 
G01 X18.1698 Y42.2746 
G01 X18.1698 Y41.5454 
G01 X18.6854 Y41.0298 
G01 X19.4146 Y41.0298 
G01 X19.6324 Y41.2477 
G01 X19.7197 Y41.2838 
G01 X28.0646 Y41.2838 
G01 X28.2947 Y41.3791 
G01 X29.5647 Y42.6491 
G01 X29.7409 Y42.8253 
G01 X29.8362 Y43.0554 
G01 X29.8362 Y43.9683 
G01 X29.8723 Y44.0556 
G01 X29.9632 Y44.2749 
G01 X29.9632 Y44.5689 
G01 X29.9599 Y44.5796 
G01 X29.9632 Y44.6158 
G01 X29.9632 Y44.6521 
G01 X29.9675 Y44.6625 
G01 X29.9685 Y44.6737 
G01 X29.9854 Y44.7058 
G01 X29.9993 Y44.7394 
G01 X30.0073 Y44.7473 
G01 X30.6712 Y46.0089 
G01 X30.6851 Y46.0424 
G01 X30.6931 Y46.0504 
G01 X30.6983 Y46.0603 
G01 X30.7262 Y46.0835 
G01 X30.7519 Y46.1092 
G01 X30.7623 Y46.1135 
G01 X30.7709 Y46.1207 
G01 X30.8056 Y46.1314 
G01 X30.8392 Y46.1453 
G01 X30.8504 Y46.1453 
G01 X30.8611 Y46.1487 
G01 X30.8973 Y46.1453 
G01 X30.9336 Y46.1453 
G01 X30.9440 Y46.1410 
G01 X30.9552 Y46.1400 
G01 X30.9873 Y46.1231 
G01 X31.0209 Y46.1092 
G01 X31.0288 Y46.1013 
G01 X31.0388 Y46.0960 
G01 X31.0620 Y46.0681 
G01 X31.0877 Y46.0424 
G01 X31.0920 Y46.0320 
G01 X31.0991 Y46.0234 
G01 X31.1099 Y45.9887 
G01 X31.1238 Y45.9552 
G01 X31.1238 Y45.9439 
G01 X31.1271 Y45.9332 
G01 X31.1238 Y45.8970 
G01 X31.1238 Y43.4650 
G01 X31.1284 Y43.4417 
G01 X31.1238 Y43.4182 
G01 X31.1238 Y43.3942 
G01 X31.1147 Y43.3723 
G01 X31.1101 Y43.3491 
G01 X31.0968 Y43.3291 
G01 X31.0877 Y43.3070 
G01 X31.0709 Y43.2902 
G01 X27.4154 Y37.8070 
G01 X27.4154 Y37.7912 
G01 X27.3839 Y37.7597 
G01 X26.4182 Y36.3113 
G01 X26.4091 Y36.2891 
G01 X26.3923 Y36.2723 
G01 X26.3791 Y36.2526 
G01 X26.3592 Y36.2393 
G01 X26.3423 Y36.2223 
G01 X26.3204 Y36.2133 
G01 X26.3007 Y36.2001 
G01 X26.2772 Y36.1954 
G01 X26.2550 Y36.1862 
G01 X26.2313 Y36.1862 
G01 X26.2081 Y36.1815 
G01 X26.1846 Y36.1862 
G01 X16.3854 Y36.1862 
G01 X16.1553 Y36.0909 
G00 Z5.0000 
G00 X16.2083 Y35.9532 
G01 Z-0.1400 F254.00 
G01 X16.3203 Y36.0179 F1000.00 
G01 X16.4453 Y36.0514 
G01 X26.4070 Y36.0514 
G01 X31.2586 Y43.3288 
G01 X31.2586 Y51.5786 
G01 X25.8914 Y51.5786 
G01 X25.8914 Y50.7532 
G01 X25.9790 Y50.6656 
G01 X26.0606 Y50.5435 
G01 X26.1168 Y50.4078 
G01 X26.1454 Y50.2638 
G01 X26.1454 Y48.7962 
G01 X26.1168 Y48.6522 
G01 X26.0606 Y48.5165 
G01 X25.9790 Y48.3944 
G01 X25.8752 Y48.2906 
G01 X25.7531 Y48.2090 
G01 X25.6174 Y48.1528 
G01 X25.4734 Y48.1242 
G01 X25.3266 Y48.1242 
G01 X25.1826 Y48.1528 
G01 X25.0469 Y48.2090 
G01 X24.9248 Y48.2906 
G01 X24.8210 Y48.3944 
G01 X24.7394 Y48.5165 
G01 X24.6832 Y48.6522 
G01 X24.6546 Y48.7962 
G01 X24.6546 Y50.2638 
G01 X24.6832 Y50.4078 
G01 X24.7394 Y50.5435 
G01 X24.8210 Y50.6656 
G01 X24.9086 Y50.7532 
G01 X24.9086 Y52.1347 
G01 X24.9421 Y52.2597 
G01 X25.0068 Y52.3717 
G01 X25.0983 Y52.4632 
G01 X25.2103 Y52.5279 
G01 X25.3353 Y52.5614 
G01 X31.8147 Y52.5614 
G01 X31.9397 Y52.5279 
G01 X32.0517 Y52.4632 
G01 X32.1432 Y52.3717 
G01 X32.2079 Y52.2597 
G01 X32.2414 Y52.1347 
G01 X32.2414 Y43.2287 
G01 X32.2445 Y43.2129 
G01 X32.2414 Y43.1642 
G01 X32.2414 Y43.1153 
G01 X32.2372 Y43.0998 
G01 X32.2362 Y43.0838 
G01 X32.2206 Y43.0375 
G01 X32.2079 Y42.9903 
G01 X32.1999 Y42.9764 
G01 X32.1948 Y42.9612 
G01 X32.1676 Y42.9206 
G01 X32.1432 Y42.8783 
G01 X32.1319 Y42.8669 
G01 X27.0877 Y35.3006 
G01 X27.0632 Y35.2583 
G01 X27.0519 Y35.2469 
G01 X27.0430 Y35.2336 
G01 X27.0063 Y35.2013 
G01 X26.9717 Y35.1668 
G01 X26.9578 Y35.1588 
G01 X26.9458 Y35.1482 
G01 X26.9020 Y35.1265 
G01 X26.8597 Y35.1021 
G01 X26.8442 Y35.0979 
G01 X26.8298 Y35.0908 
G01 X26.7819 Y35.0812 
G01 X26.7347 Y35.0686 
G01 X26.7187 Y35.0686 
G01 X26.7029 Y35.0655 
G01 X26.6542 Y35.0686 
G01 X17.0014 Y35.0686 
G01 X17.0014 Y30.9714 
G01 X19.7572 Y30.9714 
G01 X20.0112 Y31.2254 
G01 X20.6288 Y31.2254 
G01 X21.0654 Y30.7888 
G01 X21.0654 Y30.1712 
G01 X20.6288 Y29.7346 
G01 X20.0112 Y29.7346 
G01 X19.7572 Y29.9886 
G01 X16.4453 Y29.9886 
G01 X16.3203 Y30.0221 
G01 X16.2083 Y30.0868 
G01 X16.1168 Y30.1783 
G01 X16.0521 Y30.2903 
G01 X16.0186 Y30.4153 
G01 X16.0186 Y35.6247 
G01 X16.0521 Y35.7497 
G01 X16.1168 Y35.8617 
G01 X16.2083 Y35.9532 
G00 Z5.0000 
G00 X19.9554 Y33.9002 
G01 Z-0.1400 F254.00 
G01 X19.4398 Y33.3846 F1000.00 
G01 X19.4398 Y32.6554 
G01 X19.9554 Y32.1398 
G01 X20.6846 Y32.1398 
G01 X20.8008 Y32.2561 
G01 X20.8881 Y32.2922 
G01 X25.7786 Y32.2922 
G01 X25.8659 Y32.2561 
G01 X25.9326 Y32.1893 
G01 X26.0419 Y32.0800 
G01 X26.4494 Y31.9112 
G01 X26.8906 Y31.9112 
G01 X27.2981 Y32.0800 
G01 X27.6100 Y32.3919 
G01 X27.7788 Y32.7994 
G01 X27.7788 Y33.2405 
G01 X27.6100 Y33.6481 
G01 X27.2981 Y33.9600 
G01 X26.8906 Y34.1288 
G01 X26.4494 Y34.1288 
G01 X26.0419 Y33.9600 
G01 X25.8659 Y33.7839 
G01 X25.7786 Y33.7478 
G01 X20.8881 Y33.7478 
G01 X20.8008 Y33.7839 
G01 X20.7341 Y33.8507 
G01 X20.6846 Y33.9002 
G01 X19.9554 Y33.9002 
G00 Z5.0000 
G00 X20.0112 Y33.7654 
G01 Z-0.1400 F254.00 
G01 X20.6288 Y33.7654 F1000.00 
G01 X20.7812 Y33.6130 
G01 X25.8948 Y33.6130 
G01 X25.9134 Y33.6409 
G01 X26.0491 Y33.7766 
G01 X26.2086 Y33.8831 
G01 X26.3859 Y33.9566 
G01 X26.5741 Y33.9940 
G01 X26.7659 Y33.9940 
G01 X26.9541 Y33.9566 
G01 X27.1314 Y33.8831 
G01 X27.2909 Y33.7766 
G01 X27.4266 Y33.6409 
G01 X27.5331 Y33.4814 
G01 X27.6066 Y33.3041 
G01 X27.6440 Y33.1159 
G01 X27.6440 Y32.9241 
G01 X27.6066 Y32.7359 
G01 X27.5331 Y32.5586 
G01 X27.4266 Y32.3991 
G01 X27.2909 Y32.2634 
G01 X27.1314 Y32.1569 
G01 X26.9541 Y32.0834 
G01 X26.7659 Y32.0460 
G01 X26.5741 Y32.0460 
G01 X26.3859 Y32.0834 
G01 X26.2086 Y32.1569 
G01 X26.0491 Y32.2634 
G01 X25.9134 Y32.3991 
G01 X25.8948 Y32.4270 
G01 X20.7812 Y32.4270 
G01 X20.6288 Y32.2746 
G01 X20.0112 Y32.2746 
G01 X19.5746 Y32.7112 
G01 X19.5746 Y33.3288 
G01 X20.0112 Y33.7654 
G00 Z5.0000 
G00 X23.7654 Y31.3602 
G01 Z-0.1400 F254.00 
G01 X23.2498 Y30.8446 F1000.00 
G01 X23.2498 Y30.1154 
G01 X23.3661 Y29.9992 
G01 X23.4022 Y29.9119 
G01 X23.4022 Y29.2236 
G01 X23.3874 Y29.1880 
G01 X23.3661 Y29.1364 
G01 X23.2993 Y29.0696 
G01 X23.2853 Y29.0638 
G01 X23.2120 Y29.0335 
G01 X23.1176 Y29.0335 
G01 X23.0805 Y29.0488 
G01 X22.6394 Y29.0488 
G01 X22.2319 Y28.8800 
G01 X21.9200 Y28.5681 
G01 X21.7512 Y28.1606 
G01 X21.7512 Y27.7194 
G01 X21.9200 Y27.3119 
G01 X22.2319 Y27.0000 
G01 X22.6394 Y26.8312 
G01 X23.0805 Y26.8312 
G01 X23.1176 Y26.8465 
G01 X23.2120 Y26.8465 
G01 X23.2833 Y26.8170 
G01 X23.2993 Y26.8104 
G01 X23.3650 Y26.7446 
G01 X23.3870 Y26.6930 
G01 X23.4022 Y26.6564 
G01 X23.4022 Y25.3782 
G01 X23.3661 Y25.2909 
G01 X23.2993 Y25.2241 
G01 X23.2120 Y25.1880 
G01 X23.0813 Y25.1880 
G01 X22.6925 Y25.0269 
G01 X22.3949 Y24.7293 
G01 X22.2338 Y24.3404 
G01 X22.2338 Y23.9195 
G01 X22.3949 Y23.5307 
G01 X22.6925 Y23.2331 
G01 X23.0813 Y23.0720 
G01 X25.1786 Y23.0720 
G01 X25.5675 Y23.2331 
G01 X25.7005 Y23.3661 
G01 X25.7877 Y23.4022 
G01 X28.2790 Y23.4022 
G01 X28.3663 Y23.3661 
G01 X28.4330 Y23.2993 
G01 X28.4692 Y23.2120 
G01 X28.4692 Y23.1176 
G01 X28.4330 Y23.0303 
G01 X28.3298 Y22.7811 
G01 X28.3298 Y22.4309 
G01 X28.4638 Y22.1074 
G01 X28.7114 Y21.8598 
G01 X29.0349 Y21.7258 
G01 X29.3851 Y21.7258 
G01 X29.7086 Y21.8598 
G01 X29.9562 Y22.1074 
G01 X30.0902 Y22.4309 
G01 X30.0902 Y22.7811 
G01 X29.9870 Y23.0303 
G01 X29.9515 Y23.1158 
G01 X29.9508 Y23.2120 
G01 X29.9870 Y23.2993 
G01 X30.0537 Y23.3661 
G01 X30.1400 Y23.4018 
G01 X31.9496 Y23.4022 
G01 X32.0369 Y23.3661 
G01 X32.1037 Y23.2993 
G01 X32.1398 Y23.2120 
G01 X32.1398 Y22.4954 
G01 X32.6554 Y21.9798 
G01 X33.3846 Y21.9798 
G01 X33.9002 Y22.4954 
G01 X33.9002 Y23.2120 
G01 X33.9363 Y23.2993 
G01 X34.0031 Y23.3661 
G01 X34.0904 Y23.4022 
G01 X34.6686 Y23.4022 
G01 X34.7559 Y23.3661 
G01 X34.8226 Y23.2993 
G01 X34.9319 Y23.1900 
G01 X35.3394 Y23.0212 
G01 X35.7805 Y23.0212 
G01 X36.1881 Y23.1900 
G01 X36.3641 Y23.3661 
G01 X36.4514 Y23.4022 
G01 X37.1820 Y23.4022 
G01 X37.2693 Y23.3661 
G01 X37.3361 Y23.2993 
G01 X37.3722 Y23.2120 
G01 X37.3722 Y20.8881 
G01 X37.3577 Y20.8530 
G01 X37.3361 Y20.8008 
G01 X37.2693 Y20.7341 
G01 X37.2198 Y20.6846 
G01 X37.2198 Y19.9554 
G01 X37.7354 Y19.4398 
G01 X38.4646 Y19.4398 
G01 X38.9802 Y19.9554 
G01 X38.9802 Y20.6846 
G01 X38.9307 Y20.7341 
G01 X38.8656 Y20.7992 
G01 X38.8432 Y20.8509 
G01 X38.8278 Y20.8881 
G01 X38.8278 Y25.4666 
G01 X38.8639 Y25.5538 
G01 X38.9802 Y25.8345 
G01 X38.9802 Y27.5055 
G01 X38.8462 Y27.8290 
G01 X38.5986 Y28.0766 
G01 X38.2751 Y28.2106 
G01 X37.9249 Y28.2106 
G01 X37.6014 Y28.0766 
G01 X37.3538 Y27.8290 
G01 X37.2198 Y27.5055 
G01 X37.2198 Y25.8345 
G01 X37.3361 Y25.5538 
G01 X37.3695 Y25.4731 
G01 X37.3722 Y25.4666 
G01 X37.3722 Y25.0480 
G01 X37.3361 Y24.9607 
G01 X37.2693 Y24.8939 
G01 X37.1820 Y24.8578 
G01 X36.4780 Y24.8578 
G01 X36.3907 Y24.8939 
G01 X36.3239 Y24.9607 
G01 X36.2878 Y25.0480 
G01 X36.2878 Y26.1019 
G01 X36.3023 Y26.1370 
G01 X36.3239 Y26.1892 
G01 X36.3907 Y26.2559 
G01 X36.4402 Y26.3054 
G01 X36.4402 Y27.0346 
G01 X35.9246 Y27.5502 
G01 X35.1954 Y27.5502 
G01 X34.6798 Y27.0346 
G01 X34.6798 Y26.3054 
G01 X34.7293 Y26.2559 
G01 X34.7944 Y26.1908 
G01 X34.8168 Y26.1391 
G01 X34.8322 Y26.1019 
G01 X34.8322 Y25.0480 
G01 X34.7961 Y24.9607 
G01 X34.7293 Y24.8939 
G01 X34.6420 Y24.8578 
G01 X30.1280 Y24.8578 
G01 X30.0407 Y24.8939 
G01 X29.9739 Y24.9607 
G01 X29.9378 Y25.0480 
G01 X29.9378 Y32.7161 
G01 X29.9333 Y32.7358 
G01 X29.9378 Y32.7629 
G01 X29.9378 Y32.7904 
G01 X29.9455 Y32.8091 
G01 X29.9489 Y32.8290 
G01 X29.9634 Y32.8523 
G01 X29.9739 Y32.8777 
G01 X29.9882 Y32.8919 
G01 X30.1920 Y33.2180 
G01 X30.2025 Y33.2434 
G01 X30.2168 Y33.2577 
G01 X30.2275 Y33.2748 
G01 X30.2499 Y33.2908 
G01 X30.2693 Y33.3102 
G01 X30.2880 Y33.3179 
G01 X30.3044 Y33.3297 
G01 X30.3312 Y33.3358 
G01 X30.3566 Y33.3463 
G01 X30.3768 Y33.3463 
G01 X30.3964 Y33.3509 
G01 X30.4235 Y33.3463 
G01 X30.4510 Y33.3463 
G01 X30.4697 Y33.3386 
G01 X30.4896 Y33.3353 
G01 X30.5129 Y33.3207 
G01 X30.5383 Y33.3102 
G01 X30.5526 Y33.2959 
G01 X30.5697 Y33.2852 
G01 X30.5856 Y33.2629 
G01 X30.6051 Y33.2434 
G01 X30.6128 Y33.2248 
G01 X30.6245 Y33.2083 
G01 X30.6307 Y33.1816 
G01 X30.6412 Y33.1562 
G01 X30.6412 Y33.1360 
G01 X30.6457 Y33.1163 
G01 X30.6412 Y33.0892 
G01 X30.6412 Y32.7994 
G01 X30.8100 Y32.3919 
G01 X31.1219 Y32.0800 
G01 X31.5294 Y31.9112 
G01 X31.9705 Y31.9112 
G01 X32.3781 Y32.0800 
G01 X32.6900 Y32.3919 
G01 X32.8588 Y32.7994 
G01 X32.8588 Y33.2405 
G01 X32.8233 Y33.3263 
G01 X32.8115 Y33.3428 
G01 X32.8054 Y33.3695 
G01 X32.7948 Y33.3949 
G01 X32.7948 Y33.4151 
G01 X32.7903 Y33.4348 
G01 X32.7948 Y33.4619 
G01 X32.7948 Y33.4894 
G01 X32.8026 Y33.5080 
G01 X32.8059 Y33.5279 
G01 X32.8205 Y33.5513 
G01 X32.8310 Y33.5766 
G01 X32.8453 Y33.5909 
G01 X36.5420 Y39.5057 
G01 X36.5525 Y39.5311 
G01 X36.5668 Y39.5454 
G01 X36.5775 Y39.5625 
G01 X36.5999 Y39.5785 
G01 X36.6193 Y39.5979 
G01 X36.6380 Y39.6056 
G01 X36.6544 Y39.6174 
G01 X36.6812 Y39.6235 
G01 X36.7066 Y39.6340 
G01 X36.7268 Y39.6340 
G01 X36.7464 Y39.6386 
G01 X36.7735 Y39.6340 
G01 X36.8010 Y39.6340 
G01 X36.8197 Y39.6263 
G01 X36.8396 Y39.6230 
G01 X36.8629 Y39.6084 
G01 X36.8883 Y39.5979 
G01 X36.9025 Y39.5836 
G01 X36.9197 Y39.5729 
G01 X36.9356 Y39.5506 
G01 X36.9551 Y39.5311 
G01 X36.9628 Y39.5125 
G01 X36.9745 Y39.4960 
G01 X36.9807 Y39.4693 
G01 X36.9912 Y39.4439 
G01 X36.9912 Y39.4237 
G01 X36.9957 Y39.4040 
G01 X36.9912 Y39.3769 
G01 X36.9912 Y39.1494 
G01 X37.1600 Y38.7419 
G01 X37.4377 Y38.4643 
G01 X37.4738 Y38.3770 
G01 X37.4738 Y35.6201 
G01 X37.4377 Y35.5328 
G01 X37.3709 Y35.4661 
G01 X37.3538 Y35.4490 
G01 X37.2198 Y35.1255 
G01 X37.2198 Y35.1064 
G01 X37.1837 Y35.0191 
G01 X37.1169 Y34.9523 
G01 X37.0296 Y34.9162 
G01 X36.2297 Y34.9162 
G01 X36.1424 Y34.9523 
G01 X36.0757 Y35.0191 
G01 X35.9246 Y35.1702 
G01 X35.1954 Y35.1702 
G01 X34.6798 Y34.6546 
G01 X34.6798 Y33.9254 
G01 X35.1954 Y33.4098 
G01 X35.9246 Y33.4098 
G01 X36.1424 Y33.6277 
G01 X36.2297 Y33.6638 
G01 X37.0296 Y33.6638 
G01 X37.1169 Y33.6277 
G01 X37.1837 Y33.5609 
G01 X37.2198 Y33.4736 
G01 X37.2198 Y33.4545 
G01 X37.3538 Y33.1310 
G01 X37.6014 Y32.8834 
G01 X37.9249 Y32.7494 
G01 X38.2751 Y32.7494 
G01 X38.5986 Y32.8834 
G01 X38.8462 Y33.1310 
G01 X38.9802 Y33.4545 
G01 X38.9802 Y35.1255 
G01 X38.8462 Y35.4490 
G01 X38.7623 Y35.5328 
G01 X38.7262 Y35.6201 
G01 X38.7262 Y38.3770 
G01 X38.7623 Y38.4643 
G01 X38.8291 Y38.5310 
G01 X39.0400 Y38.7419 
G01 X39.2088 Y39.1494 
G01 X39.2088 Y39.5906 
G01 X39.0400 Y39.9981 
G01 X38.7281 Y40.3100 
G01 X38.3205 Y40.4788 
G01 X37.8794 Y40.4788 
G01 X37.6057 Y40.3654 
G01 X37.5893 Y40.3537 
G01 X37.5625 Y40.3475 
G01 X37.5371 Y40.3370 
G01 X37.5169 Y40.3370 
G01 X37.4973 Y40.3325 
G01 X37.4702 Y40.3370 
G01 X37.4427 Y40.3370 
G01 X37.4240 Y40.3447 
G01 X37.4041 Y40.3481 
G01 X37.3808 Y40.3626 
G01 X37.3554 Y40.3731 
G01 X37.3411 Y40.3874 
G01 X37.3240 Y40.3981 
G01 X37.3081 Y40.4205 
G01 X37.2886 Y40.4399 
G01 X37.2809 Y40.4586 
G01 X37.2692 Y40.4750 
G01 X37.2630 Y40.5018 
G01 X37.2525 Y40.5272 
G01 X37.2525 Y40.5474 
G01 X37.2480 Y40.5670 
G01 X37.2525 Y40.5941 
G01 X37.2525 Y40.6216 
G01 X37.2602 Y40.6403 
G01 X37.2636 Y40.6602 
G01 X37.2781 Y40.6835 
G01 X37.2886 Y40.7089 
G01 X37.3029 Y40.7231 
G01 X38.5684 Y42.7480 
G01 X38.5789 Y42.7734 
G01 X38.5932 Y42.7876 
G01 X38.6039 Y42.8048 
G01 X38.6263 Y42.8207 
G01 X38.6309 Y42.8253 
G01 X38.6407 Y42.8490 
G01 X38.6440 Y42.8690 
G01 X38.6586 Y42.8923 
G01 X38.6691 Y42.9176 
G01 X38.6834 Y42.9319 
G01 X38.6970 Y42.9537 
G01 X38.6981 Y42.9601 
G01 X38.6981 Y42.9876 
G01 X38.7058 Y43.0062 
G01 X38.7092 Y43.0262 
G01 X38.7237 Y43.0495 
G01 X38.7262 Y43.0554 
G01 X38.7262 Y43.0812 
G01 X38.7217 Y43.1008 
G01 X38.7262 Y43.1279 
G01 X38.7262 Y43.1554 
G01 X38.7339 Y43.1741 
G01 X38.7382 Y43.1994 
G01 X38.7367 Y43.2057 
G01 X38.7262 Y43.2311 
G01 X38.7262 Y43.2513 
G01 X38.7217 Y43.2710 
G01 X38.7262 Y43.2981 
G01 X38.7262 Y48.1999 
G01 X38.7407 Y48.2350 
G01 X38.7623 Y48.2871 
G01 X38.8291 Y48.3539 
G01 X38.8462 Y48.3710 
G01 X38.9802 Y48.6945 
G01 X38.9802 Y50.3655 
G01 X38.8462 Y50.6890 
G01 X38.5986 Y50.9366 
G01 X38.2751 Y51.0706 
G01 X37.9249 Y51.0706 
G01 X37.6014 Y50.9366 
G01 X37.3538 Y50.6890 
G01 X37.2198 Y50.3655 
G01 X37.2198 Y48.6945 
G01 X37.3538 Y48.3710 
G01 X37.3709 Y48.3539 
G01 X37.4353 Y48.2895 
G01 X37.4584 Y48.2371 
G01 X37.4738 Y48.1999 
G01 X37.4738 Y43.4547 
G01 X37.4783 Y43.4350 
G01 X37.4738 Y43.4079 
G01 X37.4738 Y43.3805 
G01 X37.4661 Y43.3618 
G01 X37.4627 Y43.3419 
G01 X37.4482 Y43.3186 
G01 X37.4377 Y43.2932 
G01 X37.4234 Y43.2789 
G01 X31.7848 Y34.2571 
G01 X31.7742 Y34.2317 
G01 X31.7599 Y34.2174 
G01 X31.7493 Y34.2003 
G01 X31.7269 Y34.1844 
G01 X31.7075 Y34.1649 
G01 X31.6888 Y34.1572 
G01 X31.6724 Y34.1455 
G01 X31.6456 Y34.1393 
G01 X31.6202 Y34.1288 
G01 X31.6000 Y34.1288 
G01 X31.5803 Y34.1243 
G01 X31.5532 Y34.1288 
G01 X31.5294 Y34.1288 
G01 X31.2032 Y33.9937 
G01 X31.1867 Y33.9819 
G01 X31.1600 Y33.9758 
G01 X31.1346 Y33.9652 
G01 X31.1144 Y33.9652 
G01 X31.0947 Y33.9607 
G01 X31.0676 Y33.9652 
G01 X31.0401 Y33.9652 
G01 X31.0215 Y33.9730 
G01 X31.0016 Y33.9763 
G01 X30.9783 Y33.9909 
G01 X30.9529 Y34.0014 
G01 X30.9386 Y34.0156 
G01 X30.9215 Y34.0263 
G01 X30.9055 Y34.0487 
G01 X30.8861 Y34.0682 
G01 X30.8784 Y34.0868 
G01 X30.8666 Y34.1032 
G01 X30.8605 Y34.1300 
G01 X30.8500 Y34.1554 
G01 X30.8500 Y34.1756 
G01 X30.8454 Y34.1953 
G01 X30.8500 Y34.2224 
G01 X30.8500 Y34.2499 
G01 X30.8577 Y34.2685 
G01 X30.8610 Y34.2884 
G01 X30.8756 Y34.3117 
G01 X30.8861 Y34.3371 
G01 X30.9004 Y34.3514 
G01 X32.9005 Y37.5516 
G01 X32.9151 Y37.5749 
G01 X32.9256 Y37.6003 
G01 X32.9399 Y37.6146 
G01 X36.1084 Y42.6843 
G01 X36.1190 Y42.7097 
G01 X36.1333 Y42.7240 
G01 X36.1439 Y42.7411 
G01 X36.1663 Y42.7570 
G01 X36.1770 Y42.7677 
G01 X36.1913 Y42.8023 
G01 X36.1947 Y42.8223 
G01 X36.2092 Y42.8456 
G01 X36.2198 Y42.8710 
G01 X36.2340 Y42.8852 
G01 X36.2539 Y42.9170 
G01 X36.2564 Y42.9319 
G01 X36.2564 Y42.9594 
G01 X36.2641 Y42.9781 
G01 X36.2674 Y42.9980 
G01 X36.2820 Y43.0213 
G01 X36.2878 Y43.0352 
G01 X36.2878 Y43.0727 
G01 X36.2833 Y43.0924 
G01 X36.2878 Y43.1195 
G01 X36.2878 Y43.1470 
G01 X36.2955 Y43.1656 
G01 X36.3017 Y43.2026 
G01 X36.2983 Y43.2173 
G01 X36.2878 Y43.2427 
G01 X36.2878 Y43.2629 
G01 X36.2833 Y43.2826 
G01 X36.2878 Y43.3097 
G01 X36.2878 Y48.3266 
G01 X36.3239 Y48.4138 
G01 X36.4402 Y48.6945 
G01 X36.4402 Y50.3655 
G01 X36.3062 Y50.6890 
G01 X36.0586 Y50.9366 
G01 X35.7351 Y51.0706 
G01 X35.3849 Y51.0706 
G01 X35.0614 Y50.9366 
G01 X34.8138 Y50.6890 
G01 X34.6798 Y50.3655 
G01 X34.6798 Y48.6945 
G01 X34.7961 Y48.4138 
G01 X34.8304 Y48.3309 
G01 X34.8322 Y48.3266 
G01 X34.8322 Y43.4838 
G01 X34.8367 Y43.4642 
G01 X34.8322 Y43.4371 
G01 X34.8322 Y43.4096 
G01 X34.8245 Y43.3909 
G01 X34.8211 Y43.3710 
G01 X34.8066 Y43.3477 
G01 X34.7961 Y43.3223 
G01 X34.7818 Y43.3081 
G01 X32.1571 Y39.1085 
G01 X32.1465 Y39.0831 
G01 X32.1323 Y39.0688 
G01 X32.1216 Y39.0517 
G01 X32.0992 Y39.0358 
G01 X32.0798 Y39.0163 
G01 X32.0611 Y39.0086 
G01 X32.0447 Y38.9969 
G01 X32.0179 Y38.9907 
G01 X31.9925 Y38.9802 
G01 X31.9723 Y38.9802 
G01 X31.9527 Y38.9757 
G01 X31.9256 Y38.9802 
G01 X31.3854 Y38.9802 
G01 X30.8698 Y38.4646 
G01 X30.8698 Y37.7354 
G01 X30.9812 Y37.6240 
G01 X30.9983 Y37.6133 
G01 X31.0143 Y37.5909 
G01 X31.0337 Y37.5715 
G01 X31.0414 Y37.5529 
G01 X31.0531 Y37.5364 
G01 X31.0593 Y37.5096 
G01 X31.0698 Y37.4843 
G01 X31.0698 Y37.4641 
G01 X31.0744 Y37.4444 
G01 X31.0698 Y37.4173 
G01 X31.0698 Y37.3898 
G01 X31.0621 Y37.3712 
G01 X31.0588 Y37.3513 
G01 X31.0442 Y37.3279 
G01 X31.0337 Y37.3026 
G01 X31.0194 Y37.2883 
G01 X28.6615 Y33.5157 
G01 X28.6510 Y33.4903 
G01 X28.6367 Y33.4760 
G01 X28.6261 Y33.4589 
G01 X28.6037 Y33.4429 
G01 X28.5930 Y33.4323 
G01 X28.5787 Y33.3976 
G01 X28.5753 Y33.3777 
G01 X28.5608 Y33.3544 
G01 X28.5502 Y33.3290 
G01 X28.5360 Y33.3148 
G01 X28.5161 Y33.2830 
G01 X28.5136 Y33.2681 
G01 X28.5136 Y33.2406 
G01 X28.5059 Y33.2219 
G01 X28.5025 Y33.2020 
G01 X28.4880 Y33.1787 
G01 X28.4822 Y33.1648 
G01 X28.4822 Y33.1273 
G01 X28.4867 Y33.1076 
G01 X28.4822 Y33.0805 
G01 X28.4822 Y33.0530 
G01 X28.4745 Y33.0344 
G01 X28.4683 Y32.9974 
G01 X28.4717 Y32.9827 
G01 X28.4822 Y32.9573 
G01 X28.4822 Y32.9371 
G01 X28.4867 Y32.9174 
G01 X28.4822 Y32.8903 
G01 X28.4822 Y25.0480 
G01 X28.4461 Y24.9607 
G01 X28.3793 Y24.8939 
G01 X28.2920 Y24.8578 
G01 X25.7877 Y24.8578 
G01 X25.7005 Y24.8939 
G01 X25.6337 Y24.9607 
G01 X25.5675 Y25.0269 
G01 X25.1786 Y25.1880 
G01 X25.0480 Y25.1880 
G01 X24.9607 Y25.2241 
G01 X24.8939 Y25.2909 
G01 X24.8578 Y25.3782 
G01 X24.8578 Y29.9119 
G01 X24.8939 Y29.9992 
G01 X24.9607 Y30.0659 
G01 X25.0102 Y30.1154 
G01 X25.0102 Y30.8446 
G01 X24.4946 Y31.3602 
G01 X23.7654 Y31.3602 
G00 Z5.0000 
G00 X23.8212 Y31.2254 
G01 Z-0.1400 F254.00 
G01 X24.4388 Y31.2254 F1000.00 
G01 X24.8754 Y30.7888 
G01 X24.8754 Y30.1712 
G01 X24.7230 Y30.0188 
G01 X24.7230 Y25.0532 
G01 X25.0591 Y25.0532 
G01 X25.2375 Y25.0177 
G01 X25.4055 Y24.9481 
G01 X25.5567 Y24.8471 
G01 X25.6808 Y24.7230 
G01 X28.6170 Y24.7230 
G01 X28.6170 Y33.0110 
G01 X28.6155 Y33.0603 
G01 X28.6170 Y33.0693 
G01 X28.6170 Y33.0784 
G01 X28.6266 Y33.1269 
G01 X28.6348 Y33.1755 
G01 X28.6380 Y33.1840 
G01 X28.6398 Y33.1930 
G01 X28.6587 Y33.2386 
G01 X28.6762 Y33.2848 
G01 X28.6810 Y33.2925 
G01 X28.6845 Y33.3009 
G01 X28.7119 Y33.3419 
G01 X31.3050 Y37.4909 
G01 X31.0046 Y37.7912 
G01 X31.0046 Y38.4088 
G01 X31.4412 Y38.8454 
G01 X32.0588 Y38.8454 
G01 X32.1159 Y38.7883 
G01 X34.9670 Y43.3501 
G01 X34.9670 Y48.4154 
G01 X34.8994 Y48.5165 
G01 X34.8432 Y48.6522 
G01 X34.8146 Y48.7962 
G01 X34.8146 Y50.2638 
G01 X34.8432 Y50.4078 
G01 X34.8994 Y50.5435 
G01 X34.9810 Y50.6656 
G01 X35.0848 Y50.7694 
G01 X35.2069 Y50.8510 
G01 X35.3426 Y50.9072 
G01 X35.4866 Y50.9358 
G01 X35.6334 Y50.9358 
G01 X35.7774 Y50.9072 
G01 X35.9131 Y50.8510 
G01 X36.0352 Y50.7694 
G01 X36.1390 Y50.6656 
G01 X36.2206 Y50.5435 
G01 X36.2768 Y50.4078 
G01 X36.3054 Y50.2638 
G01 X36.3054 Y48.7962 
G01 X36.2768 Y48.6522 
G01 X36.2206 Y48.5165 
G01 X36.1530 Y48.4154 
G01 X36.1530 Y43.1890 
G01 X36.1545 Y43.1397 
G01 X36.1530 Y43.1307 
G01 X36.1530 Y43.1216 
G01 X36.1434 Y43.0731 
G01 X36.1352 Y43.0245 
G01 X36.1320 Y43.0160 
G01 X36.1302 Y43.0070 
G01 X36.1113 Y42.9614 
G01 X36.0938 Y42.9152 
G01 X36.0890 Y42.9075 
G01 X36.0855 Y42.8991 
G01 X36.0581 Y42.8581 
G01 X32.6785 Y37.4508 
G01 X29.8030 Y32.8499 
G01 X29.8030 Y24.7230 
G01 X34.7848 Y24.7230 
G01 X34.8034 Y24.7509 
G01 X34.9391 Y24.8866 
G01 X34.9670 Y24.9052 
G01 X34.9670 Y26.2088 
G01 X34.8146 Y26.3612 
G01 X34.8146 Y26.9788 
G01 X35.2512 Y27.4154 
G01 X35.8688 Y27.4154 
G01 X36.3054 Y26.9788 
G01 X36.3054 Y26.3612 
G01 X36.1530 Y26.2088 
G01 X36.1530 Y24.9052 
G01 X36.1809 Y24.8866 
G01 X36.3166 Y24.7509 
G01 X36.3352 Y24.7230 
G01 X37.5070 Y24.7230 
G01 X37.5070 Y25.5554 
G01 X37.4394 Y25.6565 
G01 X37.3832 Y25.7922 
G01 X37.3546 Y25.9362 
G01 X37.3546 Y27.4038 
G01 X37.3832 Y27.5478 
G01 X37.4394 Y27.6835 
G01 X37.5210 Y27.8056 
G01 X37.6248 Y27.9094 
G01 X37.7469 Y27.9910 
G01 X37.8826 Y28.0472 
G01 X38.0266 Y28.0758 
G01 X38.1734 Y28.0758 
G01 X38.3174 Y28.0472 
G01 X38.4531 Y27.9910 
G01 X38.5752 Y27.9094 
G01 X38.6790 Y27.8056 
G01 X38.7606 Y27.6835 
G01 X38.8168 Y27.5478 
G01 X38.8454 Y27.4038 
G01 X38.8454 Y25.9362 
G01 X38.8168 Y25.7922 
G01 X38.7606 Y25.6565 
G01 X38.6930 Y25.5554 
G01 X38.6930 Y20.7812 
G01 X38.8454 Y20.6288 
G01 X38.8454 Y20.0112 
G01 X38.4088 Y19.5746 
G01 X37.7912 Y19.5746 
G01 X37.3546 Y20.0112 
G01 X37.3546 Y20.6288 
G01 X37.5070 Y20.7812 
G01 X37.5070 Y23.5370 
G01 X36.3352 Y23.5370 
G01 X36.3166 Y23.5091 
G01 X36.1809 Y23.3734 
G01 X36.0214 Y23.2669 
G01 X35.8441 Y23.1934 
G01 X35.6559 Y23.1560 
G01 X35.4641 Y23.1560 
G01 X35.2759 Y23.1934 
G01 X35.0986 Y23.2669 
G01 X34.9391 Y23.3734 
G01 X34.8034 Y23.5091 
G01 X34.7848 Y23.5370 
G01 X33.6130 Y23.5370 
G01 X33.6130 Y23.3212 
G01 X33.7654 Y23.1688 
G01 X33.7654 Y22.5512 
G01 X33.3288 Y22.1146 
G01 X32.7112 Y22.1146 
G01 X32.2746 Y22.5512 
G01 X32.2746 Y23.1688 
G01 X32.4270 Y23.3212 
G01 X32.4270 Y23.5370 
G01 X29.8030 Y23.5370 
G01 X29.8030 Y23.0602 
G01 X29.8706 Y22.9591 
G01 X29.9268 Y22.8234 
G01 X29.9554 Y22.6794 
G01 X29.9554 Y22.5326 
G01 X29.9268 Y22.3886 
G01 X29.8706 Y22.2529 
G01 X29.7890 Y22.1308 
G01 X29.6852 Y22.0270 
G01 X29.5631 Y21.9454 
G01 X29.4274 Y21.8892 
G01 X29.2834 Y21.8606 
G01 X29.1366 Y21.8606 
G01 X28.9926 Y21.8892 
G01 X28.8569 Y21.9454 
G01 X28.7348 Y22.0270 
G01 X28.6310 Y22.1308 
G01 X28.5494 Y22.2529 
G01 X28.4932 Y22.3886 
G01 X28.4646 Y22.5326 
G01 X28.4646 Y22.6794 
G01 X28.4932 Y22.8234 
G01 X28.5494 Y22.9591 
G01 X28.6170 Y23.0602 
G01 X28.6170 Y23.5370 
G01 X25.6808 Y23.5370 
G01 X25.5567 Y23.4129 
G01 X25.4055 Y23.3119 
G01 X25.2375 Y23.2423 
G01 X25.0591 Y23.2068 
G01 X23.2009 Y23.2068 
G01 X23.0225 Y23.2423 
G01 X22.8545 Y23.3119 
G01 X22.7033 Y23.4129 
G01 X22.5747 Y23.5415 
G01 X22.4737 Y23.6927 
G01 X22.4041 Y23.8607 
G01 X22.3686 Y24.0391 
G01 X22.3686 Y24.2209 
G01 X22.4041 Y24.3993 
G01 X22.4737 Y24.5673 
G01 X22.5747 Y24.7185 
G01 X22.7033 Y24.8471 
G01 X22.8545 Y24.9481 
G01 X23.0225 Y25.0177 
G01 X23.2009 Y25.0532 
G01 X23.5370 Y25.0532 
G01 X23.5370 Y27.2396 
G01 X23.4809 Y27.1834 
G01 X23.3214 Y27.0769 
G01 X23.1441 Y27.0034 
G01 X22.9559 Y26.9660 
G01 X22.7641 Y26.9660 
G01 X22.5759 Y27.0034 
G01 X22.3986 Y27.0769 
G01 X22.2391 Y27.1834 
G01 X22.1034 Y27.3191 
G01 X21.9969 Y27.4786 
G01 X21.9234 Y27.6559 
G01 X21.8860 Y27.8441 
G01 X21.8860 Y28.0359 
G01 X21.9234 Y28.2241 
G01 X21.9969 Y28.4014 
G01 X22.1034 Y28.5609 
G01 X22.2391 Y28.6966 
G01 X22.3986 Y28.8031 
G01 X22.5759 Y28.8766 
G01 X22.7641 Y28.9140 
G01 X22.9559 Y28.9140 
G01 X23.1441 Y28.8766 
G01 X23.3214 Y28.8031 
G01 X23.4809 Y28.6966 
G01 X23.5370 Y28.6404 
G01 X23.5370 Y30.0188 
G01 X23.3846 Y30.1712 
G01 X23.3846 Y30.7888 
G01 X23.8212 Y31.2254 
G00 Z5.0000 
G00 X31.1291 Y32.2634 
G01 Z-0.1400 F254.00 
G01 X30.9934 Y32.3991 F1000.00 
G01 X30.8869 Y32.5586 
G01 X30.8134 Y32.7359 
G01 X30.7760 Y32.9241 
G01 X30.7760 Y33.1159 
G01 X30.8134 Y33.3041 
G01 X30.8869 Y33.4814 
G01 X30.9934 Y33.6409 
G01 X31.1291 Y33.7766 
G01 X31.2886 Y33.8831 
G01 X31.4659 Y33.9566 
G01 X31.6541 Y33.9940 
G01 X31.7793 Y33.9940 
G01 X37.6086 Y43.3209 
G01 X37.6086 Y48.3068 
G01 X37.5210 Y48.3944 
G01 X37.4394 Y48.5165 
G01 X37.3832 Y48.6522 
G01 X37.3546 Y48.7962 
G01 X37.3546 Y50.2638 
G01 X37.3832 Y50.4078 
G01 X37.4394 Y50.5435 
G01 X37.5210 Y50.6656 
G01 X37.6248 Y50.7694 
G01 X37.7469 Y50.8510 
G01 X37.8826 Y50.9072 
G01 X38.0266 Y50.9358 
G01 X38.1734 Y50.9358 
G01 X38.3174 Y50.9072 
G01 X38.4531 Y50.8510 
G01 X38.5752 Y50.7694 
G01 X38.6790 Y50.6656 
G01 X38.7606 Y50.5435 
G01 X38.8168 Y50.4078 
G01 X38.8454 Y50.2638 
G01 X38.8454 Y48.7962 
G01 X38.8168 Y48.6522 
G01 X38.7606 Y48.5165 
G01 X38.6790 Y48.3944 
G01 X38.5914 Y48.3068 
G01 X38.5914 Y43.2360 
G01 X38.5934 Y43.2275 
G01 X38.5914 Y43.1714 
G01 X38.5914 Y43.1153 
G01 X38.5891 Y43.1069 
G01 X38.5888 Y43.0981 
G01 X38.5724 Y43.0445 
G01 X38.5579 Y42.9903 
G01 X38.5535 Y42.9828 
G01 X38.5510 Y42.9744 
G01 X38.5213 Y42.9269 
G01 X38.4932 Y42.8783 
G01 X38.4870 Y42.8721 
G01 X32.6150 Y33.4768 
G01 X32.6866 Y33.3041 
G01 X32.7240 Y33.1159 
G01 X32.7240 Y32.9241 
G01 X32.6866 Y32.7359 
G01 X32.6131 Y32.5586 
G01 X32.5066 Y32.3991 
G01 X32.3709 Y32.2634 
G01 X32.2114 Y32.1569 
G01 X32.0341 Y32.0834 
G01 X31.8459 Y32.0460 
G01 X31.6541 Y32.0460 
G01 X31.4659 Y32.0834 
G01 X31.2886 Y32.1569 
G01 X31.1291 Y32.2634 
G00 Z5.0000 
G00 X34.8146 Y33.9812 
G01 Z-0.1400 F254.00 
G01 X34.8146 Y34.5988 F1000.00 
G01 X35.2512 Y35.0354 
G01 X35.8688 Y35.0354 
G01 X36.1228 Y34.7814 
G01 X37.3546 Y34.7814 
G01 X37.3546 Y35.0238 
G01 X37.3832 Y35.1678 
G01 X37.4394 Y35.3035 
G01 X37.5210 Y35.4256 
G01 X37.6086 Y35.5132 
G01 X37.6086 Y38.5269 
G01 X37.4791 Y38.6134 
G01 X37.3434 Y38.7491 
G01 X37.2369 Y38.9086 
G01 X37.1634 Y39.0859 
G01 X37.1260 Y39.2741 
G01 X37.1260 Y39.4659 
G01 X37.1634 Y39.6541 
G01 X37.2369 Y39.8314 
G01 X37.3434 Y39.9909 
G01 X37.4791 Y40.1266 
G01 X37.6386 Y40.2331 
G01 X37.8159 Y40.3066 
G01 X38.0041 Y40.3440 
G01 X38.1959 Y40.3440 
G01 X38.3841 Y40.3066 
G01 X38.5614 Y40.2331 
G01 X38.7209 Y40.1266 
G01 X38.8566 Y39.9909 
G01 X38.9631 Y39.8314 
G01 X39.0366 Y39.6541 
G01 X39.0740 Y39.4659 
G01 X39.0740 Y39.2741 
G01 X39.0366 Y39.0859 
G01 X38.9631 Y38.9086 
G01 X38.8566 Y38.7491 
G01 X38.7209 Y38.6134 
G01 X38.5914 Y38.5269 
G01 X38.5914 Y35.5132 
G01 X38.6790 Y35.4256 
G01 X38.7606 Y35.3035 
G01 X38.8168 Y35.1678 
G01 X38.8454 Y35.0238 
G01 X38.8454 Y33.5562 
G01 X38.8168 Y33.4122 
G01 X38.7606 Y33.2765 
G01 X38.6790 Y33.1544 
G01 X38.5752 Y33.0506 
G01 X38.4531 Y32.9690 
G01 X38.3174 Y32.9128 
G01 X38.1734 Y32.8842 
G01 X38.0266 Y32.8842 
G01 X37.8826 Y32.9128 
G01 X37.7469 Y32.9690 
G01 X37.6248 Y33.0506 
G01 X37.5210 Y33.1544 
G01 X37.4394 Y33.2765 
G01 X37.3832 Y33.4122 
G01 X37.3546 Y33.5562 
G01 X37.3546 Y33.7986 
G01 X36.1228 Y33.7986 
G01 X35.8688 Y33.5446 
G01 X35.2512 Y33.5446 
G01 X34.8146 Y33.9812 
G00 Z5.0000 
G00 X39.7598 Y33.4545 
G01 Z-0.1400 F254.00 
G01 X39.8938 Y33.1310 F1000.00 
G01 X40.1414 Y32.8834 
G01 X40.4649 Y32.7494 
G01 X40.8151 Y32.7494 
G01 X41.1386 Y32.8834 
G01 X41.3862 Y33.1310 
G01 X41.5202 Y33.4545 
G01 X41.5202 Y33.4736 
G01 X41.5563 Y33.5609 
G01 X41.6231 Y33.6277 
G01 X41.7104 Y33.6638 
G01 X42.1096 Y33.6638 
G01 X42.1969 Y33.6277 
G01 X42.2637 Y33.5609 
G01 X42.2998 Y33.4736 
G01 X42.2998 Y33.4545 
G01 X42.4338 Y33.1310 
G01 X42.6814 Y32.8834 
G01 X43.0049 Y32.7494 
G01 X43.3551 Y32.7494 
G01 X43.6786 Y32.8834 
G01 X43.9262 Y33.1310 
G01 X44.0602 Y33.4545 
G01 X44.0602 Y35.1255 
G01 X43.9262 Y35.4490 
G01 X43.8423 Y35.5328 
G01 X43.8062 Y35.6201 
G01 X43.8062 Y36.1603 
G01 X43.8423 Y36.2475 
G01 X43.9091 Y36.3143 
G01 X44.0602 Y36.4654 
G01 X44.0602 Y37.1946 
G01 X43.5446 Y37.7102 
G01 X42.8154 Y37.7102 
G01 X42.2998 Y37.1946 
G01 X42.2998 Y36.4654 
G01 X42.5177 Y36.2475 
G01 X42.5538 Y36.1603 
G01 X42.5538 Y35.6201 
G01 X42.5177 Y35.5328 
G01 X42.4509 Y35.4661 
G01 X42.4338 Y35.4490 
G01 X42.2998 Y35.1255 
G01 X42.2998 Y35.1064 
G01 X42.2637 Y35.0191 
G01 X42.1969 Y34.9523 
G01 X42.1096 Y34.9162 
G01 X41.7104 Y34.9162 
G01 X41.6231 Y34.9523 
G01 X41.5563 Y35.0191 
G01 X41.5202 Y35.1064 
G01 X41.5202 Y35.1255 
G01 X41.3862 Y35.4490 
G01 X41.3023 Y35.5328 
G01 X41.2662 Y35.6201 
G01 X41.2662 Y48.1999 
G01 X41.3023 Y48.2871 
G01 X41.3691 Y48.3539 
G01 X41.3862 Y48.3710 
G01 X41.5202 Y48.6945 
G01 X41.5202 Y50.3655 
G01 X41.3862 Y50.6890 
G01 X41.1386 Y50.9366 
G01 X40.8151 Y51.0706 
G01 X40.4649 Y51.0706 
G01 X40.1414 Y50.9366 
G01 X39.8938 Y50.6890 
G01 X39.7598 Y50.3655 
G01 X39.7598 Y48.6945 
G01 X39.8938 Y48.3710 
G01 X39.9777 Y48.2871 
G01 X40.0138 Y48.1999 
G01 X40.0138 Y35.6201 
G01 X39.9777 Y35.5328 
G01 X39.9109 Y35.4661 
G01 X39.8938 Y35.4490 
G01 X39.7598 Y35.1255 
G01 X39.7598 Y33.4545 
G00 Z5.0000 
G00 X39.9232 Y33.4122 
G01 Z-0.1400 F254.00 
G01 X39.8946 Y33.5562 F1000.00 
G01 X39.8946 Y35.0238 
G01 X39.9232 Y35.1678 
G01 X39.9794 Y35.3035 
G01 X40.0610 Y35.4256 
G01 X40.1486 Y35.5132 
G01 X40.1486 Y48.3068 
G01 X40.0610 Y48.3944 
G01 X39.9794 Y48.5165 
G01 X39.9232 Y48.6522 
G01 X39.8946 Y48.7962 
G01 X39.8946 Y50.2638 
G01 X39.9232 Y50.4078 
G01 X39.9794 Y50.5435 
G01 X40.0610 Y50.6656 
G01 X40.1648 Y50.7694 
G01 X40.2869 Y50.8510 
G01 X40.4226 Y50.9072 
G01 X40.5666 Y50.9358 
G01 X40.7134 Y50.9358 
G01 X40.8574 Y50.9072 
G01 X40.9931 Y50.8510 
G01 X41.1152 Y50.7694 
G01 X41.2190 Y50.6656 
G01 X41.3006 Y50.5435 
G01 X41.3568 Y50.4078 
G01 X41.3854 Y50.2638 
G01 X41.3854 Y48.7962 
G01 X41.3568 Y48.6522 
G01 X41.3006 Y48.5165 
G01 X41.2190 Y48.3944 
G01 X41.1314 Y48.3068 
G01 X41.1314 Y35.5132 
G01 X41.2190 Y35.4256 
G01 X41.3006 Y35.3035 
G01 X41.3568 Y35.1678 
G01 X41.3854 Y35.0238 
G01 X41.3854 Y34.7814 
G01 X42.4346 Y34.7814 
G01 X42.4346 Y35.0238 
G01 X42.4632 Y35.1678 
G01 X42.5194 Y35.3035 
G01 X42.6010 Y35.4256 
G01 X42.6886 Y35.5132 
G01 X42.6886 Y36.2672 
G01 X42.4346 Y36.5212 
G01 X42.4346 Y37.1388 
G01 X42.8712 Y37.5754 
G01 X43.4888 Y37.5754 
G01 X43.9254 Y37.1388 
G01 X43.9254 Y36.5212 
G01 X43.6714 Y36.2672 
G01 X43.6714 Y35.5132 
G01 X43.7590 Y35.4256 
G01 X43.8406 Y35.3035 
G01 X43.8968 Y35.1678 
G01 X43.9254 Y35.0238 
G01 X43.9254 Y33.5562 
G01 X43.8968 Y33.4122 
G01 X43.8406 Y33.2765 
G01 X43.7590 Y33.1544 
G01 X43.6552 Y33.0506 
G01 X43.5331 Y32.9690 
G01 X43.3974 Y32.9128 
G01 X43.2534 Y32.8842 
G01 X43.1066 Y32.8842 
G01 X42.9626 Y32.9128 
G01 X42.8269 Y32.9690 
G01 X42.7048 Y33.0506 
G01 X42.6010 Y33.1544 
G01 X42.5194 Y33.2765 
G01 X42.4632 Y33.4122 
G01 X42.4346 Y33.5562 
G01 X42.4346 Y33.7986 
G01 X41.3854 Y33.7986 
G01 X41.3854 Y33.5562 
G01 X41.3568 Y33.4122 
G01 X41.3006 Y33.2765 
G01 X41.2190 Y33.1544 
G01 X41.1152 Y33.0506 
G01 X40.9931 Y32.9690 
G01 X40.8574 Y32.9128 
G01 X40.7134 Y32.8842 
G01 X40.5666 Y32.8842 
G01 X40.4226 Y32.9128 
G01 X40.2869 Y32.9690 
G01 X40.1648 Y33.0506 
G01 X40.0610 Y33.1544 
G01 X39.9794 Y33.2765 
G01 X39.9232 Y33.4122 
G00 Z5.0000 
G00 X40.2853 Y31.0109 
G01 Z-0.1400 F254.00 
G01 X40.1091 Y30.8347 F1000.00 
G01 X40.0138 Y30.6046 
G01 X40.0138 Y28.0001 
G01 X39.9777 Y27.9128 
G01 X39.9109 Y27.8461 
G01 X39.8938 Y27.8290 
G01 X39.7598 Y27.5055 
G01 X39.7598 Y25.8345 
G01 X39.8938 Y25.5110 
G01 X40.1414 Y25.2634 
G01 X40.4649 Y25.1294 
G01 X40.8151 Y25.1294 
G01 X41.1386 Y25.2634 
G01 X41.3862 Y25.5110 
G01 X41.5202 Y25.8345 
G01 X41.5202 Y27.5055 
G01 X41.3862 Y27.8290 
G01 X41.3023 Y27.9128 
G01 X41.2662 Y28.0001 
G01 X41.2662 Y29.6636 
G01 X41.3023 Y29.7509 
G01 X41.3691 Y29.8177 
G01 X41.4564 Y29.8538 
G01 X42.4608 Y29.8538 
G01 X42.5481 Y29.8177 
G01 X42.6148 Y29.7509 
G01 X42.6510 Y29.6636 
G01 X42.6510 Y29.5692 
G01 X42.6148 Y29.4819 
G01 X42.5538 Y29.3346 
G01 X42.5538 Y28.0001 
G01 X42.5177 Y27.9128 
G01 X42.4509 Y27.8461 
G01 X42.4338 Y27.8290 
G01 X42.2998 Y27.5055 
G01 X42.2998 Y25.8345 
G01 X42.4338 Y25.5110 
G01 X42.6814 Y25.2634 
G01 X43.0049 Y25.1294 
G01 X43.3551 Y25.1294 
G01 X43.6786 Y25.2634 
G01 X43.9262 Y25.5110 
G01 X44.0602 Y25.8345 
G01 X44.0602 Y27.5055 
G01 X43.9262 Y27.8290 
G01 X43.8423 Y27.9128 
G01 X43.8062 Y28.0001 
G01 X43.8062 Y28.3936 
G01 X43.8423 Y28.4809 
G01 X43.9091 Y28.5477 
G01 X43.9964 Y28.5838 
G01 X50.3796 Y28.5838 
G01 X50.4669 Y28.5477 
G01 X50.5337 Y28.4809 
G01 X50.5698 Y28.3936 
G01 X50.5698 Y28.2992 
G01 X50.5337 Y28.2119 
G01 X50.4669 Y28.1451 
G01 X50.3796 Y28.1090 
G01 X50.3014 Y28.0766 
G01 X50.0538 Y27.8290 
G01 X49.9198 Y27.5055 
G01 X49.9198 Y25.8345 
G01 X50.0361 Y25.5538 
G01 X50.0695 Y25.4731 
G01 X50.0722 Y25.4666 
G01 X50.0722 Y25.0480 
G01 X50.0361 Y24.9607 
G01 X49.9693 Y24.8939 
G01 X49.8820 Y24.8578 
G01 X49.1514 Y24.8578 
G01 X49.0641 Y24.8939 
G01 X48.8881 Y25.0700 
G01 X48.4806 Y25.2388 
G01 X48.0394 Y25.2388 
G01 X47.6319 Y25.0700 
G01 X47.3200 Y24.7581 
G01 X47.1512 Y24.3505 
G01 X47.1512 Y23.9094 
G01 X47.3200 Y23.5019 
G01 X47.6319 Y23.1900 
G01 X48.0394 Y23.0212 
G01 X48.4806 Y23.0212 
G01 X48.8881 Y23.1900 
G01 X49.0641 Y23.3661 
G01 X49.1514 Y23.4022 
G01 X49.8820 Y23.4022 
G01 X49.9693 Y23.3661 
G01 X50.0361 Y23.2993 
G01 X50.0722 Y23.2120 
G01 X50.0722 Y20.8881 
G01 X50.0577 Y20.8530 
G01 X50.0361 Y20.8008 
G01 X49.9693 Y20.7341 
G01 X49.9198 Y20.6846 
G01 X49.9198 Y19.9554 
G01 X50.4354 Y19.4398 
G01 X51.1646 Y19.4398 
G01 X51.6802 Y19.9554 
G01 X51.6802 Y20.6846 
G01 X51.6307 Y20.7341 
G01 X51.5656 Y20.7992 
G01 X51.5432 Y20.8509 
G01 X51.5278 Y20.8881 
G01 X51.5278 Y23.2386 
G01 X51.5639 Y23.3259 
G01 X51.6307 Y23.3926 
G01 X51.7400 Y23.5019 
G01 X51.9088 Y23.9094 
G01 X51.9088 Y24.3505 
G01 X51.7400 Y24.7581 
G01 X51.6307 Y24.8673 
G01 X51.5639 Y24.9341 
G01 X51.5282 Y25.0204 
G01 X51.5278 Y25.4666 
G01 X51.5639 Y25.5538 
G01 X51.6802 Y25.8345 
G01 X51.6802 Y27.5055 
G01 X51.5462 Y27.8290 
G01 X51.2986 Y28.0766 
G01 X51.2204 Y28.1090 
G01 X51.1331 Y28.1451 
G01 X51.0663 Y28.2119 
G01 X51.0306 Y28.2981 
G01 X51.0302 Y28.3936 
G01 X51.0663 Y28.4809 
G01 X51.1331 Y28.5477 
G01 X51.2193 Y28.5834 
G01 X52.5236 Y28.5838 
G01 X52.6109 Y28.5477 
G01 X52.6777 Y28.4809 
G01 X52.7138 Y28.3936 
G01 X52.7138 Y28.0001 
G01 X52.6777 Y27.9128 
G01 X52.5938 Y27.8290 
G01 X52.4598 Y27.5055 
G01 X52.4598 Y25.8345 
G01 X52.5938 Y25.5110 
G01 X52.6777 Y25.4271 
G01 X52.7138 Y25.3399 
G01 X52.7138 Y16.8205 
G01 X52.6777 Y16.7332 
G01 X52.6109 Y16.6665 
G01 X51.5391 Y15.5947 
G01 X51.4438 Y15.3646 
G01 X51.4438 Y7.7854 
G01 X51.4077 Y7.6981 
G01 X51.3409 Y7.6313 
G01 X51.2536 Y7.5952 
G01 X51.1592 Y7.5952 
G01 X51.0719 Y7.6313 
G01 X50.9212 Y7.6937 
G01 X48.1388 Y7.6937 
G01 X47.6449 Y7.4892 
G01 X47.2669 Y7.1112 
G01 X47.0623 Y6.6173 
G01 X47.0623 Y6.0827 
G01 X47.2669 Y5.5888 
G01 X47.6449 Y5.2108 
G01 X48.1388 Y5.0062 
G01 X50.9212 Y5.0062 
G01 X51.1819 Y5.1142 
G01 X51.2203 Y5.1320 
G01 X51.2254 Y5.1322 
G01 X51.2301 Y5.1342 
G01 X51.2724 Y5.1342 
G01 X51.3146 Y5.1360 
G01 X51.3195 Y5.1342 
G01 X51.3246 Y5.1342 
G01 X51.3636 Y5.1180 
G01 X51.4033 Y5.1035 
G01 X51.4071 Y5.1000 
G01 X51.4118 Y5.0981 
G01 X51.4417 Y5.0682 
G01 X51.4728 Y5.0395 
G01 X51.4750 Y5.0349 
G01 X51.4786 Y5.0313 
G01 X51.4948 Y4.9923 
G01 X51.5275 Y4.9218 
G01 X51.5311 Y4.9182 
G01 X51.5472 Y4.8791 
G01 X51.5650 Y4.8408 
G01 X51.5653 Y4.8356 
G01 X51.5887 Y4.7791 
G01 X51.5973 Y4.7712 
G01 X51.5995 Y4.7665 
G01 X51.6031 Y4.7629 
G01 X51.6076 Y4.7520 
G01 X51.6526 Y4.7106 
G01 X51.6573 Y4.7087 
G01 X51.6873 Y4.6787 
G01 X51.7184 Y4.6502 
G01 X51.7205 Y4.6455 
G01 X51.7637 Y4.6023 
G01 X51.7748 Y4.5982 
G01 X51.7786 Y4.5948 
G01 X51.7833 Y4.5928 
G01 X51.7916 Y4.5845 
G01 X51.8490 Y4.5635 
G01 X51.8542 Y4.5635 
G01 X51.8932 Y4.5473 
G01 X51.9329 Y4.5327 
G01 X51.9367 Y4.5293 
G01 X51.9932 Y4.5059 
G01 X52.0049 Y4.5064 
G01 X52.0097 Y4.5046 
G01 X52.0149 Y4.5046 
G01 X52.0257 Y4.5001 
G01 X52.0868 Y4.5026 
G01 X52.0916 Y4.5046 
G01 X52.1339 Y4.5046 
G01 X52.1761 Y4.5064 
G01 X52.1809 Y4.5046 
G01 X64.8946 Y4.5046 
G01 X65.1247 Y4.5999 
G01 X65.3009 Y4.7761 
G01 X65.3962 Y5.0062 
G01 X65.3962 Y7.4254 
G01 X65.4323 Y7.5127 
G01 X65.4991 Y7.5795 
G01 X65.5078 Y7.5831 
G01 X65.6139 Y7.6270 
G01 X66.0330 Y8.0461 
G01 X66.2598 Y8.5937 
G01 X66.2598 Y11.7263 
G01 X66.2577 Y11.7313 
G01 X66.2338 Y11.7892 
G01 X66.2338 Y11.8836 
G01 X66.2633 Y11.9549 
G01 X66.2699 Y11.9709 
G01 X66.3357 Y12.0366 
G01 X66.3721 Y12.0523 
G01 X66.4239 Y12.0738 
G01 X67.4346 Y12.0738 
G01 X67.6647 Y12.1691 
G01 X67.9076 Y12.4121 
G01 X69.1109 Y13.6153 
G01 X69.2062 Y13.8454 
G01 X69.2062 Y14.5703 
G01 X69.2423 Y14.6576 
G01 X69.3091 Y14.7243 
G01 X69.4602 Y14.8754 
G01 X69.4602 Y15.6046 
G01 X68.9446 Y16.1202 
G01 X68.2154 Y16.1202 
G01 X67.6998 Y15.6046 
G01 X67.6998 Y14.8754 
G01 X67.8509 Y14.7243 
G01 X67.9177 Y14.6576 
G01 X67.9534 Y14.5713 
G01 X67.9538 Y14.2805 
G01 X67.9177 Y14.1932 
G01 X67.8509 Y14.1265 
G01 X67.0868 Y13.3623 
G01 X66.9995 Y13.3262 
G01 X64.6454 Y13.3262 
G01 X64.4153 Y13.2309 
G01 X64.2391 Y13.0547 
G01 X64.1788 Y12.9091 
G01 X64.1496 Y12.8386 
G01 X64.1427 Y12.8218 
G01 X64.0759 Y12.7550 
G01 X63.9977 Y12.7227 
G01 X63.9886 Y12.7189 
G01 X63.9261 Y12.6930 
G01 X63.5070 Y12.2739 
G01 X63.2802 Y11.7263 
G01 X63.2802 Y8.5937 
G01 X63.5070 Y8.0461 
G01 X63.9261 Y7.6270 
G01 X64.0409 Y7.5795 
G01 X64.1077 Y7.5127 
G01 X64.1438 Y7.4254 
G01 X64.1438 Y5.9472 
G01 X64.1077 Y5.8599 
G01 X64.0409 Y5.7931 
G01 X63.9536 Y5.7570 
G01 X52.9541 Y5.7570 
G01 X52.9119 Y5.7552 
G01 X52.9071 Y5.7570 
G01 X52.9019 Y5.7570 
G01 X52.8629 Y5.7732 
G01 X52.8232 Y5.7877 
G01 X52.8194 Y5.7912 
G01 X52.8147 Y5.7931 
G01 X52.7848 Y5.8231 
G01 X52.7537 Y5.8517 
G01 X52.7515 Y5.8563 
G01 X52.7479 Y5.8599 
G01 X52.7317 Y5.8990 
G01 X52.7139 Y5.9373 
G01 X52.7137 Y5.9424 
G01 X52.7118 Y5.9472 
G01 X52.7118 Y5.9895 
G01 X52.6982 Y6.3160 
G01 X52.6962 Y6.3208 
G01 X52.6962 Y6.3631 
G01 X52.6944 Y6.4053 
G01 X52.6962 Y6.4101 
G01 X52.6962 Y14.9295 
G01 X52.7323 Y15.0168 
G01 X52.7991 Y15.0835 
G01 X53.6947 Y15.9791 
G01 X53.8709 Y16.1553 
G01 X53.9662 Y16.3854 
G01 X53.9662 Y25.3399 
G01 X54.0023 Y25.4271 
G01 X54.0691 Y25.4939 
G01 X54.0862 Y25.5110 
G01 X54.2202 Y25.8345 
G01 X54.2202 Y27.5055 
G01 X54.0862 Y27.8290 
G01 X54.0023 Y27.9128 
G01 X53.9662 Y28.0001 
G01 X53.9662 Y29.3346 
G01 X53.9052 Y29.4819 
G01 X53.8697 Y29.5676 
G01 X53.8690 Y29.6636 
G01 X53.9052 Y29.7509 
G01 X53.9719 Y29.8177 
G01 X54.0582 Y29.8534 
G01 X55.0636 Y29.8538 
G01 X55.1509 Y29.8177 
G01 X55.2177 Y29.7509 
G01 X55.2538 Y29.6636 
G01 X55.2538 Y28.0001 
G01 X55.2177 Y27.9128 
G01 X55.1509 Y27.8461 
G01 X55.1338 Y27.8290 
G01 X54.9998 Y27.5055 
G01 X54.9998 Y25.8345 
G01 X55.1338 Y25.5110 
G01 X55.2177 Y25.4271 
G01 X55.2538 Y25.3399 
G01 X55.2538 Y16.4192 
G01 X55.2177 Y16.3320 
G01 X55.1509 Y16.2652 
G01 X54.8869 Y16.0012 
G01 X54.6823 Y15.5073 
G01 X54.6823 Y14.9727 
G01 X54.8869 Y14.4788 
G01 X55.2649 Y14.1008 
G01 X55.7588 Y13.8962 
G01 X56.4536 Y13.8962 
G01 X56.5409 Y13.8601 
G01 X56.6077 Y13.7933 
G01 X56.6438 Y13.7061 
G01 X56.6438 Y12.8946 
G01 X56.6077 Y12.8073 
G01 X56.5409 Y12.7405 
G01 X56.5322 Y12.7369 
G01 X56.4261 Y12.6930 
G01 X56.0070 Y12.2739 
G01 X55.7802 Y11.7263 
G01 X55.7802 Y8.5937 
G01 X56.0070 Y8.0461 
G01 X56.4261 Y7.6270 
G01 X56.9737 Y7.4002 
G01 X57.5663 Y7.4002 
G01 X58.1139 Y7.6270 
G01 X58.5330 Y8.0461 
G01 X58.7598 Y8.5937 
G01 X58.7598 Y11.7263 
G01 X58.5330 Y12.2739 
G01 X58.1139 Y12.6930 
G01 X57.9991 Y12.7405 
G01 X57.9323 Y12.8073 
G01 X57.8962 Y12.8946 
G01 X57.8962 Y13.7061 
G01 X57.9323 Y13.7933 
G01 X57.9991 Y13.8601 
G01 X58.0864 Y13.8962 
G01 X58.5412 Y13.8962 
G01 X59.0351 Y14.1008 
G01 X59.4131 Y14.4788 
G01 X59.6411 Y15.0293 
G01 X59.7079 Y15.0961 
G01 X59.7952 Y15.1322 
G01 X59.8896 Y15.1322 
G01 X59.9769 Y15.0961 
G01 X60.0437 Y15.0293 
G01 X60.0798 Y14.9421 
G01 X60.0798 Y14.8754 
G01 X60.5954 Y14.3598 
G01 X61.3246 Y14.3598 
G01 X61.8402 Y14.8754 
G01 X61.8402 Y15.6046 
G01 X61.6223 Y15.8224 
G01 X61.5862 Y15.9097 
G01 X61.5862 Y17.4746 
G01 X61.6223 Y17.5619 
G01 X61.6891 Y17.6287 
G01 X61.7923 Y17.7319 
G01 X61.9418 Y18.0927 
G01 X61.9418 Y20.0073 
G01 X61.7923 Y20.3681 
G01 X61.5161 Y20.6443 
G01 X61.1553 Y20.7938 
G01 X60.7647 Y20.7938 
G01 X60.4039 Y20.6443 
G01 X60.1277 Y20.3681 
G01 X59.9782 Y20.0073 
G01 X59.9782 Y18.0927 
G01 X60.1277 Y17.7319 
G01 X60.2309 Y17.6287 
G01 X60.2977 Y17.5619 
G01 X60.3334 Y17.4756 
G01 X60.3338 Y15.9097 
G01 X60.2977 Y15.8224 
G01 X60.2309 Y15.7557 
G01 X60.0798 Y15.6046 
G01 X60.0798 Y15.5379 
G01 X60.0437 Y15.4507 
G01 X59.9769 Y15.3839 
G01 X59.8896 Y15.3478 
G01 X59.7952 Y15.3478 
G01 X59.7079 Y15.3839 
G01 X59.6411 Y15.4507 
G01 X59.6380 Y15.4582 
G01 X59.4131 Y16.0012 
G01 X59.0351 Y16.3792 
G01 X58.5412 Y16.5837 
G01 X56.6964 Y16.5837 
G01 X56.6091 Y16.6199 
G01 X56.5423 Y16.6867 
G01 X56.5062 Y16.7739 
G01 X56.5062 Y18.2336 
G01 X56.5423 Y18.3209 
G01 X56.6091 Y18.3877 
G01 X56.6964 Y18.4238 
G01 X57.2480 Y18.4238 
G01 X57.3353 Y18.3877 
G01 X57.4021 Y18.3209 
G01 X57.4382 Y18.2336 
G01 X57.4382 Y18.0927 
G01 X57.5877 Y17.7319 
G01 X57.8639 Y17.4557 
G01 X58.2247 Y17.3062 
G01 X58.6153 Y17.3062 
G01 X58.9761 Y17.4557 
G01 X59.2523 Y17.7319 
G01 X59.4018 Y18.0927 
G01 X59.4018 Y20.0073 
G01 X59.2523 Y20.3681 
G01 X58.9761 Y20.6443 
G01 X58.6153 Y20.7938 
G01 X58.2247 Y20.7938 
G01 X57.8639 Y20.6443 
G01 X57.5877 Y20.3681 
G01 X57.4382 Y20.0073 
G01 X57.4382 Y19.8664 
G01 X57.4021 Y19.7791 
G01 X57.3353 Y19.7123 
G01 X57.2480 Y19.6762 
G01 X56.6964 Y19.6762 
G01 X56.6091 Y19.7123 
G01 X56.5423 Y19.7791 
G01 X56.5062 Y19.8664 
G01 X56.5062 Y25.3399 
G01 X56.5423 Y25.4271 
G01 X56.6091 Y25.4939 
G01 X56.6262 Y25.5110 
G01 X56.7602 Y25.8345 
G01 X56.7602 Y27.5055 
G01 X56.6262 Y27.8290 
G01 X56.5423 Y27.9128 
G01 X56.5062 Y28.0001 
G01 X56.5062 Y30.6046 
G01 X56.4452 Y30.7519 
G01 X56.4097 Y30.8376 
G01 X56.4090 Y30.9336 
G01 X56.4452 Y31.0209 
G01 X56.5119 Y31.0877 
G01 X56.5982 Y31.1234 
G01 X67.4346 Y31.1238 
G01 X67.6647 Y31.2191 
G01 X67.8409 Y31.3953 
G01 X67.9076 Y31.4621 
G01 X68.9347 Y32.4891 
G01 X69.1109 Y32.6653 
G01 X69.2062 Y32.8954 
G01 X69.2062 Y32.9599 
G01 X69.2207 Y32.9950 
G01 X69.2423 Y33.0472 
G01 X69.3091 Y33.1139 
G01 X69.3262 Y33.1310 
G01 X69.4602 Y33.4545 
G01 X69.4602 Y35.1255 
G01 X69.3262 Y35.4490 
G01 X69.0786 Y35.6966 
G01 X68.7551 Y35.8306 
G01 X68.4049 Y35.8306 
G01 X68.0814 Y35.6966 
G01 X67.8338 Y35.4490 
G01 X67.6998 Y35.1255 
G01 X67.6998 Y33.4545 
G01 X67.7467 Y33.3412 
G01 X67.7787 Y33.2641 
G01 X67.7829 Y33.2540 
G01 X67.7829 Y33.1595 
G01 X67.7467 Y33.0723 
G01 X67.6799 Y33.0055 
G01 X67.0868 Y32.4123 
G01 X66.9995 Y32.3762 
G01 X66.4604 Y32.3762 
G01 X66.3731 Y32.4123 
G01 X66.3063 Y32.4791 
G01 X66.2702 Y32.5664 
G01 X66.2702 Y32.6608 
G01 X66.3063 Y32.7481 
G01 X66.3731 Y32.8149 
G01 X66.4604 Y32.8510 
G01 X66.5386 Y32.8834 
G01 X66.7862 Y33.1310 
G01 X66.9202 Y33.4545 
G01 X66.9202 Y35.1255 
G01 X66.8039 Y35.4062 
G01 X66.7705 Y35.4869 
G01 X66.7678 Y35.4934 
G01 X66.7678 Y39.5148 
G01 X66.6570 Y39.7823 
G01 X66.4523 Y39.9870 
G01 X66.1848 Y40.0978 
G01 X59.3114 Y40.0978 
G01 X59.2241 Y40.1339 
G01 X59.1574 Y40.2007 
G01 X59.0481 Y40.3100 
G01 X58.6405 Y40.4788 
G01 X58.1994 Y40.4788 
G01 X57.7919 Y40.3100 
G01 X57.4800 Y39.9981 
G01 X57.3112 Y39.5906 
G01 X57.3112 Y39.1494 
G01 X57.4800 Y38.7419 
G01 X57.7919 Y38.4300 
G01 X58.1994 Y38.2612 
G01 X58.6405 Y38.2612 
G01 X59.0481 Y38.4300 
G01 X59.2241 Y38.6061 
G01 X59.3114 Y38.6422 
G01 X65.1220 Y38.6422 
G01 X65.2093 Y38.6061 
G01 X65.2761 Y38.5393 
G01 X65.3122 Y38.4520 
G01 X65.3122 Y35.4934 
G01 X65.2761 Y35.4062 
G01 X65.1598 Y35.1255 
G01 X65.1598 Y33.4545 
G01 X65.2938 Y33.1310 
G01 X65.5414 Y32.8834 
G01 X65.6196 Y32.8510 
G01 X65.7069 Y32.8149 
G01 X65.7737 Y32.7481 
G01 X65.8094 Y32.6618 
G01 X65.8098 Y32.5664 
G01 X65.7737 Y32.4791 
G01 X65.7069 Y32.4123 
G01 X65.6207 Y32.3766 
G01 X64.3164 Y32.3762 
G01 X64.2291 Y32.4123 
G01 X64.1623 Y32.4791 
G01 X64.1262 Y32.5664 
G01 X64.1262 Y33.6203 
G01 X64.1623 Y33.7076 
G01 X64.2291 Y33.7743 
G01 X64.3802 Y33.9254 
G01 X64.3802 Y34.6546 
G01 X63.8646 Y35.1702 
G01 X63.1354 Y35.1702 
G01 X62.6198 Y34.6546 
G01 X62.6198 Y33.9254 
G01 X62.7709 Y33.7743 
G01 X62.8377 Y33.7076 
G01 X62.8734 Y33.6213 
G01 X62.8738 Y32.5664 
G01 X62.8377 Y32.4791 
G01 X62.7709 Y32.4123 
G01 X62.6836 Y32.3762 
G01 X58.8404 Y32.3762 
G01 X58.7531 Y32.4123 
G01 X58.6863 Y32.4791 
G01 X58.6502 Y32.5664 
G01 X58.6502 Y32.6608 
G01 X58.6863 Y32.7481 
G01 X58.7531 Y32.8149 
G01 X58.8404 Y32.8510 
G01 X58.9186 Y32.8834 
G01 X59.1662 Y33.1310 
G01 X59.3002 Y33.4545 
G01 X59.3002 Y35.1255 
G01 X59.1662 Y35.4490 
G01 X58.9186 Y35.6966 
G01 X58.5951 Y35.8306 
G01 X58.2449 Y35.8306 
G01 X57.9214 Y35.6966 
G01 X57.6738 Y35.4490 
G01 X57.5398 Y35.1255 
G01 X57.5398 Y33.4545 
G01 X57.6738 Y33.1310 
G01 X57.9214 Y32.8834 
G01 X57.9996 Y32.8510 
G01 X58.0869 Y32.8149 
G01 X58.1537 Y32.7481 
G01 X58.1894 Y32.6618 
G01 X58.1898 Y32.5664 
G01 X58.1537 Y32.4791 
G01 X58.0869 Y32.4123 
G01 X58.0007 Y32.3766 
G01 X51.6164 Y32.3762 
G01 X51.5291 Y32.4123 
G01 X51.4623 Y32.4791 
G01 X51.4262 Y32.5664 
G01 X51.4262 Y32.9599 
G01 X51.4623 Y33.0471 
G01 X51.5291 Y33.1139 
G01 X51.5462 Y33.1310 
G01 X51.6802 Y33.4545 
G01 X51.6802 Y35.1255 
G01 X51.5462 Y35.4490 
G01 X51.2986 Y35.6966 
G01 X50.9751 Y35.8306 
G01 X50.6249 Y35.8306 
G01 X50.3014 Y35.6966 
G01 X50.0538 Y35.4490 
G01 X49.9198 Y35.1255 
G01 X49.9198 Y33.4545 
G01 X50.0538 Y33.1310 
G01 X50.1377 Y33.0471 
G01 X50.1738 Y32.9599 
G01 X50.1738 Y31.6254 
G01 X50.2348 Y31.4781 
G01 X50.2703 Y31.3924 
G01 X50.2710 Y31.2964 
G01 X50.2348 Y31.2091 
G01 X50.1681 Y31.1423 
G01 X50.0818 Y31.1066 
G01 X40.5154 Y31.1062 
G01 X40.2853 Y31.0109 
G00 Z5.0000 
G00 X40.3383 Y30.8732 
G01 Z-0.1400 F254.00 
G01 X40.4503 Y30.9379 F1000.00 
G01 X40.5753 Y30.9714 
G01 X55.9447 Y30.9714 
G01 X56.0697 Y30.9379 
G01 X56.1817 Y30.8732 
G01 X56.2732 Y30.7817 
G01 X56.3379 Y30.6697 
G01 X56.3714 Y30.5447 
G01 X56.3714 Y27.8932 
G01 X56.4590 Y27.8056 
G01 X56.5406 Y27.6835 
G01 X56.5968 Y27.5478 
G01 X56.6254 Y27.4038 
G01 X56.6254 Y25.9362 
G01 X56.5968 Y25.7922 
G01 X56.5406 Y25.6565 
G01 X56.4590 Y25.5344 
G01 X56.3714 Y25.4468 
G01 X56.3714 Y19.5414 
G01 X57.5730 Y19.5414 
G01 X57.5730 Y19.8954 
G01 X57.6056 Y20.0591 
G01 X57.6694 Y20.2132 
G01 X57.7621 Y20.3519 
G01 X57.8801 Y20.4699 
G01 X58.0188 Y20.5626 
G01 X58.1729 Y20.6264 
G01 X58.3366 Y20.6590 
G01 X58.5034 Y20.6590 
G01 X58.6671 Y20.6264 
G01 X58.8212 Y20.5626 
G01 X58.9599 Y20.4699 
G01 X59.0779 Y20.3519 
G01 X59.1706 Y20.2132 
G01 X59.2344 Y20.0591 
G01 X59.2670 Y19.8954 
G01 X59.2670 Y18.2046 
G01 X59.2344 Y18.0409 
G01 X59.1706 Y17.8868 
G01 X59.0779 Y17.7481 
G01 X58.9599 Y17.6301 
G01 X58.8212 Y17.5374 
G01 X58.6671 Y17.4735 
G01 X58.5034 Y17.4410 
G01 X58.3366 Y17.4410 
G01 X58.1729 Y17.4735 
G01 X58.0188 Y17.5374 
G01 X57.8801 Y17.6301 
G01 X57.7621 Y17.7481 
G01 X57.6694 Y17.8868 
G01 X57.6056 Y18.0409 
G01 X57.5730 Y18.2046 
G01 X57.5730 Y18.5586 
G01 X56.3714 Y18.5586 
G01 X56.3714 Y16.4489 
G01 X58.3691 Y16.4489 
G01 X58.5570 Y16.4192 
G01 X58.7380 Y16.3604 
G01 X58.9076 Y16.2740 
G01 X59.0615 Y16.1621 
G01 X59.1961 Y16.0276 
G01 X59.3079 Y15.8736 
G01 X59.3943 Y15.7041 
G01 X59.4531 Y15.5231 
G01 X59.4829 Y15.3351 
G01 X59.4829 Y15.1448 
G01 X59.4531 Y14.9569 
G01 X59.3943 Y14.7759 
G01 X59.3079 Y14.6064 
G01 X59.1961 Y14.4524 
G01 X59.0615 Y14.3179 
G01 X58.9076 Y14.2060 
G01 X58.7380 Y14.1196 
G01 X58.5570 Y14.0608 
G01 X58.3691 Y14.0311 
G01 X57.7614 Y14.0311 
G01 X57.7614 Y12.6951 
G01 X57.7901 Y12.6857 
G01 X57.9802 Y12.5889 
G01 X58.1527 Y12.4635 
G01 X58.3035 Y12.3127 
G01 X58.4289 Y12.1402 
G01 X58.5257 Y11.9501 
G01 X58.5916 Y11.7473 
G01 X58.6250 Y11.5366 
G01 X58.6250 Y8.7834 
G01 X58.5916 Y8.5727 
G01 X58.5257 Y8.3699 
G01 X58.4289 Y8.1798 
G01 X58.3035 Y8.0073 
G01 X58.1527 Y7.8565 
G01 X57.9802 Y7.7311 
G01 X57.7901 Y7.6343 
G01 X57.5873 Y7.5684 
G01 X57.3766 Y7.5350 
G01 X57.1634 Y7.5350 
G01 X56.9527 Y7.5684 
G01 X56.7499 Y7.6343 
G01 X56.5598 Y7.7311 
G01 X56.3873 Y7.8565 
G01 X56.2365 Y8.0073 
G01 X56.1111 Y8.1798 
G01 X56.0143 Y8.3699 
G01 X55.9484 Y8.5727 
G01 X55.9150 Y8.7834 
G01 X55.9150 Y11.5366 
G01 X55.9484 Y11.7473 
G01 X56.0143 Y11.9501 
G01 X56.1111 Y12.1402 
G01 X56.2365 Y12.3127 
G01 X56.3873 Y12.4635 
G01 X56.5598 Y12.5889 
G01 X56.7499 Y12.6857 
G01 X56.7786 Y12.6951 
G01 X56.7786 Y14.0311 
G01 X55.9309 Y14.0311 
G01 X55.7430 Y14.0608 
G01 X55.5620 Y14.1196 
G01 X55.3924 Y14.2060 
G01 X55.2385 Y14.3179 
G01 X55.1039 Y14.4524 
G01 X54.9921 Y14.6064 
G01 X54.9057 Y14.7759 
G01 X54.8469 Y14.9569 
G01 X54.8171 Y15.1448 
G01 X54.8171 Y15.3351 
G01 X54.8469 Y15.5231 
G01 X54.9057 Y15.7041 
G01 X54.9921 Y15.8736 
G01 X55.1039 Y16.0276 
G01 X55.2385 Y16.1621 
G01 X55.3886 Y16.2712 
G01 X55.3886 Y25.4468 
G01 X55.3010 Y25.5344 
G01 X55.2194 Y25.6565 
G01 X55.1632 Y25.7922 
G01 X55.1346 Y25.9362 
G01 X55.1346 Y27.4038 
G01 X55.1632 Y27.5478 
G01 X55.2194 Y27.6835 
G01 X55.3010 Y27.8056 
G01 X55.3886 Y27.8932 
G01 X55.3886 Y29.9886 
G01 X41.1314 Y29.9886 
G01 X41.1314 Y27.8931 
G01 X41.2190 Y27.8056 
G01 X41.3006 Y27.6835 
G01 X41.3568 Y27.5478 
G01 X41.3854 Y27.4038 
G01 X41.3854 Y25.9362 
G01 X41.3568 Y25.7922 
G01 X41.3006 Y25.6565 
G01 X41.2190 Y25.5344 
G01 X41.1152 Y25.4306 
G01 X40.9931 Y25.3490 
G01 X40.8574 Y25.2928 
G01 X40.7134 Y25.2642 
G01 X40.5666 Y25.2642 
G01 X40.4226 Y25.2928 
G01 X40.2869 Y25.3490 
G01 X40.1648 Y25.4306 
G01 X40.0610 Y25.5344 
G01 X39.9794 Y25.6565 
G01 X39.9232 Y25.7922 
G01 X39.8946 Y25.9362 
G01 X39.8946 Y27.4038 
G01 X39.9232 Y27.5478 
G01 X39.9794 Y27.6835 
G01 X40.0610 Y27.8056 
G01 X40.1486 Y27.8931 
G01 X40.1486 Y30.5447 
G01 X40.1821 Y30.6697 
G01 X40.2468 Y30.7817 
G01 X40.3383 Y30.8732 
G00 Z5.0000 
G00 X42.7868 Y29.5117 
G01 Z-0.1400 F254.00 
G01 X42.8783 Y29.6032 F1000.00 
G01 X42.9903 Y29.6679 
G01 X43.1153 Y29.7014 
G01 X53.4047 Y29.7014 
G01 X53.5297 Y29.6679 
G01 X53.6417 Y29.6032 
G01 X53.7332 Y29.5117 
G01 X53.7979 Y29.3997 
G01 X53.8314 Y29.2747 
G01 X53.8314 Y27.8932 
G01 X53.9190 Y27.8056 
G01 X54.0006 Y27.6835 
G01 X54.0568 Y27.5478 
G01 X54.0854 Y27.4038 
G01 X54.0854 Y25.9362 
G01 X54.0568 Y25.7922 
G01 X54.0006 Y25.6565 
G01 X53.9190 Y25.5344 
G01 X53.8314 Y25.4468 
G01 X53.8314 Y16.4453 
G01 X53.7979 Y16.3203 
G01 X53.7332 Y16.2083 
G01 X53.6417 Y16.1168 
G01 X52.5614 Y15.0365 
G01 X52.5614 Y6.3602 
G01 X52.5921 Y5.6222 
G01 X64.2786 Y5.6222 
G01 X64.2786 Y7.6249 
G01 X64.2499 Y7.6343 
G01 X64.0598 Y7.7311 
G01 X63.8873 Y7.8565 
G01 X63.7365 Y8.0073 
G01 X63.6111 Y8.1798 
G01 X63.5143 Y8.3699 
G01 X63.4484 Y8.5727 
G01 X63.4150 Y8.7834 
G01 X63.4150 Y11.5366 
G01 X63.4484 Y11.7473 
G01 X63.5143 Y11.9501 
G01 X63.6111 Y12.1402 
G01 X63.7365 Y12.3127 
G01 X63.8873 Y12.4635 
G01 X64.0598 Y12.5889 
G01 X64.2499 Y12.6857 
G01 X64.2786 Y12.6951 
G01 X64.2786 Y12.7647 
G01 X64.3121 Y12.8897 
G01 X64.3768 Y13.0017 
G01 X64.4683 Y13.0932 
G01 X64.5803 Y13.1579 
G01 X64.7053 Y13.1914 
G01 X67.1065 Y13.1914 
G01 X68.0886 Y14.1735 
G01 X68.0886 Y14.6772 
G01 X67.8346 Y14.9312 
G01 X67.8346 Y15.5488 
G01 X68.2712 Y15.9854 
G01 X68.8888 Y15.9854 
G01 X69.3254 Y15.5488 
G01 X69.3254 Y14.9312 
G01 X69.0714 Y14.6772 
G01 X69.0714 Y13.9053 
G01 X69.0379 Y13.7803 
G01 X68.9732 Y13.6683 
G01 X67.7032 Y12.3983 
G01 X67.6117 Y12.3068 
G01 X67.4997 Y12.2421 
G01 X67.3747 Y12.2086 
G01 X65.8792 Y12.2086 
G01 X65.9289 Y12.1402 
G01 X66.0257 Y11.9501 
G01 X66.0916 Y11.7473 
G01 X66.1250 Y11.5366 
G01 X66.1250 Y8.7834 
G01 X66.0916 Y8.5727 
G01 X66.0257 Y8.3699 
G01 X65.9289 Y8.1798 
G01 X65.8035 Y8.0073 
G01 X65.6527 Y7.8565 
G01 X65.4802 Y7.7311 
G01 X65.2901 Y7.6343 
G01 X65.2614 Y7.6249 
G01 X65.2614 Y5.0661 
G01 X65.2279 Y4.9411 
G01 X65.1632 Y4.8291 
G01 X65.0717 Y4.7376 
G01 X64.9597 Y4.6729 
G01 X64.8347 Y4.6394 
G01 X52.1310 Y4.6394 
G01 X52.0766 Y4.6371 
G01 X52.0665 Y4.6394 
G01 X52.0561 Y4.6394 
G01 X52.0035 Y4.6535 
G01 X51.9504 Y4.6654 
G01 X51.9412 Y4.6702 
G01 X51.9311 Y4.6729 
G01 X51.8839 Y4.7001 
G01 X51.8357 Y4.7254 
G01 X51.8281 Y4.7324 
G01 X51.8191 Y4.7376 
G01 X51.7805 Y4.7761 
G01 X51.7405 Y4.8130 
G01 X51.7349 Y4.8217 
G01 X51.7276 Y4.8291 
G01 X51.7003 Y4.8763 
G01 X51.6712 Y4.9222 
G01 X51.6681 Y4.9321 
G01 X51.6629 Y4.9411 
G01 X51.6488 Y4.9938 
G01 X51.6325 Y5.0457 
G01 X51.6321 Y5.0561 
G01 X51.6294 Y5.0661 
G01 X51.6294 Y5.1206 
G01 X51.6091 Y5.6079 
G01 X51.5761 Y5.5624 
G01 X51.4415 Y5.4279 
G01 X51.2876 Y5.3160 
G01 X51.1180 Y5.2296 
G01 X50.9370 Y5.1708 
G01 X50.7491 Y5.1410 
G01 X48.3109 Y5.1410 
G01 X48.1230 Y5.1708 
G01 X47.9420 Y5.2296 
G01 X47.7724 Y5.3160 
G01 X47.6185 Y5.4279 
G01 X47.4839 Y5.5624 
G01 X47.3721 Y5.7164 
G01 X47.2857 Y5.8859 
G01 X47.2269 Y6.0669 
G01 X47.1971 Y6.2549 
G01 X47.1971 Y6.4451 
G01 X47.2269 Y6.6331 
G01 X47.2857 Y6.8141 
G01 X47.3721 Y6.9836 
G01 X47.4839 Y7.1376 
G01 X47.6185 Y7.2721 
G01 X47.7724 Y7.3840 
G01 X47.9420 Y7.4704 
G01 X48.1230 Y7.5292 
G01 X48.3109 Y7.5589 
G01 X50.7491 Y7.5589 
G01 X50.9370 Y7.5292 
G01 X51.1180 Y7.4704 
G01 X51.2876 Y7.3840 
G01 X51.4415 Y7.2721 
G01 X51.5761 Y7.1376 
G01 X51.5786 Y7.1341 
G01 X51.5786 Y15.3047 
G01 X51.6121 Y15.4297 
G01 X51.6768 Y15.5417 
G01 X52.8486 Y16.7135 
G01 X52.8486 Y25.4468 
G01 X52.7610 Y25.5344 
G01 X52.6794 Y25.6565 
G01 X52.6232 Y25.7922 
G01 X52.5946 Y25.9362 
G01 X52.5946 Y27.4038 
G01 X52.6232 Y27.5478 
G01 X52.6794 Y27.6835 
G01 X52.7610 Y27.8056 
G01 X52.8486 Y27.8932 
G01 X52.8486 Y28.7186 
G01 X43.6714 Y28.7186 
G01 X43.6714 Y27.8931 
G01 X43.7590 Y27.8056 
G01 X43.8406 Y27.6835 
G01 X43.8968 Y27.5478 
G01 X43.9254 Y27.4038 
G01 X43.9254 Y25.9362 
G01 X43.8968 Y25.7922 
G01 X43.8406 Y25.6565 
G01 X43.7590 Y25.5344 
G01 X43.6552 Y25.4306 
G01 X43.5331 Y25.3490 
G01 X43.3974 Y25.2928 
G01 X43.2534 Y25.2642 
G01 X43.1066 Y25.2642 
G01 X42.9626 Y25.2928 
G01 X42.8269 Y25.3490 
G01 X42.7048 Y25.4306 
G01 X42.6010 Y25.5344 
G01 X42.5194 Y25.6565 
G01 X42.4632 Y25.7922 
G01 X42.4346 Y25.9362 
G01 X42.4346 Y27.4038 
G01 X42.4632 Y27.5478 
G01 X42.5194 Y27.6835 
G01 X42.6010 Y27.8056 
G01 X42.6886 Y27.8931 
G01 X42.6886 Y29.2747 
G01 X42.7221 Y29.3997 
G01 X42.7868 Y29.5117 
G00 Z5.0000 
G00 X44.9738 Y33.1310 
G01 Z-0.1400 F254.00 
G01 X45.2214 Y32.8834 F1000.00 
G01 X45.5449 Y32.7494 
G01 X45.8951 Y32.7494 
G01 X46.2186 Y32.8834 
G01 X46.4662 Y33.1310 
G01 X46.6002 Y33.4545 
G01 X46.6002 Y35.1255 
G01 X46.4662 Y35.4490 
G01 X46.3823 Y35.5328 
G01 X46.3462 Y35.6201 
G01 X46.3462 Y48.1999 
G01 X46.3823 Y48.2871 
G01 X46.4491 Y48.3539 
G01 X46.4662 Y48.3710 
G01 X46.6002 Y48.6945 
G01 X46.6002 Y50.3655 
G01 X46.4662 Y50.6890 
G01 X46.2186 Y50.9366 
G01 X46.1404 Y50.9690 
G01 X46.0531 Y51.0051 
G01 X45.9873 Y51.0709 
G01 X45.9656 Y51.1220 
G01 X45.9502 Y51.1592 
G01 X45.9502 Y51.2536 
G01 X45.9863 Y51.3409 
G01 X46.0521 Y51.4066 
G01 X46.1032 Y51.4284 
G01 X46.1403 Y51.4438 
G01 X47.8396 Y51.4438 
G01 X47.8748 Y51.4293 
G01 X47.9269 Y51.4077 
G01 X47.9937 Y51.3409 
G01 X48.0298 Y51.2536 
G01 X48.0298 Y51.1592 
G01 X48.0153 Y51.1241 
G01 X47.9937 Y51.0719 
G01 X47.9269 Y51.0051 
G01 X47.8396 Y50.9690 
G01 X47.7614 Y50.9366 
G01 X47.5138 Y50.6890 
G01 X47.3798 Y50.3655 
G01 X47.3798 Y48.6945 
G01 X47.5138 Y48.3710 
G01 X47.5977 Y48.2871 
G01 X47.6338 Y48.1999 
G01 X47.6338 Y40.3630 
G01 X47.5977 Y40.2757 
G01 X47.5309 Y40.2090 
G01 X47.3200 Y39.9981 
G01 X47.1512 Y39.5906 
G01 X47.1512 Y39.1494 
G01 X47.3200 Y38.7419 
G01 X47.6319 Y38.4300 
G01 X48.0394 Y38.2612 
G01 X48.4806 Y38.2612 
G01 X48.8881 Y38.4300 
G01 X49.0989 Y38.6409 
G01 X49.1657 Y38.7077 
G01 X49.2520 Y38.7434 
G01 X49.8070 Y38.7438 
G01 X49.8943 Y38.7077 
G01 X49.9610 Y38.6409 
G01 X50.1719 Y38.4300 
G01 X50.5794 Y38.2612 
G01 X51.0206 Y38.2612 
G01 X51.4281 Y38.4300 
G01 X51.7400 Y38.7419 
G01 X51.9088 Y39.1494 
G01 X51.9088 Y39.5906 
G01 X51.7400 Y39.9981 
G01 X51.4281 Y40.3100 
G01 X51.0206 Y40.4788 
G01 X50.5794 Y40.4788 
G01 X50.1719 Y40.3100 
G01 X49.8943 Y40.0323 
G01 X49.8070 Y39.9962 
G01 X49.2530 Y39.9962 
G01 X49.1657 Y40.0323 
G01 X49.0990 Y40.0991 
G01 X48.9891 Y40.2090 
G01 X48.9223 Y40.2757 
G01 X48.8862 Y40.3630 
G01 X48.8862 Y40.8396 
G01 X48.9223 Y40.9269 
G01 X48.9891 Y40.9937 
G01 X49.0764 Y41.0298 
G01 X49.8946 Y41.0298 
G01 X50.4102 Y41.5454 
G01 X50.4102 Y42.2746 
G01 X50.2591 Y42.4257 
G01 X50.1923 Y42.4924 
G01 X50.1566 Y42.5787 
G01 X50.1562 Y44.9036 
G01 X50.1923 Y44.9909 
G01 X50.2591 Y45.0577 
G01 X50.3464 Y45.0938 
G01 X51.4003 Y45.0938 
G01 X51.4876 Y45.0577 
G01 X51.5543 Y44.9909 
G01 X51.7054 Y44.8398 
G01 X52.4346 Y44.8398 
G01 X52.9502 Y45.3554 
G01 X52.9502 Y46.0846 
G01 X52.4346 Y46.6002 
G01 X51.7054 Y46.6002 
G01 X51.5543 Y46.4491 
G01 X51.4876 Y46.3823 
G01 X51.4013 Y46.3466 
G01 X50.3464 Y46.3462 
G01 X50.2591 Y46.3823 
G01 X50.1923 Y46.4491 
G01 X50.1562 Y46.5364 
G01 X50.1562 Y47.8755 
G01 X50.1923 Y47.9627 
G01 X50.2591 Y48.0295 
G01 X50.3464 Y48.0657 
G01 X50.4408 Y48.0657 
G01 X50.5281 Y48.0295 
G01 X50.6249 Y47.9894 
G01 X50.9751 Y47.9894 
G01 X51.2986 Y48.1234 
G01 X51.5462 Y48.3710 
G01 X51.6802 Y48.6945 
G01 X51.6802 Y48.7136 
G01 X51.7163 Y48.8009 
G01 X51.7831 Y48.8677 
G01 X51.8704 Y48.9038 
G01 X53.9403 Y48.9038 
G01 X54.0276 Y48.8677 
G01 X54.0943 Y48.8009 
G01 X54.2454 Y48.6498 
G01 X54.9746 Y48.6498 
G01 X55.4157 Y49.0909 
G01 X55.4730 Y49.1482 
G01 X55.4824 Y49.1577 
G01 X55.5697 Y49.1938 
G01 X56.1539 Y49.1938 
G01 X56.1788 Y49.1835 
G01 X56.2412 Y49.1577 
G01 X56.3080 Y49.0909 
G01 X56.4044 Y48.9945 
G01 X56.7623 Y48.8462 
G01 X58.6577 Y48.8462 
G01 X59.0156 Y48.9944 
G01 X59.1788 Y49.1577 
G01 X59.2661 Y49.1938 
G01 X60.1436 Y49.1938 
G01 X60.2309 Y49.1577 
G01 X60.2977 Y49.0909 
G01 X60.3338 Y49.0036 
G01 X60.3338 Y46.3897 
G01 X60.2977 Y46.3024 
G01 X60.2309 Y46.2357 
G01 X60.0798 Y46.0846 
G01 X60.0798 Y45.3554 
G01 X60.5954 Y44.8398 
G01 X61.3246 Y44.8398 
G01 X61.8402 Y45.3554 
G01 X61.8402 Y46.0846 
G01 X61.6891 Y46.2357 
G01 X61.6223 Y46.3024 
G01 X61.5866 Y46.3887 
G01 X61.5862 Y48.9406 
G01 X61.5859 Y48.9875 
G01 X61.6039 Y49.0317 
G01 X61.6215 Y49.0749 
G01 X61.6552 Y49.1090 
G01 X61.6879 Y49.1421 
G01 X61.7319 Y49.1607 
G01 X61.7749 Y49.1788 
G01 X61.8225 Y49.1791 
G01 X62.5686 Y49.1837 
G01 X62.6155 Y49.1840 
G01 X62.6623 Y49.1843 
G01 X62.7067 Y49.1662 
G01 X62.7498 Y49.1487 
G01 X62.7840 Y49.1148 
G01 X62.8169 Y49.0823 
G01 X62.9044 Y48.9944 
G01 X63.2623 Y48.8462 
G01 X65.1577 Y48.8462 
G01 X65.5156 Y48.9944 
G01 X65.7895 Y49.2684 
G01 X65.9378 Y49.6263 
G01 X65.9378 Y50.0137 
G01 X65.7895 Y50.3716 
G01 X65.5156 Y50.6455 
G01 X65.1577 Y50.7938 
G01 X63.2623 Y50.7938 
G01 X62.9044 Y50.6455 
G01 X62.7412 Y50.4823 
G01 X62.6539 Y50.4462 
G01 X59.2661 Y50.4462 
G01 X59.1788 Y50.4823 
G01 X59.1120 Y50.5491 
G01 X59.0156 Y50.6455 
G01 X58.6577 Y50.7938 
G01 X56.7623 Y50.7938 
G01 X56.4044 Y50.6455 
G01 X56.3080 Y50.5491 
G01 X56.2412 Y50.4823 
G01 X56.1802 Y50.4571 
G01 X56.1539 Y50.4462 
G01 X54.7754 Y50.4462 
G01 X54.7024 Y50.4159 
G01 X54.6885 Y50.4102 
G01 X54.2454 Y50.4102 
G01 X54.0943 Y50.2591 
G01 X54.0276 Y50.1923 
G01 X53.9413 Y50.1566 
G01 X51.8704 Y50.1562 
G01 X51.7831 Y50.1923 
G01 X51.7163 Y50.2591 
G01 X51.6802 Y50.3464 
G01 X51.6802 Y50.3655 
G01 X51.5462 Y50.6890 
G01 X51.5291 Y50.7061 
G01 X51.4647 Y50.7705 
G01 X51.4416 Y50.8229 
G01 X51.4262 Y50.8601 
G01 X51.4262 Y52.3470 
G01 X51.4623 Y52.4343 
G01 X51.5291 Y52.5010 
G01 X51.7400 Y52.7119 
G01 X51.9088 Y53.1194 
G01 X51.9088 Y53.5605 
G01 X51.7400 Y53.9681 
G01 X51.5895 Y54.1186 
G01 X51.3879 Y54.1186 
G01 X51.4209 Y54.0966 
G01 X51.5566 Y53.9609 
G01 X51.6631 Y53.8014 
G01 X51.7366 Y53.6241 
G01 X51.7740 Y53.4359 
G01 X51.7740 Y53.2441 
G01 X51.7366 Y53.0559 
G01 X51.6631 Y52.8786 
G01 X51.5566 Y52.7191 
G01 X51.4209 Y52.5834 
G01 X51.2914 Y52.4969 
G01 X51.2914 Y50.7532 
G01 X51.3790 Y50.6656 
G01 X51.4606 Y50.5435 
G01 X51.5168 Y50.4078 
G01 X51.5454 Y50.2638 
G01 X51.5454 Y50.0214 
G01 X54.0472 Y50.0214 
G01 X54.3012 Y50.2754 
G01 X54.7060 Y50.2754 
G01 X54.7103 Y50.2779 
G01 X54.8353 Y50.3114 
G01 X56.2753 Y50.3114 
G01 X56.3043 Y50.3548 
G01 X56.4212 Y50.4717 
G01 X56.5586 Y50.5635 
G01 X56.7113 Y50.6268 
G01 X56.8734 Y50.6590 
G01 X58.5466 Y50.6590 
G01 X58.7087 Y50.6268 
G01 X58.8614 Y50.5635 
G01 X58.9988 Y50.4717 
G01 X59.1157 Y50.3548 
G01 X59.1447 Y50.3114 
G01 X62.7753 Y50.3114 
G01 X62.8043 Y50.3548 
G01 X62.9212 Y50.4717 
G01 X63.0586 Y50.5635 
G01 X63.2113 Y50.6268 
G01 X63.3734 Y50.6590 
G01 X65.0466 Y50.6590 
G01 X65.2087 Y50.6268 
G01 X65.3614 Y50.5635 
G01 X65.4988 Y50.4717 
G01 X65.6157 Y50.3548 
G01 X65.7075 Y50.2174 
G01 X65.7708 Y50.0647 
G01 X65.8030 Y49.9026 
G01 X65.8030 Y49.7374 
G01 X65.7708 Y49.5753 
G01 X65.7075 Y49.4226 
G01 X65.6157 Y49.2852 
G01 X65.4988 Y49.1683 
G01 X65.3614 Y49.0765 
G01 X65.2087 Y49.0132 
G01 X65.0466 Y48.9810 
G01 X63.3734 Y48.9810 
G01 X63.2113 Y49.0132 
G01 X63.0586 Y49.0765 
G01 X62.9212 Y49.1683 
G01 X62.8043 Y49.2852 
G01 X62.7812 Y49.3198 
G01 X61.4514 Y49.3116 
G01 X61.4514 Y46.2828 
G01 X61.7054 Y46.0288 
G01 X61.7054 Y45.4112 
G01 X61.2688 Y44.9746 
G01 X60.6512 Y44.9746 
G01 X60.2146 Y45.4112 
G01 X60.2146 Y46.0288 
G01 X60.4686 Y46.2828 
G01 X60.4686 Y49.3286 
G01 X59.1447 Y49.3286 
G01 X59.1157 Y49.2852 
G01 X58.9988 Y49.1683 
G01 X58.8614 Y49.0765 
G01 X58.7087 Y49.0132 
G01 X58.5466 Y48.9810 
G01 X56.8734 Y48.9810 
G01 X56.7113 Y49.0132 
G01 X56.5586 Y49.0765 
G01 X56.4212 Y49.1683 
G01 X56.3043 Y49.2852 
G01 X56.2753 Y49.3286 
G01 X55.3554 Y49.3286 
G01 X55.3554 Y49.2212 
G01 X54.9188 Y48.7846 
G01 X54.3012 Y48.7846 
G01 X54.0472 Y49.0386 
G01 X51.5454 Y49.0386 
G01 X51.5454 Y48.7962 
G01 X51.5168 Y48.6522 
G01 X51.4606 Y48.5165 
G01 X51.3790 Y48.3944 
G01 X51.2752 Y48.2906 
G01 X51.1531 Y48.2090 
G01 X51.0174 Y48.1528 
G01 X50.8734 Y48.1242 
G01 X50.7266 Y48.1242 
G01 X50.5826 Y48.1528 
G01 X50.4469 Y48.2090 
G01 X50.3248 Y48.2906 
G01 X50.2210 Y48.3944 
G01 X50.1394 Y48.5165 
G01 X50.0832 Y48.6522 
G01 X50.0546 Y48.7962 
G01 X50.0546 Y50.2638 
G01 X50.0832 Y50.4078 
G01 X50.1394 Y50.5435 
G01 X50.2210 Y50.6656 
G01 X50.3086 Y50.7532 
G01 X50.3086 Y52.4969 
G01 X50.1791 Y52.5834 
G01 X50.0434 Y52.7191 
G01 X49.9369 Y52.8786 
G01 X49.8634 Y53.0559 
G01 X49.8260 Y53.2441 
G01 X49.8260 Y53.4359 
G01 X49.8634 Y53.6241 
G01 X49.9369 Y53.8014 
G01 X50.0434 Y53.9609 
G01 X50.1791 Y54.0966 
G01 X50.2121 Y54.1186 
G01 X50.0105 Y54.1186 
G01 X49.8600 Y53.9681 
G01 X49.6912 Y53.5605 
G01 X49.6912 Y53.1194 
G01 X49.7125 Y53.0681 
G01 X49.7480 Y52.9822 
G01 X49.7486 Y52.8864 
G01 X49.7125 Y52.7991 
G01 X49.6457 Y52.7323 
G01 X49.5595 Y52.6966 
G01 X43.0554 Y52.6962 
G01 X42.8253 Y52.6009 
G01 X42.6491 Y52.4247 
G01 X42.5538 Y52.1946 
G01 X42.5538 Y50.8601 
G01 X42.5393 Y50.8250 
G01 X42.5177 Y50.7728 
G01 X42.4509 Y50.7061 
G01 X42.4338 Y50.6890 
G01 X42.2998 Y50.3655 
G01 X42.2998 Y48.6945 
G01 X42.4338 Y48.3710 
G01 X42.6814 Y48.1234 
G01 X43.0049 Y47.9894 
G01 X43.3551 Y47.9894 
G01 X43.6786 Y48.1234 
G01 X43.9262 Y48.3710 
G01 X44.0602 Y48.6945 
G01 X44.0602 Y50.3655 
G01 X43.9262 Y50.6890 
G01 X43.9091 Y50.7061 
G01 X43.8447 Y50.7705 
G01 X43.8216 Y50.8229 
G01 X43.8062 Y50.8601 
G01 X43.8062 Y51.2536 
G01 X43.8423 Y51.3409 
G01 X43.9091 Y51.4077 
G01 X43.9964 Y51.4438 
G01 X45.2996 Y51.4438 
G01 X45.3348 Y51.4293 
G01 X45.3869 Y51.4077 
G01 X45.4537 Y51.3409 
G01 X45.4898 Y51.2536 
G01 X45.4898 Y51.1592 
G01 X45.4753 Y51.1241 
G01 X45.4537 Y51.0719 
G01 X45.3869 Y51.0051 
G01 X45.2996 Y50.9690 
G01 X45.2214 Y50.9366 
G01 X44.9738 Y50.6890 
G01 X44.8398 Y50.3655 
G01 X44.8398 Y48.6945 
G01 X44.9738 Y48.3710 
G01 X45.0577 Y48.2871 
G01 X45.0938 Y48.1999 
G01 X45.0938 Y35.6201 
G01 X45.0577 Y35.5328 
G01 X44.9909 Y35.4661 
G01 X44.9738 Y35.4490 
G01 X44.8398 Y35.1255 
G01 X44.8398 Y33.4545 
G01 X44.9738 Y33.1310 
G00 Z5.0000 
G00 X45.1410 Y33.1544 
G01 Z-0.1400 F254.00 
G01 X45.0594 Y33.2765 F1000.00 
G01 X45.0032 Y33.4122 
G01 X44.9746 Y33.5562 
G01 X44.9746 Y35.0238 
G01 X45.0032 Y35.1678 
G01 X45.0594 Y35.3035 
G01 X45.1410 Y35.4256 
G01 X45.2286 Y35.5132 
G01 X45.2286 Y48.3068 
G01 X45.1410 Y48.3944 
G01 X45.0594 Y48.5165 
G01 X45.0032 Y48.6522 
G01 X44.9746 Y48.7962 
G01 X44.9746 Y50.2638 
G01 X45.0032 Y50.4078 
G01 X45.0594 Y50.5435 
G01 X45.1410 Y50.6656 
G01 X45.2448 Y50.7694 
G01 X45.3669 Y50.8510 
G01 X45.5026 Y50.9072 
G01 X45.6466 Y50.9358 
G01 X45.7934 Y50.9358 
G01 X45.9374 Y50.9072 
G01 X46.0731 Y50.8510 
G01 X46.1952 Y50.7694 
G01 X46.2990 Y50.6656 
G01 X46.3806 Y50.5435 
G01 X46.4368 Y50.4078 
G01 X46.4654 Y50.2638 
G01 X46.4654 Y48.7962 
G01 X46.4368 Y48.6522 
G01 X46.3806 Y48.5165 
G01 X46.2990 Y48.3944 
G01 X46.2114 Y48.3068 
G01 X46.2114 Y35.5132 
G01 X46.2990 Y35.4256 
G01 X46.3806 Y35.3035 
G01 X46.4368 Y35.1678 
G01 X46.4654 Y35.0238 
G01 X46.4654 Y33.5562 
G01 X46.4368 Y33.4122 
G01 X46.3806 Y33.2765 
G01 X46.2990 Y33.1544 
G01 X46.1952 Y33.0506 
G01 X46.0731 Y32.9690 
G01 X45.9374 Y32.9128 
G01 X45.7934 Y32.8842 
G01 X45.6466 Y32.8842 
G01 X45.5026 Y32.9128 
G01 X45.3669 Y32.9690 
G01 X45.2448 Y33.0506 
G01 X45.1410 Y33.1544 
G00 Z5.0000 
G00 X50.2210 Y33.1544 
G01 Z-0.1400 F254.00 
G01 X50.1394 Y33.2765 F1000.00 
G01 X50.0832 Y33.4122 
G01 X50.0546 Y33.5562 
G01 X50.0546 Y35.0238 
G01 X50.0832 Y35.1678 
G01 X50.1394 Y35.3035 
G01 X50.2210 Y35.4256 
G01 X50.3248 Y35.5294 
G01 X50.4469 Y35.6110 
G01 X50.5826 Y35.6672 
G01 X50.7266 Y35.6958 
G01 X50.8734 Y35.6958 
G01 X51.0174 Y35.6672 
G01 X51.1531 Y35.6110 
G01 X51.2752 Y35.5294 
G01 X51.3790 Y35.4256 
G01 X51.4606 Y35.3035 
G01 X51.5168 Y35.1678 
G01 X51.5454 Y35.0238 
G01 X51.5454 Y33.5562 
G01 X51.5168 Y33.4122 
G01 X51.4606 Y33.2765 
G01 X51.3790 Y33.1544 
G01 X51.2914 Y33.0668 
G01 X51.2914 Y32.2414 
G01 X63.0086 Y32.2414 
G01 X63.0086 Y33.7272 
G01 X62.7546 Y33.9812 
G01 X62.7546 Y34.5988 
G01 X63.1912 Y35.0354 
G01 X63.8088 Y35.0354 
G01 X64.2454 Y34.5988 
G01 X64.2454 Y33.9812 
G01 X63.9914 Y33.7272 
G01 X63.9914 Y32.2414 
G01 X67.1065 Y32.2414 
G01 X68.0103 Y33.1452 
G01 X68.0010 Y33.1544 
G01 X67.9194 Y33.2765 
G01 X67.8632 Y33.4122 
G01 X67.8346 Y33.5562 
G01 X67.8346 Y35.0238 
G01 X67.8632 Y35.1678 
G01 X67.9194 Y35.3035 
G01 X68.0010 Y35.4256 
G01 X68.1048 Y35.5294 
G01 X68.2269 Y35.6110 
G01 X68.3626 Y35.6672 
G01 X68.5066 Y35.6958 
G01 X68.6534 Y35.6958 
G01 X68.7974 Y35.6672 
G01 X68.9331 Y35.6110 
G01 X69.0552 Y35.5294 
G01 X69.1590 Y35.4256 
G01 X69.2406 Y35.3035 
G01 X69.2968 Y35.1678 
G01 X69.3254 Y35.0238 
G01 X69.3254 Y33.5562 
G01 X69.2968 Y33.4122 
G01 X69.2406 Y33.2765 
G01 X69.1590 Y33.1544 
G01 X69.0714 Y33.0668 
G01 X69.0714 Y32.9553 
G01 X69.0379 Y32.8303 
G01 X68.9732 Y32.7183 
G01 X67.6117 Y31.3568 
G01 X67.4997 Y31.2921 
G01 X67.3747 Y31.2586 
G01 X50.7353 Y31.2586 
G01 X50.6103 Y31.2921 
G01 X50.4983 Y31.3568 
G01 X50.4068 Y31.4483 
G01 X50.3421 Y31.5603 
G01 X50.3086 Y31.6853 
G01 X50.3086 Y33.0668 
G01 X50.2210 Y33.1544 
G00 Z5.0000 
G00 X50.2210 Y27.8056 
G01 Z-0.1400 F254.00 
G01 X50.3248 Y27.9094 F1000.00 
G01 X50.4469 Y27.9910 
G01 X50.5826 Y28.0472 
G01 X50.7266 Y28.0758 
G01 X50.8734 Y28.0758 
G01 X51.0174 Y28.0472 
G01 X51.1531 Y27.9910 
G01 X51.2752 Y27.9094 
G01 X51.3790 Y27.8056 
G01 X51.4606 Y27.6835 
G01 X51.5168 Y27.5478 
G01 X51.5454 Y27.4038 
G01 X51.5454 Y25.9362 
G01 X51.5168 Y25.7922 
G01 X51.4606 Y25.6565 
G01 X51.3930 Y25.5554 
G01 X51.3930 Y24.9052 
G01 X51.4209 Y24.8866 
G01 X51.5566 Y24.7509 
G01 X51.6631 Y24.5914 
G01 X51.7366 Y24.4141 
G01 X51.7740 Y24.2259 
G01 X51.7740 Y24.0341 
G01 X51.7366 Y23.8459 
G01 X51.6631 Y23.6686 
G01 X51.5566 Y23.5091 
G01 X51.4209 Y23.3734 
G01 X51.3930 Y23.3548 
G01 X51.3930 Y20.7812 
G01 X51.5454 Y20.6288 
G01 X51.5454 Y20.0112 
G01 X51.1088 Y19.5746 
G01 X50.4912 Y19.5746 
G01 X50.0546 Y20.0112 
G01 X50.0546 Y20.6288 
G01 X50.2070 Y20.7812 
G01 X50.2070 Y23.3548 
G01 X50.1791 Y23.3734 
G01 X50.0434 Y23.5091 
G01 X50.0248 Y23.5370 
G01 X49.0352 Y23.5370 
G01 X49.0166 Y23.5091 
G01 X48.8809 Y23.3734 
G01 X48.7214 Y23.2669 
G01 X48.5441 Y23.1934 
G01 X48.3559 Y23.1560 
G01 X48.1641 Y23.1560 
G01 X47.9759 Y23.1934 
G01 X47.7986 Y23.2669 
G01 X47.6391 Y23.3734 
G01 X47.5034 Y23.5091 
G01 X47.3969 Y23.6686 
G01 X47.3234 Y23.8459 
G01 X47.2860 Y24.0341 
G01 X47.2860 Y24.2259 
G01 X47.3234 Y24.4141 
G01 X47.3969 Y24.5914 
G01 X47.5034 Y24.7509 
G01 X47.6391 Y24.8866 
G01 X47.7986 Y24.9931 
G01 X47.9759 Y25.0666 
G01 X48.1641 Y25.1040 
G01 X48.3559 Y25.1040 
G01 X48.5441 Y25.0666 
G01 X48.7214 Y24.9931 
G01 X48.8809 Y24.8866 
G01 X49.0166 Y24.7509 
G01 X49.0352 Y24.7230 
G01 X50.0248 Y24.7230 
G01 X50.0434 Y24.7509 
G01 X50.1791 Y24.8866 
G01 X50.2070 Y24.9052 
G01 X50.2070 Y25.5554 
G01 X50.1394 Y25.6565 
G01 X50.0832 Y25.7922 
G01 X50.0546 Y25.9362 
G01 X50.0546 Y27.4038 
G01 X50.0832 Y27.5478 
G01 X50.1394 Y27.6835 
G01 X50.2210 Y27.8056 
G00 Z5.0000 
G00 X60.3319 Y27.6100 
G01 Z-0.1400 F254.00 
G01 X60.0200 Y27.2981 F1000.00 
G01 X59.8512 Y26.8906 
G01 X59.8512 Y26.4494 
G01 X60.0200 Y26.0419 
G01 X60.1961 Y25.8659 
G01 X60.2322 Y25.7786 
G01 X60.2322 Y25.0214 
G01 X60.1961 Y24.9341 
G01 X60.1293 Y24.8674 
G01 X60.0200 Y24.7581 
G01 X59.8512 Y24.3505 
G01 X59.8512 Y23.9094 
G01 X60.0200 Y23.5019 
G01 X60.3319 Y23.1900 
G01 X60.7394 Y23.0212 
G01 X61.1805 Y23.0212 
G01 X61.5881 Y23.1900 
G01 X61.9000 Y23.5019 
G01 X62.0688 Y23.9094 
G01 X62.0688 Y24.3505 
G01 X61.9000 Y24.7581 
G01 X61.7239 Y24.9341 
G01 X61.6878 Y25.0214 
G01 X61.6878 Y25.7520 
G01 X61.7239 Y25.8393 
G01 X61.7907 Y25.9061 
G01 X61.8780 Y25.9422 
G01 X62.9319 Y25.9422 
G01 X62.9670 Y25.9277 
G01 X63.0192 Y25.9061 
G01 X63.0859 Y25.8393 
G01 X63.1354 Y25.7898 
G01 X63.8646 Y25.7898 
G01 X63.9141 Y25.8393 
G01 X63.9791 Y25.9044 
G01 X64.0309 Y25.9268 
G01 X64.0681 Y25.9422 
G01 X65.0038 Y25.9422 
G01 X65.0910 Y25.9061 
G01 X65.1578 Y25.8393 
G01 X65.1940 Y25.7520 
G01 X65.2761 Y25.5538 
G01 X65.3122 Y25.4666 
G01 X65.3122 Y23.4281 
G01 X65.2977 Y23.3930 
G01 X65.2761 Y23.3408 
G01 X65.2093 Y23.2741 
G01 X65.1598 Y23.2246 
G01 X65.1598 Y22.4954 
G01 X65.6754 Y21.9798 
G01 X66.4046 Y21.9798 
G01 X66.9202 Y22.4954 
G01 X66.9202 Y23.2246 
G01 X66.8707 Y23.2741 
G01 X66.8056 Y23.3392 
G01 X66.7832 Y23.3909 
G01 X66.7678 Y23.4281 
G01 X66.7678 Y25.4666 
G01 X66.8039 Y25.5538 
G01 X66.9202 Y25.8345 
G01 X66.9202 Y27.5055 
G01 X66.8039 Y27.7862 
G01 X66.7705 Y27.8669 
G01 X66.7678 Y27.8734 
G01 X66.7678 Y28.2920 
G01 X66.8039 Y28.3793 
G01 X66.8707 Y28.4461 
G01 X66.9580 Y28.4822 
G01 X67.9611 Y28.4822 
G01 X68.0484 Y28.4461 
G01 X68.1151 Y28.3793 
G01 X68.1513 Y28.2920 
G01 X68.1513 Y28.1976 
G01 X68.1151 Y28.1103 
G01 X68.0484 Y28.0435 
G01 X67.8338 Y27.8290 
G01 X67.6998 Y27.5055 
G01 X67.6998 Y25.8345 
G01 X67.8338 Y25.5110 
G01 X68.0814 Y25.2634 
G01 X68.4049 Y25.1294 
G01 X68.7551 Y25.1294 
G01 X69.0786 Y25.2634 
G01 X69.3262 Y25.5110 
G01 X69.4602 Y25.8345 
G01 X69.4602 Y27.5055 
G01 X69.3262 Y27.8290 
G01 X69.1116 Y28.0435 
G01 X69.0449 Y28.1103 
G01 X69.0091 Y28.1965 
G01 X69.0087 Y28.2920 
G01 X69.0449 Y28.3793 
G01 X69.1116 Y28.4461 
G01 X69.1979 Y28.4818 
G01 X70.5011 Y28.4822 
G01 X70.5884 Y28.4461 
G01 X70.6551 Y28.3793 
G01 X70.6913 Y28.2920 
G01 X70.6913 Y28.1976 
G01 X70.6551 Y28.1103 
G01 X70.5884 Y28.0435 
G01 X70.3738 Y27.8290 
G01 X70.2398 Y27.5055 
G01 X70.2398 Y25.8345 
G01 X70.3738 Y25.5110 
G01 X70.6214 Y25.2634 
G01 X70.9449 Y25.1294 
G01 X71.2951 Y25.1294 
G01 X71.6186 Y25.2634 
G01 X71.8662 Y25.5110 
G01 X72.0002 Y25.8345 
G01 X72.0002 Y27.5055 
G01 X71.8662 Y27.8290 
G01 X71.6516 Y28.0435 
G01 X71.5849 Y28.1103 
G01 X71.5491 Y28.1965 
G01 X71.5487 Y28.2920 
G01 X71.5849 Y28.3793 
G01 X71.6516 Y28.4461 
G01 X71.7379 Y28.4818 
G01 X72.5348 Y28.4822 
G01 X72.8023 Y28.5930 
G01 X73.0070 Y28.7977 
G01 X73.1178 Y29.0652 
G01 X73.1178 Y31.8948 
G01 X73.0523 Y32.0528 
G01 X73.0177 Y32.1365 
G01 X73.0162 Y32.1400 
G01 X73.0162 Y32.6355 
G01 X73.0523 Y32.7227 
G01 X73.1191 Y32.7895 
G01 X73.2064 Y32.8257 
G01 X73.3008 Y32.8257 
G01 X73.3881 Y32.7895 
G01 X73.4849 Y32.7494 
G01 X73.8351 Y32.7494 
G01 X74.1586 Y32.8834 
G01 X74.4062 Y33.1310 
G01 X74.5402 Y33.4545 
G01 X74.5402 Y35.1255 
G01 X74.4062 Y35.4490 
G01 X74.1586 Y35.6966 
G01 X73.8351 Y35.8306 
G01 X73.4849 Y35.8306 
G01 X73.3881 Y35.7905 
G01 X73.3048 Y35.7560 
G01 X73.3008 Y35.7543 
G01 X73.2064 Y35.7543 
G01 X73.1216 Y35.7895 
G01 X73.0523 Y35.8573 
G01 X73.0162 Y35.9445 
G01 X73.0162 Y36.4399 
G01 X73.0523 Y36.5272 
G01 X73.1178 Y36.6852 
G01 X73.1178 Y38.4520 
G01 X73.1539 Y38.5393 
G01 X73.2207 Y38.6061 
G01 X73.3080 Y38.6422 
G01 X73.8048 Y38.6422 
G01 X74.0723 Y38.7530 
G01 X74.2770 Y38.9577 
G01 X74.3461 Y39.1245 
G01 X74.3747 Y39.1937 
G01 X74.3822 Y39.2117 
G01 X74.4299 Y39.2595 
G01 X74.4490 Y39.2785 
G01 X74.4923 Y39.3219 
G01 X74.6418 Y39.6827 
G01 X74.6418 Y41.5973 
G01 X74.4923 Y41.9581 
G01 X74.4250 Y42.0255 
G01 X74.4093 Y42.0619 
G01 X74.3878 Y42.1138 
G01 X74.3878 Y46.7862 
G01 X74.4087 Y46.8366 
G01 X74.4239 Y46.8735 
G01 X74.4907 Y46.9402 
G01 X74.6418 Y47.3027 
G01 X74.6418 Y49.2173 
G01 X74.4923 Y49.5781 
G01 X74.4250 Y49.6455 
G01 X74.4093 Y49.6819 
G01 X74.3878 Y49.7338 
G01 X74.3878 Y54.4062 
G01 X74.4087 Y54.4566 
G01 X74.4239 Y54.4935 
G01 X74.4907 Y54.5603 
G01 X74.6418 Y54.9227 
G01 X74.6418 Y56.8373 
G01 X74.4923 Y57.1981 
G01 X74.3353 Y57.3551 
G01 X74.2685 Y57.4219 
G01 X74.2328 Y57.5081 
G01 X74.2324 Y57.6036 
G01 X74.2685 Y57.6909 
G01 X74.3353 Y57.7577 
G01 X74.4215 Y57.7934 
G01 X75.3836 Y57.7938 
G01 X75.4709 Y57.7577 
G01 X75.5377 Y57.6909 
G01 X75.5738 Y57.6036 
G01 X75.5738 Y57.4554 
G01 X75.5377 Y57.3681 
G01 X75.4709 Y57.3013 
G01 X75.3677 Y57.1981 
G01 X75.2182 Y56.8373 
G01 X75.2182 Y54.9227 
G01 X75.3677 Y54.5619 
G01 X75.5377 Y54.3919 
G01 X75.5738 Y54.3046 
G01 X75.5738 Y49.8354 
G01 X75.5377 Y49.7481 
G01 X75.4709 Y49.6813 
G01 X75.3677 Y49.5781 
G01 X75.2182 Y49.2173 
G01 X75.2182 Y47.3027 
G01 X75.3677 Y46.9419 
G01 X75.5377 Y46.7719 
G01 X75.5738 Y46.6846 
G01 X75.5738 Y45.1197 
G01 X75.5377 Y45.0324 
G01 X75.4709 Y44.9657 
G01 X75.3198 Y44.8146 
G01 X75.3198 Y44.0854 
G01 X75.4709 Y43.9343 
G01 X75.5377 Y43.8676 
G01 X75.5734 Y43.7813 
G01 X75.5738 Y42.2154 
G01 X75.5377 Y42.1281 
G01 X75.4709 Y42.0613 
G01 X75.3677 Y41.9581 
G01 X75.2182 Y41.5973 
G01 X75.2182 Y39.6827 
G01 X75.3677 Y39.3219 
G01 X75.6439 Y39.0457 
G01 X76.0047 Y38.8962 
G01 X76.3953 Y38.8962 
G01 X76.7561 Y39.0457 
G01 X77.0323 Y39.3219 
G01 X77.1818 Y39.6827 
G01 X77.1818 Y41.5973 
G01 X77.0323 Y41.9581 
G01 X76.9291 Y42.0613 
G01 X76.8623 Y42.1281 
G01 X76.8266 Y42.2144 
G01 X76.8262 Y43.7803 
G01 X76.8623 Y43.8676 
G01 X76.9291 Y43.9343 
G01 X77.0802 Y44.0854 
G01 X77.0802 Y44.8146 
G01 X76.9291 Y44.9657 
G01 X76.8623 Y45.0324 
G01 X76.8266 Y45.1187 
G01 X76.8262 Y46.6846 
G01 X76.8623 Y46.7719 
G01 X76.9291 Y46.8386 
G01 X77.0323 Y46.9419 
G01 X77.1818 Y47.3027 
G01 X77.1818 Y49.2173 
G01 X77.0323 Y49.5781 
G01 X76.8623 Y49.7481 
G01 X76.8262 Y49.8354 
G01 X76.8262 Y54.3046 
G01 X76.8623 Y54.3919 
G01 X76.9291 Y54.4586 
G01 X77.0323 Y54.5619 
G01 X77.1818 Y54.9227 
G01 X77.1818 Y56.8373 
G01 X77.0323 Y57.1981 
G01 X76.8623 Y57.3681 
G01 X76.8262 Y57.4554 
G01 X76.8262 Y58.5446 
G01 X76.7652 Y58.6919 
G01 X76.7297 Y58.7776 
G01 X76.7290 Y58.8736 
G01 X76.7652 Y58.9609 
G01 X76.8319 Y59.0277 
G01 X76.9182 Y59.0634 
G01 X77.9236 Y59.0638 
G01 X78.0109 Y59.0277 
G01 X78.0777 Y58.9609 
G01 X78.1138 Y58.8736 
G01 X78.1138 Y57.4554 
G01 X78.0777 Y57.3681 
G01 X78.0109 Y57.3013 
G01 X77.9077 Y57.1981 
G01 X77.7582 Y56.8373 
G01 X77.7582 Y54.9227 
G01 X77.9077 Y54.5619 
G01 X78.0109 Y54.4587 
G01 X78.0777 Y54.3919 
G01 X78.1134 Y54.3056 
G01 X78.1138 Y52.7397 
G01 X78.0777 Y52.6524 
G01 X78.0109 Y52.5857 
G01 X77.8598 Y52.4346 
G01 X77.8598 Y51.7054 
G01 X78.0109 Y51.5543 
G01 X78.0777 Y51.4876 
G01 X78.1134 Y51.4013 
G01 X78.1138 Y49.8354 
G01 X78.0777 Y49.7481 
G01 X78.0109 Y49.6813 
G01 X77.9077 Y49.5781 
G01 X77.7582 Y49.2173 
G01 X77.7582 Y47.3027 
G01 X77.9077 Y46.9419 
G01 X78.0109 Y46.8387 
G01 X78.0777 Y46.7719 
G01 X78.1134 Y46.6856 
G01 X78.1138 Y42.2154 
G01 X78.0777 Y42.1281 
G01 X78.0109 Y42.0613 
G01 X77.9077 Y41.9581 
