(.../pcb-gcode-3.6.2.4/pcb-gcode.ulp)
(Copyright 2005 - 2012 by John Johnson)
(See readme.txt for licensing terms.)
(This file generated from the board:)
(.../my projects/My Controllers/atmega8.brd)
(Current profile is .../pcb-gcode-3.6.2.4/profiles/emc.pp  )
(This file generated 28.05.2017 16:47:27)
(Settings from pcb-machine.h)
(spindle on time = 3.0000)
(spindle speed = 20000.0000)
(tool change at 0.0000 0.0000 40.0000 )
(feed rate xy = F0.00  )
(feed rate z  = F508.00 )
(Z Axis Settings)
(  High     Up        Down     Drill)
(15.0000 	5.0000 	-0.1400 	-1.5000 )
(Settings from pcb-defaults.h)
(isolate min = 0.0100)
(isolate max = 1.2700)
(isolate step = 0.1270)
(Generated top outlines, top drill, bottom outlines, bottom drill, )
(Unit of measure: mm)
( Tool|       Size       |  Min Sub |  Max Sub |   Count )
( T01 | 0.610mm 0.0240in | 0.0000in | 0.0000in |       0 )
( T02 | 0.800mm 0.0315in | 0.0000in | 0.0000in |       0 )
( T03 | 0.813mm 0.0320in | 0.0000in | 0.0000in |       0 )
( T04 | 1.000mm 0.0394in | 0.0000in | 0.0000in |       0 )
( T05 | 1.016mm 0.0400in | 0.0000in | 0.0000in |       0 )
( T06 | 1.118mm 0.0440in | 0.0000in | 0.0000in |       0 )
( T07 | 1.200mm 0.0472in | 0.0000in | 0.0000in |       0 )
( T08 | 1.321mm 0.0520in | 0.0000in | 0.0000in |       0 )
( T09 | 1.499mm 0.0590in | 0.0000in | 0.0000in |       0 )
( T10 | 3.302mm 0.1300in | 0.0000in | 0.0000in |       0 )
(Metric Mode)
G21
(Absolute Coordinates)
G90
S20000
G00 Z15.0000 
G00 X0.0000 Y0.0000 
M03
G04 P3.000000
M05
G00 Z40.0000 
M06 T01 (0.6096 )
G00 Z5.0000 
M03
G04 P3.000000
G82 X-55.8800 Y60.9600 Z-1.5000 F508.00 R5.0000 P1.000000
G82 X-55.8800 Y63.5000 
G82 X-55.8800 Y66.0400 
M05
G00 Z40.0000 
G00 X0.0000 Y0.0000 
M06 T02 (0.8000 )
G00 Z5.0000 
M03
G04 P3.000000
G82 X-1.2700 Y27.9400 Z-1.5000 F508.00 R5.0000 P1.000000
G82 X-22.8600 Y27.9400 
G82 X-26.6700 Y33.0200 
G82 X-31.7500 Y33.0200 
G82 X-38.1000 Y39.3700 
G82 X-48.2600 Y39.3700 
G82 X-50.8000 Y39.3700 
G82 X-58.4200 Y39.3700 
G82 X-60.9600 Y26.6700 
G82 X-60.9600 Y24.1300 
G82 X-50.8000 Y24.1300 
G82 X-48.2600 Y24.1300 
G82 X-35.5600 Y24.1300 
G82 X-50.8000 Y53.3400 
G82 X-50.8000 Y63.5000 
G82 X-58.4200 Y74.9300 
G82 X-71.1200 Y74.9300 
G82 X-71.1200 Y72.3900 
G82 X-81.2800 Y81.2800 
G82 X-71.1200 Y55.8800 
G82 X-33.0200 Y63.5000 
G82 X-27.9400 Y71.1200 
G82 X-22.8600 Y67.3100 
G82 X-17.7800 Y64.7700 
G82 X-8.8900 Y64.7700 
G82 X-6.3500 Y67.3100 
G82 X-11.4300 Y71.1200 
G82 X-8.8900 Y73.6600 
G82 X-13.9700 Y74.9300 
G82 X-12.7000 Y77.4700 
G82 X-1.2700 Y73.6600 
G82 X-10.1600 Y53.3400 
G82 X-25.4000 Y77.4700 
G82 X-33.0200 Y74.9300 
G82 X-3.8100 Y3.8100 
M05
G00 Z40.0000 
G00 X0.0000 Y0.0000 
M06 T03 (0.8128 )
G00 Z5.0000 
M03
G04 P3.000000
G82 X-6.3500 Y30.4800 Z-1.5000 F508.00 R5.0000 P1.000000
G82 X-8.8900 Y30.4800 
G82 X-12.7000 Y30.4800 
G82 X-12.7000 Y33.0200 
G82 X-8.8900 Y35.5600 
G82 X-6.3500 Y35.5600 
G82 X-6.3500 Y40.6400 
G82 X-8.8900 Y40.6400 
G82 X-13.9700 Y41.9100 
G82 X-13.9700 Y44.4500 
G82 X-19.0500 Y44.4500 
G82 X-19.0500 Y41.9100 
G82 X-24.2570 Y44.4500 
G82 X-29.0830 Y44.4500 
G82 X-27.9400 Y49.5300 
G82 X-30.4800 Y49.5300 
G82 X-33.0200 Y49.5300 
G82 X-35.5600 Y49.5300 
G82 X-38.1000 Y49.5300 
G82 X-40.6400 Y49.5300 
G82 X-43.1800 Y49.5300 
G82 X-45.7200 Y49.5300 
G82 X-48.2600 Y49.5300 
G82 X-50.8000 Y49.5300 
G82 X-54.6100 Y49.5300 
G82 X-52.0700 Y45.7200 
G82 X-49.5300 Y41.9100 
G82 X-50.8000 Y36.8300 
G82 X-50.8000 Y34.2900 
G82 X-53.3400 Y34.2900 
G82 X-55.8800 Y34.2900 
G82 X-58.4200 Y34.2900 
G82 X-63.5000 Y34.2900 
G82 X-66.0400 Y34.2900 
G82 X-68.5800 Y34.2900 
G82 X-71.1200 Y34.2900 
G82 X-73.6600 Y34.2900 
G82 X-76.2000 Y34.2900 
G82 X-78.7400 Y34.2900 
G82 X-81.2800 Y34.2900 
G82 X-81.2800 Y26.6700 
G82 X-78.7400 Y26.6700 
G82 X-76.2000 Y26.6700 
G82 X-73.6600 Y26.6700 
G82 X-71.1200 Y26.6700 
G82 X-68.5800 Y26.6700 
G82 X-66.0400 Y26.6700 
G82 X-63.5000 Y26.6700 
G82 X-66.0400 Y22.8600 
G82 X-71.1200 Y22.8600 
G82 X-77.4700 Y21.5900 
G82 X-77.4700 Y13.9700 
G82 X-68.5800 Y15.2400 
G82 X-60.9600 Y15.2400 
G82 X-50.8000 Y20.3200 
G82 X-45.7200 Y20.3200 
G82 X-43.1800 Y20.3200 
G82 X-38.1000 Y20.3200 
G82 X-33.0200 Y20.3200 
G82 X-33.0200 Y22.8600 
G82 X-29.2100 Y22.6060 
G82 X-29.2100 Y20.5740 
G82 X-27.9400 Y13.9700 
G82 X-25.4000 Y13.9700 
G82 X-35.5600 Y26.6700 
G82 X-38.1000 Y26.6700 
G82 X-40.6400 Y26.6700 
G82 X-43.1800 Y26.6700 
G82 X-45.7200 Y26.6700 
G82 X-50.8000 Y26.6700 
G82 X-53.3400 Y26.6700 
G82 X-55.8800 Y26.6700 
G82 X-58.4200 Y26.6700 
G82 X-45.7200 Y34.2900 
G82 X-43.1800 Y34.2900 
G82 X-40.6400 Y34.2900 
G82 X-38.1000 Y34.2900 
G82 X-35.5600 Y34.2900 
G82 X-31.7500 Y38.1000 
G82 X-26.6700 Y38.1000 
G82 X-24.1300 Y38.1000 
G82 X-20.3200 Y33.0200 
G82 X-20.3200 Y30.4800 
G82 X-24.1300 Y30.4800 
G82 X-25.4000 Y49.5300 
G82 X-22.8600 Y49.5300 
G82 X-20.3200 Y49.5300 
G82 X-17.7800 Y49.5300 
G82 X-17.7800 Y57.1500 
G82 X-20.3200 Y57.1500 
G82 X-22.8600 Y57.1500 
G82 X-25.4000 Y57.1500 
G82 X-27.9400 Y57.1500 
G82 X-30.4800 Y57.1500 
G82 X-33.0200 Y57.1500 
G82 X-35.5600 Y57.1500 
G82 X-38.1000 Y57.1500 
G82 X-40.6400 Y57.1500 
G82 X-43.1800 Y57.1500 
G82 X-45.7200 Y57.1500 
G82 X-48.2600 Y57.1500 
G82 X-50.8000 Y57.1500 
G82 X-54.6100 Y57.1500 
G82 X-58.4200 Y62.2300 
G82 X-58.4200 Y64.7700 
G82 X-58.4200 Y67.3100 
G82 X-58.4200 Y69.8500 
G82 X-66.0400 Y69.8500 
G82 X-66.0400 Y67.3100 
G82 X-68.5800 Y67.3100 
G82 X-66.0400 Y64.7700 
G82 X-66.0400 Y62.2300 
G82 X-68.5800 Y62.2300 
G82 X-68.5800 Y54.6100 
G82 X-68.5800 Y52.0700 
G82 X-71.1200 Y52.0700 
G82 X-70.8660 Y48.2600 
G82 X-68.8340 Y48.2600 
G82 X-66.0400 Y45.7200 
G82 X-68.5800 Y44.4500 
G82 X-76.2000 Y44.4500 
G82 X-78.7400 Y52.0700 
G82 X-60.9600 Y45.7200 
G82 X-57.1500 Y45.7200 
G82 X-59.6900 Y41.9100 
G82 X-43.1800 Y36.8300 
G82 X-35.5600 Y60.9600 
G82 X-30.4800 Y60.9600 
G82 X-30.4800 Y63.5000 
G82 X-34.2900 Y67.3100 
G82 X-34.2900 Y72.3900 
G82 X-39.3700 Y72.3900 
G82 X-40.6400 Y69.8500 
G82 X-41.9100 Y67.3100 
G82 X-39.3700 Y67.3100 
G82 X-48.2600 Y69.8500 
G82 X-49.5300 Y67.3100 
G82 X-17.7800 Y63.5000 
M05
G00 Z40.0000 
G00 X0.0000 Y0.0000 
M06 T04 (1.0000 )
G00 Z5.0000 
M03
G04 P3.000000
G82 X-57.7100 Y49.8200 Z-1.5000 F508.00 R5.0000 P1.000000
G82 X-57.7100 Y54.3200 
G82 X-64.2100 Y54.3200 
G82 X-64.2100 Y49.8200 
M05
G00 Z40.0000 
G00 X0.0000 Y0.0000 
M06 T05 (1.0160 )
G00 Z5.0000 
M03
G04 P3.000000
G82 X-2.5400 Y80.0100 Z-1.5000 F508.00 R5.0000 P1.000000
G82 X-5.0800 Y80.0100 
G82 X-8.8900 Y80.0100 
G82 X-11.4300 Y80.0100 
G82 X-15.2400 Y80.0100 
G82 X-17.7800 Y80.0100 
G82 X-20.3200 Y80.0100 
G82 X-22.8600 Y80.0100 
G82 X-25.4000 Y80.0100 
G82 X-27.9400 Y80.0100 
G82 X-30.4800 Y80.0100 
G82 X-33.0200 Y80.0100 
G82 X-35.5600 Y80.0100 
G82 X-38.1000 Y80.0100 
G82 X-40.6400 Y80.0100 
G82 X-43.1800 Y80.0100 
G82 X-73.6600 Y55.8800 
G82 X-76.2000 Y55.8800 
G82 X-78.7400 Y55.8800 
G82 X-81.2800 Y55.8800 
G82 X-81.2800 Y48.2600 
G82 X-78.7400 Y48.2600 
G82 X-76.2000 Y48.2600 
G82 X-73.6600 Y48.2600 
G82 X-73.6600 Y40.6400 
G82 X-76.2000 Y40.6400 
G82 X-78.7400 Y40.6400 
G82 X-81.2800 Y40.6400 
G82 X-60.9600 Y19.0500 
G82 X-58.4200 Y19.0500 
G82 X-6.3500 Y48.2600 
G82 X-6.3500 Y50.8000 
G82 X-3.8100 Y50.8000 
G82 X-3.8100 Y48.2600 
G82 X-3.8100 Y53.3400 
G82 X-3.8100 Y55.8800 
G82 X-3.8100 Y58.4200 
G82 X-6.3500 Y58.4200 
G82 X-6.3500 Y55.8800 
G82 X-6.3500 Y53.3400 
M05
G00 Z40.0000 
G00 X0.0000 Y0.0000 
M06 T06 (1.1176 )
G00 Z5.0000 
M03
G04 P3.000000
G82 X-12.7000 Y13.9700 Z-1.5000 F508.00 R5.0000 P1.000000
G82 X-22.8600 Y13.9700 
G82 X-24.1300 Y19.0500 
G82 X-24.1300 Y21.5900 
G82 X-24.1300 Y24.1300 
M05
G00 Z40.0000 
G00 X0.0000 Y0.0000 
M06 T07 (1.2000 )
G00 Z5.0000 
M03
G04 P3.000000
G82 X-12.8200 Y10.1600 Z-1.5000 F508.00 R5.0000 P1.000000
G82 X-20.3200 Y10.1600 
G82 X-57.2700 Y10.1600 
G82 X-64.7700 Y10.1600 
G82 X-72.5100 Y10.1600 
G82 X-80.0100 Y10.1600 
M05
G00 Z40.0000 
G00 X0.0000 Y0.0000 
M06 T08 (1.3208 )
G00 Z5.0000 
M03
G04 P3.000000
G82 X-48.3362 Y80.0100 Z-1.5000 F508.00 R5.0000 P1.000000
G82 X-53.3400 Y80.0100 
G82 X-58.3438 Y80.0100 
G82 X-63.5762 Y80.0100 
G82 X-68.5800 Y80.0100 
G82 X-73.5838 Y80.0100 
M05
G00 Z40.0000 
G00 X0.0000 Y0.0000 
M06 T09 (1.4986 )
G00 Z5.0000 
M03
G04 P3.000000
G82 X-34.2900 Y6.3500 Z-1.5000 F508.00 R5.0000 P1.000000
G82 X-41.9100 Y15.2400 
G82 X-49.5300 Y6.3500 
G82 X-57.1500 Y15.2400 
M05
G00 Z40.0000 
G00 X0.0000 Y0.0000 
M06 T10 (3.3020 )
G00 Z5.0000 
M03
G04 P3.000000
G82 X-9.1440 Y21.5900 Z-1.5000 F508.00 R5.0000 P1.000000
T01 
G00 Z15.0000 
M05
M02
