(.../pcb-gcode-3.6.2.4/pcb-gcode.ulp)
(Copyright 2005 - 2012 by John Johnson)
(See readme.txt for licensing terms.)
(This file generated from the board:)
(.../my projects/My Controllers/atmega8.brd)
(Current profile is .../pcb-gcode-3.6.2.4/profiles/emc.pp  )
(This file generated 28.05.2017 16:46:46)
(Settings from pcb-machine.h)
(spindle on time = 3.0000)
(  Tool Size)
(0.1500 )
(spindle speed = 20000.0000)
(tool change at 0.0000 0.0000 40.0000 )
(feed rate xy = F1000.00 )
(feed rate z  = F254.00 )
(Z Axis Settings)
(  High     Up        Down     Drill)
(15.0000 	5.0000 	-0.1400 	-1.5000 )
(Settings from pcb-defaults.h)
(isolate min = 0.0100)
(isolate max = 1.2700)
(isolate step = 0.1270)
(Generated top outlines, top drill, bottom outlines, bottom drill, )
(Unit of measure: mm)
(Metric Mode)
G21
(Absolute Coordinates)
G90
S20000
G00 Z15.0000 
G00 X0.0000 Y0.0000 
M03
G04 P3.000000
G00 Z5.0000 
G00 X0.1500 Y0.0298 
G01 Z-0.1400 F254.00 
G01 X0.1500 Y-7.0598 F1000.00 
G01 X0.1272 Y-7.1150 
G01 X0.0850 Y-7.1572 
G01 X0.0298 Y-7.1800 
G01 X-0.0298 Y-7.1800 
G01 X-0.0850 Y-7.1572 
G01 X-0.1272 Y-7.1150 
G01 X-0.1500 Y-7.0598 
G01 X-0.1500 Y-5.2419 
G01 X-2.5612 Y-5.5455 
G01 X-2.5702 Y-5.5492 
G01 X-2.5906 Y-5.5492 
G01 X-2.6109 Y-5.5518 
G01 X-2.6202 Y-5.5492 
G01 X-2.6298 Y-5.5492 
G01 X-2.6487 Y-5.5414 
G01 X-2.6684 Y-5.5360 
G01 X-2.6760 Y-5.5301 
G01 X-2.6850 Y-5.5264 
G01 X-2.6994 Y-5.5120 
G01 X-2.7155 Y-5.4994 
G01 X-2.7203 Y-5.4910 
G01 X-2.7272 Y-5.4842 
G01 X-2.7350 Y-5.4653 
G01 X-2.7451 Y-5.4476 
G01 X-2.7463 Y-5.4380 
G01 X-2.7500 Y-5.4291 
G01 X-2.7500 Y-5.4087 
G01 X-2.7525 Y-5.3884 
G01 X-2.7500 Y-5.3791 
G01 X-2.7500 Y-5.3477 
G01 X-2.7523 Y-5.3256 
G01 X-2.7500 Y-5.3181 
G01 X-2.7500 Y-5.2300 
G01 X-82.2500 Y-5.2300 
G01 X-82.2500 Y-5.3181 
G01 X-82.2477 Y-5.3256 
G01 X-82.2500 Y-5.3477 
G01 X-82.2500 Y-5.3791 
G01 X-82.2474 Y-5.3884 
G01 X-82.2500 Y-5.4087 
G01 X-82.2500 Y-5.4291 
G01 X-82.2537 Y-5.4380 
G01 X-82.2549 Y-5.4476 
G01 X-82.2650 Y-5.4653 
G01 X-82.2728 Y-5.4842 
G01 X-82.2797 Y-5.4910 
G01 X-82.2844 Y-5.4994 
G01 X-82.3006 Y-5.5120 
G01 X-82.3150 Y-5.5264 
G01 X-82.3240 Y-5.5301 
G01 X-82.3316 Y-5.5360 
G01 X-82.3513 Y-5.5414 
G01 X-82.3702 Y-5.5492 
G01 X-82.3798 Y-5.5492 
G01 X-82.3891 Y-5.5518 
G01 X-82.4094 Y-5.5492 
G01 X-82.4298 Y-5.5492 
G01 X-82.4388 Y-5.5455 
G01 X-84.8500 Y-5.2419 
G01 X-84.8500 Y-7.0598 
G01 X-84.8728 Y-7.1150 
G01 X-84.9150 Y-7.1572 
G01 X-84.9702 Y-7.1800 
G01 X-85.0298 Y-7.1800 
G01 X-85.0850 Y-7.1572 
G01 X-85.1272 Y-7.1150 
G01 X-85.1500 Y-7.0598 
G01 X-85.1500 Y-0.1500 
G01 X-90.8798 Y-0.1500 
G01 X-90.9350 Y-0.1272 
G01 X-90.9772 Y-0.0850 
G01 X-91.0000 Y-0.0298 
G01 X-91.0000 Y0.0298 
G01 X-90.9772 Y0.0850 
G01 X-90.9350 Y0.1272 
G01 X-90.8798 Y0.1500 
G01 X-89.0619 Y0.1500 
G01 X-89.3655 Y2.5612 
G01 X-89.3692 Y2.5702 
G01 X-89.3692 Y2.5906 
G01 X-89.3718 Y2.6109 
G01 X-89.3692 Y2.6202 
G01 X-89.3692 Y2.6298 
G01 X-89.3614 Y2.6487 
G01 X-89.3560 Y2.6684 
G01 X-89.3501 Y2.6760 
G01 X-89.3464 Y2.6850 
G01 X-89.3320 Y2.6994 
G01 X-89.3194 Y2.7155 
G01 X-89.3110 Y2.7203 
G01 X-89.3042 Y2.7272 
G01 X-89.2853 Y2.7350 
G01 X-89.2676 Y2.7451 
G01 X-89.2580 Y2.7463 
G01 X-89.2491 Y2.7500 
G01 X-89.2287 Y2.7500 
G01 X-89.2084 Y2.7525 
G01 X-89.1991 Y2.7500 
G01 X-89.1677 Y2.7500 
G01 X-89.1456 Y2.7523 
G01 X-89.1381 Y2.7500 
G01 X-89.0500 Y2.7500 
G01 X-89.0500 Y40.4031 
G01 X-91.8564 Y40.4031 
G01 X-91.8780 Y40.4089 
G01 X-91.8974 Y40.4201 
G01 X-91.9132 Y40.4359 
G01 X-91.9244 Y40.4553 
G01 X-91.9302 Y40.4769 
G01 X-91.9302 Y44.5231 
G01 X-91.9244 Y44.5447 
G01 X-91.9132 Y44.5641 
G01 X-91.8974 Y44.5799 
G01 X-91.8780 Y44.5911 
G01 X-91.8564 Y44.5969 
G01 X-89.0500 Y44.5969 
G01 X-89.0500 Y82.2500 
G01 X-89.1381 Y82.2500 
G01 X-89.1456 Y82.2477 
G01 X-89.1677 Y82.2500 
G01 X-89.1991 Y82.2500 
G01 X-89.2084 Y82.2474 
G01 X-89.2287 Y82.2500 
G01 X-89.2491 Y82.2500 
G01 X-89.2580 Y82.2537 
G01 X-89.2676 Y82.2549 
G01 X-89.2853 Y82.2650 
G01 X-89.3042 Y82.2728 
G01 X-89.3110 Y82.2797 
G01 X-89.3194 Y82.2844 
G01 X-89.3320 Y82.3006 
G01 X-89.3464 Y82.3150 
G01 X-89.3501 Y82.3240 
G01 X-89.3560 Y82.3316 
G01 X-89.3614 Y82.3513 
G01 X-89.3692 Y82.3702 
G01 X-89.3692 Y82.3798 
G01 X-89.3718 Y82.3891 
G01 X-89.3692 Y82.4094 
G01 X-89.3692 Y82.4298 
G01 X-89.3655 Y82.4388 
G01 X-89.0619 Y84.8500 
G01 X-90.8798 Y84.8500 
G01 X-90.9350 Y84.8728 
G01 X-90.9772 Y84.9150 
G01 X-91.0000 Y84.9702 
G01 X-91.0000 Y85.0298 
G01 X-90.9772 Y85.0850 
G01 X-90.9350 Y85.1272 
G01 X-90.8798 Y85.1500 
G01 X-84.9702 Y85.1500 
G01 X-84.9150 Y85.1272 
G01 X-84.8728 Y85.0850 
G01 X-84.8500 Y85.0298 
G01 X-84.8500 Y84.9702 
G01 X-84.8728 Y84.9150 
G01 X-84.9150 Y84.8728 
G01 X-84.9702 Y84.8500 
G01 X-88.7381 Y84.8500 
G01 X-88.4345 Y82.4388 
G01 X-88.4308 Y82.4298 
G01 X-88.4308 Y82.4094 
G01 X-88.4282 Y82.3891 
G01 X-88.4308 Y82.3798 
G01 X-88.4308 Y82.3702 
G01 X-88.4386 Y82.3513 
G01 X-88.4440 Y82.3316 
G01 X-88.4499 Y82.3240 
G01 X-88.4536 Y82.3150 
G01 X-88.4680 Y82.3006 
G01 X-88.4806 Y82.2844 
G01 X-88.4890 Y82.2797 
G01 X-88.4958 Y82.2728 
G01 X-88.5147 Y82.2650 
G01 X-88.5324 Y82.2549 
G01 X-88.5420 Y82.2537 
G01 X-88.5509 Y82.2500 
G01 X-88.5713 Y82.2500 
G01 X-88.5916 Y82.2474 
G01 X-88.6009 Y82.2500 
G01 X-88.6323 Y82.2500 
G01 X-88.6544 Y82.2477 
G01 X-88.6619 Y82.2500 
G01 X-88.7500 Y82.2500 
G01 X-88.7500 Y2.7500 
G01 X-88.6619 Y2.7500 
G01 X-88.6544 Y2.7523 
G01 X-88.6323 Y2.7500 
G01 X-88.6009 Y2.7500 
G01 X-88.5916 Y2.7525 
G01 X-88.5713 Y2.7500 
G01 X-88.5509 Y2.7500 
G01 X-88.5420 Y2.7463 
G01 X-88.5324 Y2.7451 
G01 X-88.5147 Y2.7350 
G01 X-88.4958 Y2.7272 
G01 X-88.4890 Y2.7203 
G01 X-88.4806 Y2.7155 
G01 X-88.4680 Y2.6994 
G01 X-88.4536 Y2.6850 
G01 X-88.4499 Y2.6760 
G01 X-88.4440 Y2.6684 
G01 X-88.4386 Y2.6487 
G01 X-88.4308 Y2.6298 
G01 X-88.4308 Y2.6202 
G01 X-88.4282 Y2.6109 
G01 X-88.4308 Y2.5906 
G01 X-88.4308 Y2.5702 
G01 X-88.4345 Y2.5612 
G01 X-88.7381 Y0.1500 
G01 X-84.9702 Y0.1500 
G01 X-84.9150 Y0.1272 
G01 X-84.8728 Y0.0850 
G01 X-84.8500 Y0.0298 
G01 X-84.8500 Y-4.9181 
G01 X-82.4388 Y-4.6145 
G01 X-82.4298 Y-4.6108 
G01 X-82.4094 Y-4.6108 
G01 X-82.3891 Y-4.6082 
G01 X-82.3798 Y-4.6108 
G01 X-82.3702 Y-4.6108 
G01 X-82.3513 Y-4.6186 
G01 X-82.3316 Y-4.6240 
G01 X-82.3240 Y-4.6299 
G01 X-82.3150 Y-4.6336 
G01 X-82.3006 Y-4.6480 
G01 X-82.2844 Y-4.6606 
G01 X-82.2797 Y-4.6690 
G01 X-82.2728 Y-4.6758 
G01 X-82.2650 Y-4.6947 
G01 X-82.2549 Y-4.7124 
G01 X-82.2537 Y-4.7220 
G01 X-82.2500 Y-4.7309 
G01 X-82.2500 Y-4.7513 
G01 X-82.2474 Y-4.7716 
G01 X-82.2500 Y-4.7809 
G01 X-82.2500 Y-4.8123 
G01 X-82.2477 Y-4.8344 
G01 X-82.2500 Y-4.8419 
G01 X-82.2500 Y-4.9300 
G01 X-44.5969 Y-4.9300 
G01 X-44.5969 Y-2.1236 
G01 X-44.5911 Y-2.1020 
G01 X-44.5799 Y-2.0826 
G01 X-44.5641 Y-2.0668 
G01 X-44.5447 Y-2.0556 
G01 X-44.5231 Y-2.0498 
G01 X-40.4769 Y-2.0498 
G01 X-40.4553 Y-2.0556 
G01 X-40.4359 Y-2.0668 
G01 X-40.4201 Y-2.0826 
G01 X-40.4089 Y-2.1020 
G01 X-40.4031 Y-2.1236 
G01 X-40.4031 Y-4.9300 
G01 X-2.7500 Y-4.9300 
G01 X-2.7500 Y-4.8419 
G01 X-2.7523 Y-4.8344 
G01 X-2.7500 Y-4.8123 
G01 X-2.7500 Y-4.7809 
G01 X-2.7525 Y-4.7716 
G01 X-2.7500 Y-4.7513 
G01 X-2.7500 Y-4.7309 
G01 X-2.7463 Y-4.7220 
G01 X-2.7451 Y-4.7124 
G01 X-2.7350 Y-4.6947 
G01 X-2.7272 Y-4.6758 
G01 X-2.7203 Y-4.6690 
G01 X-2.7155 Y-4.6606 
G01 X-2.6994 Y-4.6480 
G01 X-2.6850 Y-4.6336 
G01 X-2.6760 Y-4.6299 
G01 X-2.6684 Y-4.6240 
G01 X-2.6487 Y-4.6186 
G01 X-2.6298 Y-4.6108 
G01 X-2.6202 Y-4.6108 
G01 X-2.6109 Y-4.6082 
G01 X-2.5906 Y-4.6108 
G01 X-2.5702 Y-4.6108 
G01 X-2.5612 Y-4.6145 
G01 X-0.1500 Y-4.9181 
G01 X-0.1500 Y0.0298 
G01 X-0.1272 Y0.0850 
G01 X-0.0850 Y0.1272 
G01 X-0.0298 Y0.1500 
G01 X0.0298 Y0.1500 
G01 X0.0850 Y0.1272 
G01 X0.1272 Y0.0850 
G01 X0.1500 Y0.0298 
G00 Z5.0000 
G00 X-1.5839 Y1.3539 
G01 Z-0.1400 F254.00 
G01 X-1.8354 Y1.1475 F1000.00 
G01 X-2.1059 Y0.9668 
G01 X-2.3927 Y0.8135 
G01 X-2.6933 Y0.6890 
G01 X-3.0046 Y0.5945 
G01 X-3.3236 Y0.5311 
G01 X-3.6473 Y0.4992 
G01 X-3.9726 Y0.4992 
G01 X-4.2964 Y0.5311 
G01 X-4.6154 Y0.5945 
G01 X-4.9267 Y0.6890 
G01 X-5.2273 Y0.8135 
G01 X-5.5141 Y0.9668 
G01 X-5.7846 Y1.1475 
G01 X-6.0361 Y1.3539 
G01 X-6.2661 Y1.5839 
G01 X-6.4725 Y1.8354 
G01 X-6.6532 Y2.1059 
G01 X-6.8065 Y2.3927 
G01 X-6.9310 Y2.6933 
G01 X-7.0255 Y3.0046 
G01 X-7.0889 Y3.3236 
G01 X-7.1208 Y3.6473 
G01 X-7.1208 Y3.9726 
G01 X-7.0889 Y4.2964 
G01 X-7.0255 Y4.6154 
G01 X-6.9310 Y4.9267 
G01 X-6.8065 Y5.2273 
G01 X-6.6532 Y5.5141 
G01 X-6.4725 Y5.7846 
G01 X-6.2661 Y6.0361 
G01 X-6.0361 Y6.2661 
G01 X-5.7846 Y6.4725 
G01 X-5.5141 Y6.6532 
G01 X-5.2273 Y6.8065 
G01 X-4.9267 Y6.9310 
G01 X-4.6154 Y7.0255 
G01 X-4.2964 Y7.0889 
G01 X-3.9726 Y7.1208 
G01 X-3.6473 Y7.1208 
G01 X-3.3236 Y7.0889 
G01 X-3.0046 Y7.0255 
G01 X-2.6933 Y6.9310 
G01 X-2.3927 Y6.8065 
G01 X-2.1059 Y6.6532 
G01 X-1.8354 Y6.4725 
G01 X-1.5839 Y6.2661 
G01 X-1.3539 Y6.0361 
G01 X-1.1475 Y5.7846 
G01 X-0.9668 Y5.5141 
G01 X-0.8135 Y5.2273 
G01 X-0.6890 Y4.9267 
G01 X-0.5945 Y4.6154 
G01 X-0.5311 Y4.2964 
G01 X-0.4992 Y3.9726 
G01 X-0.4992 Y3.6473 
G01 X-0.5311 Y3.3236 
G01 X-0.5945 Y3.0046 
G01 X-0.6890 Y2.6933 
G01 X-0.8135 Y2.3927 
G01 X-0.9668 Y2.1059 
G01 X-1.1475 Y1.8354 
G01 X-1.3539 Y1.5839 
G01 X-1.5839 Y1.3539 
G00 Z5.0000 
G00 X-11.9373 Y7.8565 
G01 Z-0.1400 F254.00 
G01 X-12.1098 Y7.7311 F1000.00 
G01 X-12.2999 Y7.6343 
G01 X-12.5027 Y7.5684 
G01 X-12.7134 Y7.5350 
G01 X-12.9266 Y7.5350 
G01 X-13.1373 Y7.5684 
G01 X-13.3401 Y7.6343 
G01 X-13.5302 Y7.7311 
G01 X-13.7027 Y7.8565 
G01 X-13.8535 Y8.0073 
G01 X-13.9789 Y8.1798 
G01 X-14.0757 Y8.3699 
G01 X-14.1416 Y8.5727 
G01 X-14.1750 Y8.7834 
G01 X-14.1750 Y11.5366 
G01 X-14.1416 Y11.7473 
G01 X-14.0757 Y11.9501 
G01 X-13.9789 Y12.1402 
G01 X-13.8535 Y12.3127 
G01 X-13.7027 Y12.4635 
G01 X-13.5302 Y12.5889 
G01 X-13.3401 Y12.6857 
G01 X-13.1373 Y12.7516 
G01 X-12.9266 Y12.7850 
G01 X-12.7134 Y12.7850 
G01 X-12.5027 Y12.7516 
G01 X-12.2999 Y12.6857 
G01 X-12.1098 Y12.5889 
G01 X-11.9373 Y12.4635 
G01 X-11.7865 Y12.3127 
G01 X-11.6611 Y12.1402 
G01 X-11.5643 Y11.9501 
G01 X-11.4984 Y11.7473 
G01 X-11.4650 Y11.5366 
G01 X-11.4650 Y8.7834 
G01 X-11.4984 Y8.5727 
G01 X-11.5643 Y8.3699 
G01 X-11.6611 Y8.1798 
G01 X-11.7865 Y8.0073 
G01 X-11.9373 Y7.8565 
G00 Z5.0000 
G00 X-12.1115 Y13.2529 
G01 Z-0.1400 F254.00 
G01 X-12.2627 Y13.1519 F1000.00 
G01 X-12.4307 Y13.0823 
G01 X-12.6091 Y13.0468 
G01 X-12.7909 Y13.0468 
G01 X-12.9693 Y13.0823 
G01 X-13.1373 Y13.1519 
G01 X-13.2885 Y13.2529 
G01 X-13.4171 Y13.3815 
G01 X-13.5181 Y13.5327 
G01 X-13.5877 Y13.7007 
G01 X-13.6232 Y13.8791 
G01 X-13.6232 Y14.0609 
G01 X-13.5877 Y14.2393 
G01 X-13.5181 Y14.4073 
G01 X-13.4171 Y14.5585 
G01 X-13.2885 Y14.6871 
G01 X-13.1373 Y14.7881 
G01 X-12.9693 Y14.8577 
G01 X-12.7909 Y14.8932 
G01 X-12.6091 Y14.8932 
G01 X-12.4307 Y14.8577 
G01 X-12.2627 Y14.7881 
G01 X-12.1115 Y14.6871 
G01 X-11.9829 Y14.5585 
G01 X-11.8819 Y14.4073 
G01 X-11.8123 Y14.2393 
G01 X-11.7768 Y14.0609 
G01 X-11.7768 Y13.8791 
G01 X-11.8123 Y13.7007 
G01 X-11.8819 Y13.5327 
G01 X-11.9829 Y13.3815 
G01 X-12.1115 Y13.2529 
G00 Z5.0000 
G00 X-19.2865 Y12.3127 
G01 Z-0.1400 F254.00 
G01 X-19.1611 Y12.1402 F1000.00 
G01 X-19.0643 Y11.9501 
G01 X-18.9984 Y11.7473 
G01 X-18.9650 Y11.5366 
G01 X-18.9650 Y8.7834 
G01 X-18.9984 Y8.5727 
G01 X-19.0643 Y8.3699 
G01 X-19.1611 Y8.1798 
G01 X-19.2865 Y8.0073 
G01 X-19.4373 Y7.8565 
G01 X-19.6098 Y7.7311 
G01 X-19.7999 Y7.6343 
G01 X-20.0027 Y7.5684 
G01 X-20.2134 Y7.5350 
G01 X-20.4266 Y7.5350 
G01 X-20.6373 Y7.5684 
G01 X-20.8401 Y7.6343 
G01 X-21.0302 Y7.7311 
G01 X-21.2027 Y7.8565 
G01 X-21.3535 Y8.0073 
G01 X-21.4789 Y8.1798 
G01 X-21.5757 Y8.3699 
G01 X-21.6416 Y8.5727 
G01 X-21.6750 Y8.7834 
G01 X-21.6750 Y11.5366 
G01 X-21.6416 Y11.7473 
G01 X-21.5757 Y11.9501 
G01 X-21.4789 Y12.1402 
G01 X-21.3535 Y12.3127 
G01 X-21.2027 Y12.4635 
G01 X-21.0302 Y12.5889 
G01 X-20.8401 Y12.6857 
G01 X-20.6373 Y12.7516 
G01 X-20.4266 Y12.7850 
G01 X-20.2134 Y12.7850 
G01 X-20.0027 Y12.7516 
G01 X-19.7999 Y12.6857 
G01 X-19.6098 Y12.5889 
G01 X-19.4373 Y12.4635 
G01 X-19.2865 Y12.3127 
G00 Z5.0000 
G00 X-22.2715 Y13.2529 
G01 Z-0.1400 F254.00 
G01 X-22.4227 Y13.1519 F1000.00 
G01 X-22.5907 Y13.0823 
G01 X-22.7691 Y13.0468 
G01 X-22.9509 Y13.0468 
G01 X-23.1293 Y13.0823 
G01 X-23.2973 Y13.1519 
G01 X-23.4485 Y13.2529 
G01 X-23.5771 Y13.3815 
G01 X-23.6781 Y13.5327 
G01 X-23.7477 Y13.7007 
G01 X-23.7832 Y13.8791 
G01 X-23.7832 Y14.0609 
G01 X-23.7477 Y14.2393 
G01 X-23.6781 Y14.4073 
G01 X-23.5771 Y14.5585 
G01 X-23.4485 Y14.6871 
G01 X-23.2973 Y14.7881 
G01 X-23.1293 Y14.8577 
G01 X-22.9509 Y14.8932 
G01 X-22.7691 Y14.8932 
G01 X-22.5907 Y14.8577 
G01 X-22.4227 Y14.7881 
G01 X-22.2715 Y14.6871 
G01 X-22.1429 Y14.5585 
G01 X-22.0419 Y14.4073 
G01 X-21.9723 Y14.2393 
G01 X-21.9368 Y14.0609 
G01 X-21.9368 Y13.8791 
G01 X-21.9723 Y13.7007 
G01 X-22.0419 Y13.5327 
G01 X-22.1429 Y13.3815 
G01 X-22.2715 Y13.2529 
G00 Z5.0000 
G00 X-24.6546 Y13.6612 
G01 Z-0.1400 F254.00 
G01 X-25.0912 Y13.2246 F1000.00 
G01 X-25.7088 Y13.2246 
G01 X-26.1454 Y13.6612 
G01 X-26.1454 Y14.2788 
G01 X-25.7088 Y14.7154 
G01 X-25.0912 Y14.7154 
G01 X-24.6546 Y14.2788 
G01 X-24.6546 Y13.6612 
G00 Z5.0000 
G00 X-27.1946 Y13.6612 
G01 Z-0.1400 F254.00 
G01 X-27.6312 Y13.2246 F1000.00 
G01 X-28.2488 Y13.2246 
G01 X-28.6854 Y13.6612 
G01 X-28.6854 Y14.2788 
G01 X-28.2488 Y14.7154 
G01 X-27.6312 Y14.7154 
G01 X-27.1946 Y14.2788 
G01 X-27.1946 Y13.6612 
G00 Z5.0000 
G00 X-25.6853 Y18.4615 
G01 Z-0.1400 F254.00 
G01 X-25.7863 Y18.6127 F1000.00 
G01 X-25.8559 Y18.7807 
G01 X-25.8914 Y18.9591 
G01 X-25.8914 Y19.1409 
G01 X-25.8559 Y19.3193 
G01 X-25.7863 Y19.4873 
G01 X-25.6853 Y19.6385 
G01 X-25.5567 Y19.7671 
G01 X-25.4055 Y19.8681 
G01 X-25.2375 Y19.9377 
G01 X-25.0591 Y19.9732 
G01 X-23.2009 Y19.9732 
G01 X-23.0225 Y19.9377 
G01 X-22.8545 Y19.8681 
G01 X-22.7033 Y19.7671 
G01 X-22.5747 Y19.6385 
G01 X-22.4737 Y19.4873 
G01 X-22.4041 Y19.3193 
G01 X-22.3686 Y19.1409 
G01 X-22.3686 Y18.9591 
G01 X-22.4041 Y18.7807 
G01 X-22.4737 Y18.6127 
G01 X-22.5747 Y18.4615 
G01 X-22.7033 Y18.3329 
G01 X-22.8545 Y18.2319 
G01 X-23.0225 Y18.1623 
G01 X-23.2009 Y18.1268 
G01 X-25.0591 Y18.1268 
G01 X-25.2375 Y18.1623 
G01 X-25.4055 Y18.2319 
G01 X-25.5567 Y18.3329 
G01 X-25.6853 Y18.4615 
G00 Z5.0000 
G00 X-25.6853 Y21.0015 
G01 Z-0.1400 F254.00 
G01 X-25.7863 Y21.1527 F1000.00 
G01 X-25.8559 Y21.3207 
G01 X-25.8914 Y21.4991 
G01 X-25.8914 Y21.6809 
G01 X-25.8559 Y21.8593 
G01 X-25.7863 Y22.0273 
G01 X-25.6853 Y22.1785 
G01 X-25.5567 Y22.3071 
G01 X-25.4055 Y22.4081 
G01 X-25.2375 Y22.4777 
G01 X-25.0591 Y22.5132 
G01 X-23.2009 Y22.5132 
G01 X-23.0225 Y22.4777 
G01 X-22.8545 Y22.4081 
G01 X-22.7033 Y22.3071 
G01 X-22.5747 Y22.1785 
G01 X-22.4737 Y22.0273 
G01 X-22.4041 Y21.8593 
G01 X-22.3686 Y21.6809 
G01 X-22.3686 Y21.4991 
G01 X-22.4041 Y21.3207 
G01 X-22.4737 Y21.1527 
G01 X-22.5747 Y21.0015 
G01 X-22.7033 Y20.8729 
G01 X-22.8545 Y20.7719 
G01 X-23.0225 Y20.7023 
G01 X-23.2009 Y20.6668 
G01 X-25.0591 Y20.6668 
G01 X-25.2375 Y20.7023 
G01 X-25.4055 Y20.7719 
G01 X-25.5567 Y20.8729 
G01 X-25.6853 Y21.0015 
G00 Z5.0000 
G00 X-25.6853 Y23.5415 
G01 Z-0.1400 F254.00 
G01 X-25.7863 Y23.6927 F1000.00 
G01 X-25.8559 Y23.8607 
G01 X-25.8914 Y24.0391 
G01 X-25.8914 Y24.2209 
G01 X-25.8559 Y24.3993 
G01 X-25.7863 Y24.5673 
G01 X-25.6853 Y24.7185 
G01 X-25.5567 Y24.8471 
G01 X-25.4055 Y24.9481 
G01 X-25.2375 Y25.0177 
G01 X-25.0591 Y25.0532 
G01 X-23.2009 Y25.0532 
G01 X-23.0225 Y25.0177 
G01 X-22.8545 Y24.9481 
G01 X-22.7033 Y24.8471 
G01 X-22.5747 Y24.7185 
G01 X-22.4737 Y24.5673 
G01 X-22.4041 Y24.3993 
G01 X-22.3686 Y24.2209 
G01 X-22.3686 Y24.0391 
G01 X-22.4041 Y23.8607 
G01 X-22.4737 Y23.6927 
G01 X-22.5747 Y23.5415 
G01 X-22.7033 Y23.4129 
G01 X-22.8545 Y23.3119 
G01 X-23.0225 Y23.2423 
G01 X-23.2009 Y23.2068 
G01 X-25.0591 Y23.2068 
G01 X-25.2375 Y23.2423 
G01 X-25.4055 Y23.3119 
G01 X-25.5567 Y23.4129 
G01 X-25.6853 Y23.5415 
G00 Z5.0000 
G00 X-28.6310 Y23.0812 
G01 Z-0.1400 F254.00 
G01 X-28.5494 Y22.9591 F1000.00 
G01 X-28.4932 Y22.8234 
G01 X-28.4646 Y22.6794 
G01 X-28.4646 Y22.5326 
G01 X-28.4932 Y22.3886 
G01 X-28.5494 Y22.2529 
G01 X-28.6310 Y22.1308 
G01 X-28.7348 Y22.0270 
G01 X-28.8569 Y21.9454 
G01 X-28.9926 Y21.8892 
G01 X-29.1366 Y21.8606 
G01 X-29.2834 Y21.8606 
G01 X-29.4274 Y21.8892 
G01 X-29.5631 Y21.9454 
G01 X-29.6852 Y22.0270 
G01 X-29.7890 Y22.1308 
G01 X-29.8706 Y22.2529 
G01 X-29.9268 Y22.3886 
G01 X-29.9554 Y22.5326 
G01 X-29.9554 Y22.6794 
G01 X-29.9268 Y22.8234 
G01 X-29.8706 Y22.9591 
G01 X-29.7890 Y23.0812 
G01 X-29.6852 Y23.1850 
G01 X-29.5631 Y23.2666 
G01 X-29.4274 Y23.3228 
G01 X-29.2834 Y23.3514 
G01 X-29.1366 Y23.3514 
G01 X-28.9926 Y23.3228 
G01 X-28.8569 Y23.2666 
G01 X-28.7348 Y23.1850 
G01 X-28.6310 Y23.0812 
G00 Z5.0000 
G00 X-28.9012 Y21.3194 
G01 Z-0.1400 F254.00 
G01 X-28.4646 Y20.8828 F1000.00 
G01 X-28.4646 Y20.2652 
G01 X-28.9012 Y19.8286 
G01 X-29.5188 Y19.8286 
G01 X-29.9554 Y20.2652 
G01 X-29.9554 Y20.8828 
G01 X-29.5188 Y21.3194 
G01 X-28.9012 Y21.3194 
G00 Z5.0000 
G00 X-32.2746 Y20.6288 
G01 Z-0.1400 F254.00 
G01 X-32.2746 Y20.0112 F1000.00 
G01 X-32.7112 Y19.5746 
G01 X-33.3288 Y19.5746 
G01 X-33.7654 Y20.0112 
G01 X-33.7654 Y20.6288 
G01 X-33.3288 Y21.0654 
G01 X-32.7112 Y21.0654 
G01 X-32.2746 Y20.6288 
G00 Z5.0000 
G00 X-32.2746 Y22.5512 
G01 Z-0.1400 F254.00 
G01 X-32.7112 Y22.1146 F1000.00 
G01 X-33.3288 Y22.1146 
G01 X-33.7654 Y22.5512 
G01 X-33.7654 Y23.1688 
G01 X-33.3288 Y23.6054 
G01 X-32.7112 Y23.6054 
G01 X-32.2746 Y23.1688 
G01 X-32.2746 Y22.5512 
G00 Z5.0000 
G00 X-34.9391 Y23.3734 
G01 Z-0.1400 F254.00 
G01 X-35.0986 Y23.2669 F1000.00 
G01 X-35.2759 Y23.1934 
G01 X-35.4641 Y23.1560 
G01 X-35.6559 Y23.1560 
G01 X-35.8441 Y23.1934 
G01 X-36.0214 Y23.2669 
G01 X-36.1809 Y23.3734 
G01 X-36.3166 Y23.5091 
G01 X-36.3352 Y23.5370 
G01 X-47.4848 Y23.5370 
G01 X-47.5034 Y23.5091 
G01 X-47.6391 Y23.3734 
G01 X-47.7986 Y23.2669 
G01 X-47.9759 Y23.1934 
G01 X-48.1641 Y23.1560 
G01 X-48.3559 Y23.1560 
G01 X-48.5441 Y23.1934 
G01 X-48.7214 Y23.2669 
G01 X-48.8809 Y23.3734 
G01 X-49.0166 Y23.5091 
G01 X-49.1231 Y23.6686 
G01 X-49.1966 Y23.8459 
G01 X-49.2340 Y24.0341 
G01 X-49.2340 Y24.2259 
G01 X-49.1966 Y24.4141 
G01 X-49.1231 Y24.5914 
G01 X-49.0166 Y24.7509 
G01 X-48.8809 Y24.8866 
G01 X-48.7214 Y24.9931 
G01 X-48.5441 Y25.0666 
G01 X-48.3559 Y25.1040 
G01 X-48.1641 Y25.1040 
G01 X-47.9759 Y25.0666 
G01 X-47.7986 Y24.9931 
G01 X-47.6391 Y24.8866 
G01 X-47.5034 Y24.7509 
G01 X-47.4848 Y24.7230 
G01 X-36.3352 Y24.7230 
G01 X-36.3166 Y24.7509 
G01 X-36.1809 Y24.8866 
G01 X-36.0214 Y24.9931 
G01 X-35.8441 Y25.0666 
G01 X-35.6559 Y25.1040 
G01 X-35.4641 Y25.1040 
G01 X-35.2759 Y25.0666 
G01 X-35.0986 Y24.9931 
G01 X-34.9391 Y24.8866 
G01 X-34.8034 Y24.7509 
G01 X-34.6969 Y24.5914 
G01 X-34.6234 Y24.4141 
G01 X-34.5860 Y24.2259 
G01 X-34.5860 Y24.0341 
G01 X-34.6234 Y23.8459 
G01 X-34.6969 Y23.6686 
G01 X-34.8034 Y23.5091 
G01 X-34.9391 Y23.3734 
G00 Z5.0000 
G00 X-35.2512 Y25.9246 
G01 Z-0.1400 F254.00 
G01 X-35.8688 Y25.9246 F1000.00 
G01 X-36.3054 Y26.3612 
G01 X-36.3054 Y26.9788 
G01 X-35.8688 Y27.4154 
G01 X-35.2512 Y27.4154 
G01 X-34.8146 Y26.9788 
G01 X-34.8146 Y26.3612 
G01 X-35.2512 Y25.9246 
G00 Z5.0000 
G00 X-37.3546 Y25.9362 
G01 Z-0.1400 F254.00 
G01 X-37.3832 Y25.7922 F1000.00 
G01 X-37.4394 Y25.6565 
G01 X-37.5210 Y25.5344 
G01 X-37.6248 Y25.4306 
G01 X-37.7469 Y25.3490 
G01 X-37.8826 Y25.2928 
G01 X-38.0266 Y25.2642 
G01 X-38.1734 Y25.2642 
G01 X-38.3174 Y25.2928 
G01 X-38.4531 Y25.3490 
G01 X-38.5752 Y25.4306 
G01 X-38.6790 Y25.5344 
G01 X-38.7606 Y25.6565 
G01 X-38.8168 Y25.7922 
G01 X-38.8454 Y25.9362 
G01 X-38.8454 Y27.4038 
G01 X-38.8168 Y27.5478 
G01 X-38.7606 Y27.6835 
G01 X-38.6790 Y27.8056 
G01 X-38.5752 Y27.9094 
G01 X-38.4531 Y27.9910 
G01 X-38.3174 Y28.0472 
G01 X-38.1734 Y28.0758 
G01 X-38.0266 Y28.0758 
G01 X-37.8826 Y28.0472 
G01 X-37.7469 Y27.9910 
G01 X-37.6248 Y27.9094 
G01 X-37.5210 Y27.8056 
G01 X-37.4394 Y27.6835 
G01 X-37.3832 Y27.5478 
G01 X-37.3546 Y27.4038 
G01 X-37.3546 Y25.9362 
G00 Z5.0000 
G00 X-39.8946 Y25.9362 
G01 Z-0.1400 F254.00 
G01 X-39.9232 Y25.7922 F1000.00 
G01 X-39.9794 Y25.6565 
G01 X-40.0610 Y25.5344 
G01 X-40.1648 Y25.4306 
G01 X-40.2869 Y25.3490 
G01 X-40.4226 Y25.2928 
G01 X-40.5666 Y25.2642 
G01 X-40.7134 Y25.2642 
G01 X-40.8574 Y25.2928 
G01 X-40.9931 Y25.3490 
G01 X-41.1152 Y25.4306 
G01 X-41.2190 Y25.5344 
G01 X-41.3006 Y25.6565 
G01 X-41.3568 Y25.7922 
G01 X-41.3854 Y25.9362 
G01 X-41.3854 Y27.4038 
G01 X-41.3568 Y27.5478 
G01 X-41.3006 Y27.6835 
G01 X-41.2190 Y27.8056 
G01 X-41.1152 Y27.9094 
G01 X-40.9931 Y27.9910 
G01 X-40.8574 Y28.0472 
G01 X-40.7134 Y28.0758 
G01 X-40.5666 Y28.0758 
G01 X-40.4226 Y28.0472 
G01 X-40.2869 Y27.9910 
G01 X-40.1648 Y27.9094 
G01 X-40.0610 Y27.8056 
G01 X-39.9794 Y27.6835 
G01 X-39.9232 Y27.5478 
G01 X-39.8946 Y27.4038 
G01 X-39.8946 Y25.9362 
G00 Z5.0000 
G00 X-42.4346 Y25.9362 
G01 Z-0.1400 F254.00 
G01 X-42.4632 Y25.7922 F1000.00 
G01 X-42.5194 Y25.6565 
G01 X-42.6010 Y25.5344 
G01 X-42.7048 Y25.4306 
G01 X-42.8269 Y25.3490 
G01 X-42.9626 Y25.2928 
G01 X-43.1066 Y25.2642 
G01 X-43.2534 Y25.2642 
G01 X-43.3974 Y25.2928 
G01 X-43.5331 Y25.3490 
G01 X-43.6552 Y25.4306 
G01 X-43.7590 Y25.5344 
G01 X-43.8406 Y25.6565 
G01 X-43.8968 Y25.7922 
G01 X-43.9254 Y25.9362 
G01 X-43.9254 Y27.4038 
G01 X-43.8968 Y27.5478 
G01 X-43.8406 Y27.6835 
G01 X-43.7590 Y27.8056 
G01 X-43.6552 Y27.9094 
G01 X-43.5331 Y27.9910 
G01 X-43.3974 Y28.0472 
G01 X-43.2534 Y28.0758 
G01 X-43.1066 Y28.0758 
G01 X-42.9626 Y28.0472 
G01 X-42.8269 Y27.9910 
G01 X-42.7048 Y27.9094 
G01 X-42.6010 Y27.8056 
G01 X-42.5194 Y27.6835 
G01 X-42.4632 Y27.5478 
G01 X-42.4346 Y27.4038 
G01 X-42.4346 Y25.9362 
G00 Z5.0000 
G00 X-44.9746 Y25.9362 
G01 Z-0.1400 F254.00 
G01 X-45.0032 Y25.7922 F1000.00 
G01 X-45.0594 Y25.6565 
G01 X-45.1410 Y25.5344 
G01 X-45.2448 Y25.4306 
G01 X-45.3669 Y25.3490 
G01 X-45.5026 Y25.2928 
G01 X-45.6466 Y25.2642 
G01 X-45.7934 Y25.2642 
G01 X-45.9374 Y25.2928 
G01 X-46.0731 Y25.3490 
G01 X-46.1952 Y25.4306 
G01 X-46.2990 Y25.5344 
G01 X-46.3806 Y25.6565 
G01 X-46.4368 Y25.7922 
G01 X-46.4654 Y25.9362 
G01 X-46.4654 Y27.4038 
G01 X-46.4368 Y27.5478 
G01 X-46.3806 Y27.6835 
G01 X-46.2990 Y27.8056 
G01 X-46.1952 Y27.9094 
G01 X-46.0731 Y27.9910 
G01 X-45.9374 Y28.0472 
G01 X-45.7934 Y28.0758 
G01 X-45.6466 Y28.0758 
G01 X-45.5026 Y28.0472 
G01 X-45.3669 Y27.9910 
G01 X-45.2448 Y27.9094 
G01 X-45.1410 Y27.8056 
G01 X-45.0594 Y27.6835 
G01 X-45.0032 Y27.5478 
G01 X-44.9746 Y27.4038 
G01 X-44.9746 Y25.9362 
G00 Z5.0000 
G00 X-50.0546 Y25.9362 
G01 Z-0.1400 F254.00 
G01 X-50.0832 Y25.7922 F1000.00 
G01 X-50.1394 Y25.6565 
G01 X-50.2210 Y25.5344 
G01 X-50.3248 Y25.4306 
G01 X-50.4469 Y25.3490 
G01 X-50.5826 Y25.2928 
G01 X-50.7266 Y25.2642 
G01 X-50.8734 Y25.2642 
G01 X-51.0174 Y25.2928 
G01 X-51.1531 Y25.3490 
G01 X-51.2752 Y25.4306 
G01 X-51.3790 Y25.5344 
G01 X-51.4606 Y25.6565 
G01 X-51.5168 Y25.7922 
G01 X-51.5454 Y25.9362 
G01 X-51.5454 Y27.4038 
G01 X-51.5168 Y27.5478 
G01 X-51.4606 Y27.6835 
G01 X-51.3790 Y27.8056 
G01 X-51.2752 Y27.9094 
G01 X-51.1531 Y27.9910 
G01 X-51.0174 Y28.0472 
G01 X-50.8734 Y28.0758 
G01 X-50.7266 Y28.0758 
G01 X-50.5826 Y28.0472 
G01 X-50.4469 Y27.9910 
G01 X-50.3248 Y27.9094 
G01 X-50.2210 Y27.8056 
G01 X-50.1394 Y27.6835 
G01 X-50.0832 Y27.5478 
G01 X-50.0546 Y27.4038 
G01 X-50.0546 Y25.9362 
G00 Z5.0000 
G00 X-50.1791 Y24.8866 
G01 Z-0.1400 F254.00 
G01 X-50.0434 Y24.7509 F1000.00 
G01 X-49.9369 Y24.5914 
G01 X-49.8634 Y24.4141 
G01 X-49.8260 Y24.2259 
G01 X-49.8260 Y24.0341 
G01 X-49.8634 Y23.8459 
G01 X-49.9369 Y23.6686 
G01 X-50.0434 Y23.5091 
G01 X-50.1791 Y23.3734 
G01 X-50.3386 Y23.2669 
G01 X-50.5159 Y23.1934 
G01 X-50.7041 Y23.1560 
G01 X-50.8959 Y23.1560 
G01 X-51.0841 Y23.1934 
G01 X-51.2614 Y23.2669 
G01 X-51.4209 Y23.3734 
G01 X-51.5566 Y23.5091 
G01 X-51.6431 Y23.6386 
G01 X-60.1169 Y23.6386 
G01 X-60.2034 Y23.5091 
G01 X-60.3391 Y23.3734 
G01 X-60.4986 Y23.2669 
G01 X-60.6759 Y23.1934 
G01 X-60.8641 Y23.1560 
G01 X-61.0559 Y23.1560 
G01 X-61.2441 Y23.1934 
G01 X-61.4214 Y23.2669 
G01 X-61.5809 Y23.3734 
G01 X-61.7166 Y23.5091 
G01 X-61.8231 Y23.6686 
G01 X-61.8966 Y23.8459 
G01 X-61.9340 Y24.0341 
G01 X-61.9340 Y24.2259 
G01 X-61.8966 Y24.4141 
G01 X-61.8231 Y24.5914 
G01 X-61.7166 Y24.7509 
G01 X-61.5809 Y24.8866 
G01 X-61.4214 Y24.9931 
G01 X-61.2441 Y25.0666 
G01 X-61.0559 Y25.1040 
G01 X-60.8641 Y25.1040 
G01 X-60.6759 Y25.0666 
G01 X-60.4986 Y24.9931 
G01 X-60.3391 Y24.8866 
G01 X-60.2034 Y24.7509 
G01 X-60.1169 Y24.6214 
G01 X-51.6431 Y24.6214 
G01 X-51.5566 Y24.7509 
G01 X-51.4209 Y24.8866 
G01 X-51.2614 Y24.9931 
G01 X-51.0841 Y25.0666 
G01 X-50.8959 Y25.1040 
G01 X-50.7041 Y25.1040 
G01 X-50.5159 Y25.0666 
G01 X-50.3386 Y24.9931 
G01 X-50.1791 Y24.8866 
G00 Z5.0000 
G00 X-52.8648 Y25.4306 
G01 Z-0.1400 F254.00 
G01 X-52.9869 Y25.3490 F1000.00 
G01 X-53.1226 Y25.2928 
G01 X-53.2666 Y25.2642 
G01 X-53.4134 Y25.2642 
G01 X-53.5574 Y25.2928 
G01 X-53.6931 Y25.3490 
G01 X-53.8152 Y25.4306 
G01 X-53.9190 Y25.5344 
G01 X-54.0006 Y25.6565 
G01 X-54.0568 Y25.7922 
G01 X-54.0854 Y25.9362 
G01 X-54.0854 Y27.4038 
G01 X-54.0568 Y27.5478 
G01 X-54.0006 Y27.6835 
G01 X-53.9190 Y27.8056 
G01 X-53.8152 Y27.9094 
G01 X-53.6931 Y27.9910 
G01 X-53.5574 Y28.0472 
G01 X-53.4134 Y28.0758 
G01 X-53.2666 Y28.0758 
G01 X-53.1226 Y28.0472 
G01 X-52.9869 Y27.9910 
G01 X-52.8648 Y27.9094 
G01 X-52.7610 Y27.8056 
G01 X-52.6794 Y27.6835 
G01 X-52.6232 Y27.5478 
G01 X-52.5946 Y27.4038 
G01 X-52.5946 Y25.9362 
G01 X-52.6232 Y25.7922 
G01 X-52.6794 Y25.6565 
G01 X-52.7610 Y25.5344 
G01 X-52.8648 Y25.4306 
G00 Z5.0000 
G00 X-55.4048 Y25.4306 
G01 Z-0.1400 F254.00 
G01 X-55.5269 Y25.3490 F1000.00 
G01 X-55.6626 Y25.2928 
G01 X-55.8066 Y25.2642 
G01 X-55.9534 Y25.2642 
G01 X-56.0974 Y25.2928 
G01 X-56.2331 Y25.3490 
G01 X-56.3552 Y25.4306 
G01 X-56.4590 Y25.5344 
G01 X-56.5406 Y25.6565 
G01 X-56.5968 Y25.7922 
G01 X-56.6254 Y25.9362 
G01 X-56.6254 Y27.4038 
G01 X-56.5968 Y27.5478 
G01 X-56.5406 Y27.6835 
G01 X-56.4590 Y27.8056 
G01 X-56.3552 Y27.9094 
G01 X-56.2331 Y27.9910 
G01 X-56.0974 Y28.0472 
G01 X-55.9534 Y28.0758 
G01 X-55.8066 Y28.0758 
G01 X-55.6626 Y28.0472 
G01 X-55.5269 Y27.9910 
G01 X-55.4048 Y27.9094 
G01 X-55.3010 Y27.8056 
G01 X-55.2194 Y27.6835 
G01 X-55.1632 Y27.5478 
G01 X-55.1346 Y27.4038 
G01 X-55.1346 Y25.9362 
G01 X-55.1632 Y25.7922 
G01 X-55.2194 Y25.6565 
G01 X-55.3010 Y25.5344 
G01 X-55.4048 Y25.4306 
G00 Z5.0000 
G00 X-57.9448 Y25.4306 
G01 Z-0.1400 F254.00 
G01 X-58.0669 Y25.3490 F1000.00 
G01 X-58.2026 Y25.2928 
G01 X-58.3466 Y25.2642 
G01 X-58.4934 Y25.2642 
G01 X-58.6374 Y25.2928 
G01 X-58.7731 Y25.3490 
G01 X-58.8952 Y25.4306 
G01 X-58.9990 Y25.5344 
G01 X-59.0806 Y25.6565 
G01 X-59.1368 Y25.7922 
G01 X-59.1654 Y25.9362 
G01 X-59.1654 Y27.4038 
G01 X-59.1368 Y27.5478 
G01 X-59.0806 Y27.6835 
G01 X-58.9990 Y27.8056 
G01 X-58.8952 Y27.9094 
G01 X-58.7731 Y27.9910 
G01 X-58.6374 Y28.0472 
G01 X-58.4934 Y28.0758 
G01 X-58.3466 Y28.0758 
G01 X-58.2026 Y28.0472 
G01 X-58.0669 Y27.9910 
G01 X-57.9448 Y27.9094 
G01 X-57.8410 Y27.8056 
G01 X-57.7594 Y27.6835 
G01 X-57.7032 Y27.5478 
G01 X-57.6746 Y27.4038 
G01 X-57.6746 Y25.9362 
G01 X-57.7032 Y25.7922 
G01 X-57.7594 Y25.6565 
G01 X-57.8410 Y25.5344 
G01 X-57.9448 Y25.4306 
G00 Z5.0000 
G00 X-60.3391 Y25.9134 
G01 Z-0.1400 F254.00 
G01 X-60.4986 Y25.8069 F1000.00 
G01 X-60.6759 Y25.7334 
G01 X-60.8641 Y25.6960 
G01 X-61.0559 Y25.6960 
G01 X-61.2441 Y25.7334 
G01 X-61.4214 Y25.8069 
G01 X-61.5809 Y25.9134 
G01 X-61.7166 Y26.0491 
G01 X-61.8231 Y26.2086 
G01 X-61.8966 Y26.3859 
G01 X-61.9340 Y26.5741 
G01 X-61.9340 Y26.7659 
G01 X-61.8966 Y26.9541 
G01 X-61.8231 Y27.1314 
G01 X-61.7166 Y27.2909 
G01 X-61.5809 Y27.4266 
G01 X-61.4214 Y27.5331 
G01 X-61.2441 Y27.6066 
G01 X-61.0559 Y27.6440 
G01 X-60.8641 Y27.6440 
G01 X-60.6759 Y27.6066 
G01 X-60.4986 Y27.5331 
G01 X-60.3391 Y27.4266 
G01 X-60.2034 Y27.2909 
G01 X-60.0969 Y27.1314 
G01 X-60.0234 Y26.9541 
G01 X-59.9860 Y26.7659 
G01 X-59.9860 Y26.5741 
G01 X-60.0234 Y26.3859 
G01 X-60.0969 Y26.2086 
G01 X-60.2034 Y26.0491 
G01 X-60.3391 Y25.9134 
G00 Z5.0000 
G00 X-62.7546 Y26.3612 
G01 Z-0.1400 F254.00 
G01 X-63.1912 Y25.9246 F1000.00 
G01 X-63.8088 Y25.9246 
G01 X-64.2454 Y26.3612 
G01 X-64.2454 Y26.9788 
G01 X-63.8088 Y27.4154 
G01 X-63.1912 Y27.4154 
G01 X-62.7546 Y26.9788 
G01 X-62.7546 Y26.3612 
G00 Z5.0000 
G00 X-65.2946 Y25.9362 
G01 Z-0.1400 F254.00 
G01 X-65.3232 Y25.7922 F1000.00 
G01 X-65.3794 Y25.6565 
G01 X-65.4610 Y25.5344 
G01 X-65.5648 Y25.4306 
G01 X-65.6869 Y25.3490 
G01 X-65.8226 Y25.2928 
G01 X-65.9666 Y25.2642 
G01 X-66.1134 Y25.2642 
G01 X-66.2574 Y25.2928 
G01 X-66.3931 Y25.3490 
G01 X-66.5152 Y25.4306 
G01 X-66.6190 Y25.5344 
G01 X-66.7006 Y25.6565 
G01 X-66.7568 Y25.7922 
G01 X-66.7854 Y25.9362 
G01 X-66.7854 Y27.4038 
G01 X-66.7568 Y27.5478 
G01 X-66.7006 Y27.6835 
G01 X-66.6190 Y27.8056 
G01 X-66.5152 Y27.9094 
G01 X-66.3931 Y27.9910 
G01 X-66.2574 Y28.0472 
G01 X-66.1134 Y28.0758 
G01 X-65.9666 Y28.0758 
G01 X-65.8226 Y28.0472 
G01 X-65.6869 Y27.9910 
G01 X-65.5648 Y27.9094 
G01 X-65.4610 Y27.8056 
G01 X-65.3794 Y27.6835 
G01 X-65.3232 Y27.5478 
G01 X-65.2946 Y27.4038 
G01 X-65.2946 Y25.9362 
G00 Z5.0000 
G00 X-67.8346 Y25.9362 
G01 Z-0.1400 F254.00 
G01 X-67.8632 Y25.7922 F1000.00 
G01 X-67.9194 Y25.6565 
G01 X-68.0010 Y25.5344 
G01 X-68.1048 Y25.4306 
G01 X-68.2269 Y25.3490 
G01 X-68.3626 Y25.2928 
G01 X-68.5066 Y25.2642 
G01 X-68.6534 Y25.2642 
G01 X-68.7974 Y25.2928 
G01 X-68.9331 Y25.3490 
G01 X-69.0552 Y25.4306 
G01 X-69.1590 Y25.5344 
G01 X-69.2406 Y25.6565 
G01 X-69.2968 Y25.7922 
G01 X-69.3254 Y25.9362 
G01 X-69.3254 Y27.4038 
G01 X-69.2968 Y27.5478 
G01 X-69.2406 Y27.6835 
G01 X-69.1590 Y27.8056 
G01 X-69.0552 Y27.9094 
G01 X-68.9331 Y27.9910 
G01 X-68.7974 Y28.0472 
G01 X-68.6534 Y28.0758 
G01 X-68.5066 Y28.0758 
G01 X-68.3626 Y28.0472 
G01 X-68.2269 Y27.9910 
G01 X-68.1048 Y27.9094 
G01 X-68.0010 Y27.8056 
G01 X-67.9194 Y27.6835 
G01 X-67.8632 Y27.5478 
G01 X-67.8346 Y27.4038 
G01 X-67.8346 Y25.9362 
G00 Z5.0000 
G00 X-70.3746 Y25.9362 
G01 Z-0.1400 F254.00 
G01 X-70.4032 Y25.7922 F1000.00 
G01 X-70.4594 Y25.6565 
G01 X-70.5410 Y25.5344 
G01 X-70.6448 Y25.4306 
G01 X-70.7669 Y25.3490 
G01 X-70.9026 Y25.2928 
G01 X-71.0466 Y25.2642 
G01 X-71.1934 Y25.2642 
G01 X-71.3374 Y25.2928 
G01 X-71.4731 Y25.3490 
G01 X-71.5952 Y25.4306 
G01 X-71.6990 Y25.5344 
G01 X-71.7806 Y25.6565 
G01 X-71.8368 Y25.7922 
G01 X-71.8654 Y25.9362 
G01 X-71.8654 Y27.4038 
G01 X-71.8368 Y27.5478 
G01 X-71.7806 Y27.6835 
G01 X-71.6990 Y27.8056 
G01 X-71.5952 Y27.9094 
G01 X-71.4731 Y27.9910 
G01 X-71.3374 Y28.0472 
G01 X-71.1934 Y28.0758 
G01 X-71.0466 Y28.0758 
G01 X-70.9026 Y28.0472 
G01 X-70.7669 Y27.9910 
G01 X-70.6448 Y27.9094 
G01 X-70.5410 Y27.8056 
G01 X-70.4594 Y27.6835 
G01 X-70.4032 Y27.5478 
G01 X-70.3746 Y27.4038 
G01 X-70.3746 Y25.9362 
G00 Z5.0000 
G00 X-72.9146 Y25.9362 
G01 Z-0.1400 F254.00 
G01 X-72.9432 Y25.7922 F1000.00 
G01 X-72.9994 Y25.6565 
G01 X-73.0810 Y25.5344 
G01 X-73.1848 Y25.4306 
G01 X-73.3069 Y25.3490 
G01 X-73.4426 Y25.2928 
G01 X-73.5866 Y25.2642 
G01 X-73.7334 Y25.2642 
G01 X-73.8774 Y25.2928 
G01 X-74.0131 Y25.3490 
G01 X-74.1352 Y25.4306 
G01 X-74.2390 Y25.5344 
G01 X-74.3206 Y25.6565 
G01 X-74.3768 Y25.7922 
G01 X-74.4054 Y25.9362 
G01 X-74.4054 Y27.4038 
G01 X-74.3768 Y27.5478 
G01 X-74.3206 Y27.6835 
G01 X-74.2390 Y27.8056 
G01 X-74.1352 Y27.9094 
G01 X-74.0131 Y27.9910 
G01 X-73.8774 Y28.0472 
G01 X-73.7334 Y28.0758 
G01 X-73.5866 Y28.0758 
G01 X-73.4426 Y28.0472 
G01 X-73.3069 Y27.9910 
G01 X-73.1848 Y27.9094 
G01 X-73.0810 Y27.8056 
G01 X-72.9994 Y27.6835 
G01 X-72.9432 Y27.5478 
G01 X-72.9146 Y27.4038 
G01 X-72.9146 Y25.9362 
G00 Z5.0000 
G00 X-75.4546 Y25.9362 
G01 Z-0.1400 F254.00 
G01 X-75.4832 Y25.7922 F1000.00 
G01 X-75.5394 Y25.6565 
G01 X-75.6210 Y25.5344 
G01 X-75.7248 Y25.4306 
G01 X-75.8469 Y25.3490 
G01 X-75.9826 Y25.2928 
G01 X-76.1266 Y25.2642 
G01 X-76.2734 Y25.2642 
G01 X-76.4174 Y25.2928 
G01 X-76.5531 Y25.3490 
G01 X-76.6752 Y25.4306 
G01 X-76.7790 Y25.5344 
G01 X-76.8606 Y25.6565 
G01 X-76.9168 Y25.7922 
G01 X-76.9454 Y25.9362 
G01 X-76.9454 Y27.4038 
G01 X-76.9168 Y27.5478 
G01 X-76.8606 Y27.6835 
G01 X-76.7790 Y27.8056 
G01 X-76.6752 Y27.9094 
G01 X-76.5531 Y27.9910 
G01 X-76.4174 Y28.0472 
G01 X-76.2734 Y28.0758 
G01 X-76.1266 Y28.0758 
G01 X-75.9826 Y28.0472 
G01 X-75.8469 Y27.9910 
G01 X-75.7248 Y27.9094 
G01 X-75.6210 Y27.8056 
G01 X-75.5394 Y27.6835 
G01 X-75.4832 Y27.5478 
G01 X-75.4546 Y27.4038 
G01 X-75.4546 Y25.9362 
G00 Z5.0000 
G00 X-77.9946 Y25.9362 
G01 Z-0.1400 F254.00 
G01 X-78.0232 Y25.7922 F1000.00 
G01 X-78.0794 Y25.6565 
G01 X-78.1610 Y25.5344 
G01 X-78.2648 Y25.4306 
G01 X-78.3869 Y25.3490 
G01 X-78.5226 Y25.2928 
G01 X-78.6666 Y25.2642 
G01 X-78.8134 Y25.2642 
G01 X-78.9574 Y25.2928 
G01 X-79.0931 Y25.3490 
G01 X-79.2152 Y25.4306 
G01 X-79.3190 Y25.5344 
G01 X-79.4006 Y25.6565 
G01 X-79.4568 Y25.7922 
G01 X-79.4854 Y25.9362 
G01 X-79.4854 Y27.4038 
G01 X-79.4568 Y27.5478 
G01 X-79.4006 Y27.6835 
G01 X-79.3190 Y27.8056 
G01 X-79.2152 Y27.9094 
G01 X-79.0931 Y27.9910 
G01 X-78.9574 Y28.0472 
G01 X-78.8134 Y28.0758 
G01 X-78.6666 Y28.0758 
G01 X-78.5226 Y28.0472 
G01 X-78.3869 Y27.9910 
G01 X-78.2648 Y27.9094 
G01 X-78.1610 Y27.8056 
G01 X-78.0794 Y27.6835 
G01 X-78.0232 Y27.5478 
G01 X-77.9946 Y27.4038 
G01 X-77.9946 Y25.9362 
G00 Z5.0000 
G00 X-80.5346 Y25.9362 
G01 Z-0.1400 F254.00 
G01 X-80.5632 Y25.7922 F1000.00 
G01 X-80.6194 Y25.6565 
G01 X-80.7010 Y25.5344 
G01 X-80.8048 Y25.4306 
G01 X-80.9269 Y25.3490 
G01 X-81.0626 Y25.2928 
G01 X-81.2066 Y25.2642 
G01 X-81.3534 Y25.2642 
G01 X-81.4974 Y25.2928 
G01 X-81.6331 Y25.3490 
G01 X-81.7552 Y25.4306 
G01 X-81.8590 Y25.5344 
G01 X-81.9406 Y25.6565 
G01 X-81.9968 Y25.7922 
G01 X-82.0254 Y25.9362 
G01 X-82.0254 Y27.4038 
G01 X-81.9968 Y27.5478 
G01 X-81.9406 Y27.6835 
G01 X-81.8590 Y27.8056 
G01 X-81.7552 Y27.9094 
G01 X-81.6331 Y27.9910 
G01 X-81.4974 Y28.0472 
G01 X-81.3534 Y28.0758 
G01 X-81.2066 Y28.0758 
G01 X-81.0626 Y28.0472 
G01 X-80.9269 Y27.9910 
G01 X-80.8048 Y27.9094 
G01 X-80.7010 Y27.8056 
G01 X-80.6194 Y27.6835 
G01 X-80.5632 Y27.5478 
G01 X-80.5346 Y27.4038 
G01 X-80.5346 Y25.9362 
G00 Z5.0000 
G00 X-77.7788 Y22.3354 
G01 Z-0.1400 F254.00 
G01 X-77.1612 Y22.3354 F1000.00 
G01 X-76.7246 Y21.8988 
G01 X-76.7246 Y21.2812 
G01 X-77.1612 Y20.8446 
G01 X-77.7788 Y20.8446 
G01 X-78.2154 Y21.2812 
G01 X-78.2154 Y21.8988 
G01 X-77.7788 Y22.3354 
G00 Z5.0000 
G00 X-71.8654 Y22.5512 
G01 Z-0.1400 F254.00 
G01 X-71.8654 Y23.1688 F1000.00 
G01 X-71.4288 Y23.6054 
G01 X-70.8112 Y23.6054 
G01 X-70.3746 Y23.1688 
G01 X-70.3746 Y22.5512 
G01 X-70.8112 Y22.1146 
G01 X-71.4288 Y22.1146 
G01 X-71.8654 Y22.5512 
G00 Z5.0000 
G00 X-66.7854 Y22.5512 
G01 Z-0.1400 F254.00 
G01 X-66.7854 Y23.1688 F1000.00 
G01 X-66.3488 Y23.6054 
G01 X-65.7312 Y23.6054 
G01 X-65.2946 Y23.1688 
G01 X-65.2946 Y22.5512 
G01 X-65.7312 Y22.1146 
G01 X-66.3488 Y22.1146 
G01 X-66.7854 Y22.5512 
G00 Z5.0000 
G00 X-61.4999 Y20.4699 
G01 Z-0.1400 F254.00 
G01 X-61.3612 Y20.5626 F1000.00 
G01 X-61.2071 Y20.6264 
G01 X-61.0434 Y20.6590 
G01 X-60.8766 Y20.6590 
G01 X-60.7129 Y20.6264 
G01 X-60.5588 Y20.5626 
G01 X-60.4201 Y20.4699 
G01 X-60.3021 Y20.3519 
G01 X-60.2094 Y20.2132 
G01 X-60.1456 Y20.0591 
G01 X-60.1130 Y19.8954 
G01 X-60.1130 Y18.2046 
G01 X-60.1456 Y18.0409 
G01 X-60.2094 Y17.8868 
G01 X-60.3021 Y17.7481 
G01 X-60.4201 Y17.6301 
G01 X-60.5588 Y17.5374 
G01 X-60.7129 Y17.4735 
G01 X-60.8766 Y17.4410 
G01 X-61.0434 Y17.4410 
G01 X-61.2071 Y17.4735 
G01 X-61.3612 Y17.5374 
G01 X-61.4999 Y17.6301 
G01 X-61.6179 Y17.7481 
G01 X-61.7106 Y17.8868 
G01 X-61.7744 Y18.0409 
G01 X-61.8070 Y18.2046 
G01 X-61.8070 Y19.8954 
G01 X-61.7744 Y20.0591 
G01 X-61.7106 Y20.2132 
G01 X-61.6179 Y20.3519 
G01 X-61.4999 Y20.4699 
G00 Z5.0000 
G00 X-58.9599 Y20.4699 
G01 Z-0.1400 F254.00 
G01 X-58.8212 Y20.5626 F1000.00 
G01 X-58.6671 Y20.6264 
G01 X-58.5034 Y20.6590 
G01 X-58.3366 Y20.6590 
G01 X-58.1729 Y20.6264 
G01 X-58.0188 Y20.5626 
G01 X-57.8801 Y20.4699 
G01 X-57.7621 Y20.3519 
G01 X-57.6694 Y20.2132 
G01 X-57.6056 Y20.0591 
G01 X-57.5730 Y19.8954 
G01 X-57.5730 Y18.2046 
G01 X-57.6056 Y18.0409 
G01 X-57.6694 Y17.8868 
G01 X-57.7621 Y17.7481 
G01 X-57.8801 Y17.6301 
G01 X-58.0188 Y17.5374 
G01 X-58.1729 Y17.4735 
G01 X-58.3366 Y17.4410 
G01 X-58.5034 Y17.4410 
G01 X-58.6671 Y17.4735 
G01 X-58.8212 Y17.5374 
G01 X-58.9599 Y17.6301 
G01 X-59.0779 Y17.7481 
G01 X-59.1706 Y17.8868 
G01 X-59.2344 Y18.0409 
G01 X-59.2670 Y18.2046 
G01 X-59.2670 Y19.8954 
G01 X-59.2344 Y20.0591 
G01 X-59.1706 Y20.2132 
G01 X-59.0779 Y20.3519 
G01 X-58.9599 Y20.4699 
G00 Z5.0000 
G00 X-58.9076 Y16.2740 
G01 Z-0.1400 F254.00 
G01 X-58.7380 Y16.3604 F1000.00 
G01 X-58.5570 Y16.4192 
G01 X-58.3691 Y16.4489 
G01 X-55.9309 Y16.4489 
G01 X-55.7430 Y16.4192 
G01 X-55.5620 Y16.3604 
G01 X-55.3924 Y16.2740 
G01 X-55.2385 Y16.1621 
G01 X-55.1039 Y16.0276 
G01 X-54.9921 Y15.8736 
G01 X-54.9057 Y15.7041 
G01 X-54.8469 Y15.5231 
G01 X-54.8171 Y15.3351 
G01 X-54.8171 Y15.1448 
G01 X-54.8469 Y14.9569 
G01 X-54.9057 Y14.7759 
G01 X-54.9921 Y14.6064 
G01 X-55.1039 Y14.4524 
G01 X-55.2385 Y14.3179 
G01 X-55.3924 Y14.2060 
G01 X-55.5620 Y14.1196 
G01 X-55.7430 Y14.0608 
G01 X-55.9309 Y14.0311 
G01 X-58.3691 Y14.0311 
G01 X-58.5570 Y14.0608 
G01 X-58.7380 Y14.1196 
G01 X-58.9076 Y14.2060 
G01 X-59.0615 Y14.3179 
G01 X-59.1961 Y14.4524 
G01 X-59.3079 Y14.6064 
G01 X-59.3943 Y14.7759 
G01 X-59.4531 Y14.9569 
G01 X-59.4829 Y15.1448 
G01 X-59.4829 Y15.3351 
G01 X-59.4531 Y15.5231 
G01 X-59.3943 Y15.7041 
G01 X-59.3079 Y15.8736 
G01 X-59.1961 Y16.0276 
G01 X-59.0615 Y16.1621 
G01 X-58.9076 Y16.2740 
G00 Z5.0000 
G00 X-60.2146 Y15.5488 
G01 Z-0.1400 F254.00 
G01 X-60.2146 Y14.9312 F1000.00 
G01 X-60.6512 Y14.4946 
G01 X-61.2688 Y14.4946 
G01 X-61.7054 Y14.9312 
G01 X-61.7054 Y15.5488 
G01 X-61.2688 Y15.9854 
G01 X-60.6512 Y15.9854 
G01 X-60.2146 Y15.5488 
G00 Z5.0000 
G00 X-58.1527 Y12.4635 
G01 Z-0.1400 F254.00 
G01 X-57.9802 Y12.5889 F1000.00 
G01 X-57.7901 Y12.6857 
G01 X-57.5873 Y12.7516 
G01 X-57.3766 Y12.7850 
G01 X-57.1634 Y12.7850 
G01 X-56.9527 Y12.7516 
G01 X-56.7499 Y12.6857 
G01 X-56.5598 Y12.5889 
G01 X-56.3873 Y12.4635 
G01 X-56.2365 Y12.3127 
G01 X-56.1111 Y12.1402 
G01 X-56.0143 Y11.9501 
G01 X-55.9484 Y11.7473 
G01 X-55.9150 Y11.5366 
G01 X-55.9150 Y8.7834 
G01 X-55.9484 Y8.5727 
G01 X-56.0143 Y8.3699 
G01 X-56.1111 Y8.1798 
G01 X-56.2365 Y8.0073 
G01 X-56.3873 Y7.8565 
G01 X-56.5598 Y7.7311 
G01 X-56.7499 Y7.6343 
G01 X-56.9527 Y7.5684 
G01 X-57.1634 Y7.5350 
G01 X-57.3766 Y7.5350 
G01 X-57.5873 Y7.5684 
G01 X-57.7901 Y7.6343 
G01 X-57.9802 Y7.7311 
G01 X-58.1527 Y7.8565 
G01 X-58.3035 Y8.0073 
G01 X-58.4289 Y8.1798 
G01 X-58.5257 Y8.3699 
G01 X-58.5916 Y8.5727 
G01 X-58.6250 Y8.7834 
G01 X-58.6250 Y11.5366 
G01 X-58.5916 Y11.7473 
G01 X-58.5257 Y11.9501 
G01 X-58.4289 Y12.1402 
G01 X-58.3035 Y12.3127 
G01 X-58.1527 Y12.4635 
G00 Z5.0000 
G00 X-63.7365 Y12.3127 
G01 Z-0.1400 F254.00 
G01 X-63.6111 Y12.1402 F1000.00 
G01 X-63.5143 Y11.9501 
G01 X-63.4484 Y11.7473 
G01 X-63.4150 Y11.5366 
G01 X-63.4150 Y8.7834 
G01 X-63.4484 Y8.5727 
G01 X-63.5143 Y8.3699 
G01 X-63.6111 Y8.1798 
G01 X-63.7365 Y8.0073 
G01 X-63.8873 Y7.8565 
G01 X-64.0598 Y7.7311 
G01 X-64.2499 Y7.6343 
G01 X-64.4527 Y7.5684 
G01 X-64.6634 Y7.5350 
G01 X-64.8766 Y7.5350 
G01 X-65.0873 Y7.5684 
G01 X-65.2901 Y7.6343 
G01 X-65.4802 Y7.7311 
G01 X-65.6527 Y7.8565 
G01 X-65.8035 Y8.0073 
G01 X-65.9289 Y8.1798 
G01 X-66.0257 Y8.3699 
G01 X-66.0916 Y8.5727 
G01 X-66.1250 Y8.7834 
G01 X-66.1250 Y11.5366 
G01 X-66.0916 Y11.7473 
G01 X-66.0257 Y11.9501 
G01 X-65.9289 Y12.1402 
G01 X-65.8035 Y12.3127 
G01 X-65.6527 Y12.4635 
G01 X-65.4802 Y12.5889 
G01 X-65.2901 Y12.6857 
G01 X-65.0873 Y12.7516 
G01 X-64.8766 Y12.7850 
G01 X-64.6634 Y12.7850 
G01 X-64.4527 Y12.7516 
G01 X-64.2499 Y12.6857 
G01 X-64.0598 Y12.5889 
G01 X-63.8873 Y12.4635 
G01 X-63.7365 Y12.3127 
G00 Z5.0000 
G00 X-67.8346 Y14.9312 
G01 Z-0.1400 F254.00 
G01 X-68.2712 Y14.4946 F1000.00 
G01 X-68.8888 Y14.4946 
G01 X-69.3254 Y14.9312 
G01 X-69.3254 Y15.5488 
G01 X-68.8888 Y15.9854 
G01 X-68.2712 Y15.9854 
G01 X-67.8346 Y15.5488 
G01 X-67.8346 Y14.9312 
G00 Z5.0000 
G00 X-71.4765 Y12.3127 
G01 Z-0.1400 F254.00 
G01 X-71.3511 Y12.1402 F1000.00 
G01 X-71.2543 Y11.9501 
G01 X-71.1884 Y11.7473 
G01 X-71.1550 Y11.5366 
G01 X-71.1550 Y8.7834 
G01 X-71.1884 Y8.5727 
G01 X-71.2543 Y8.3699 
G01 X-71.3511 Y8.1798 
G01 X-71.4765 Y8.0073 
G01 X-71.6273 Y7.8565 
G01 X-71.7998 Y7.7311 
G01 X-71.9899 Y7.6343 
G01 X-72.1927 Y7.5684 
G01 X-72.4034 Y7.5350 
G01 X-72.6166 Y7.5350 
G01 X-72.8273 Y7.5684 
G01 X-73.0301 Y7.6343 
G01 X-73.2202 Y7.7311 
G01 X-73.3927 Y7.8565 
G01 X-73.5435 Y8.0073 
G01 X-73.6689 Y8.1798 
G01 X-73.7657 Y8.3699 
G01 X-73.8316 Y8.5727 
G01 X-73.8650 Y8.7834 
G01 X-73.8650 Y11.5366 
G01 X-73.8316 Y11.7473 
G01 X-73.7657 Y11.9501 
G01 X-73.6689 Y12.1402 
G01 X-73.5435 Y12.3127 
G01 X-73.3927 Y12.4635 
G01 X-73.2202 Y12.5889 
G01 X-73.0301 Y12.6857 
G01 X-72.8273 Y12.7516 
G01 X-72.6166 Y12.7850 
G01 X-72.4034 Y12.7850 
G01 X-72.1927 Y12.7516 
G01 X-71.9899 Y12.6857 
G01 X-71.7998 Y12.5889 
G01 X-71.6273 Y12.4635 
G01 X-71.4765 Y12.3127 
G00 Z5.0000 
G00 X-76.7246 Y13.6612 
G01 Z-0.1400 F254.00 
G01 X-77.1612 Y13.2246 F1000.00 
G01 X-77.7788 Y13.2246 
G01 X-78.2154 Y13.6612 
G01 X-78.2154 Y14.2788 
G01 X-77.7788 Y14.7154 
G01 X-77.1612 Y14.7154 
G01 X-76.7246 Y14.2788 
G01 X-76.7246 Y13.6612 
G00 Z5.0000 
G00 X-78.9765 Y12.3127 
G01 Z-0.1400 F254.00 
G01 X-78.8511 Y12.1402 F1000.00 
G01 X-78.7543 Y11.9501 
G01 X-78.6884 Y11.7473 
G01 X-78.6550 Y11.5366 
G01 X-78.6550 Y8.7834 
G01 X-78.6884 Y8.5727 
G01 X-78.7543 Y8.3699 
G01 X-78.8511 Y8.1798 
G01 X-78.9765 Y8.0073 
G01 X-79.1273 Y7.8565 
G01 X-79.2998 Y7.7311 
G01 X-79.4899 Y7.6343 
G01 X-79.6927 Y7.5684 
G01 X-79.9034 Y7.5350 
G01 X-80.1166 Y7.5350 
G01 X-80.3273 Y7.5684 
G01 X-80.5301 Y7.6343 
G01 X-80.7202 Y7.7311 
G01 X-80.8927 Y7.8565 
G01 X-81.0435 Y8.0073 
G01 X-81.1689 Y8.1798 
G01 X-81.2657 Y8.3699 
G01 X-81.3316 Y8.5727 
G01 X-81.3650 Y8.7834 
G01 X-81.3650 Y11.5366 
G01 X-81.3316 Y11.7473 
G01 X-81.2657 Y11.9501 
G01 X-81.1689 Y12.1402 
G01 X-81.0435 Y12.3127 
G01 X-80.8927 Y12.4635 
G01 X-80.7202 Y12.5889 
G01 X-80.5301 Y12.6857 
G01 X-80.3273 Y12.7516 
G01 X-80.1166 Y12.7850 
G01 X-79.9034 Y12.7850 
G01 X-79.6927 Y12.7516 
G01 X-79.4899 Y12.6857 
G01 X-79.2998 Y12.5889 
G01 X-79.1273 Y12.4635 
G01 X-78.9765 Y12.3127 
G00 Z5.0000 
G00 X-78.9574 Y32.9128 
G01 Z-0.1400 F254.00 
G01 X-79.0931 Y32.9690 F1000.00 
G01 X-79.2152 Y33.0506 
G01 X-79.3190 Y33.1544 
G01 X-79.4006 Y33.2765 
G01 X-79.4568 Y33.4122 
G01 X-79.4854 Y33.5562 
G01 X-79.4854 Y35.0238 
G01 X-79.4568 Y35.1678 
G01 X-79.4006 Y35.3035 
G01 X-79.3190 Y35.4256 
G01 X-79.2152 Y35.5294 
G01 X-79.0931 Y35.6110 
G01 X-78.9574 Y35.6672 
G01 X-78.8134 Y35.6958 
G01 X-78.6666 Y35.6958 
G01 X-78.5226 Y35.6672 
G01 X-78.3869 Y35.6110 
G01 X-78.2648 Y35.5294 
G01 X-78.1610 Y35.4256 
G01 X-78.0794 Y35.3035 
G01 X-78.0232 Y35.1678 
G01 X-77.9946 Y35.0238 
G01 X-77.9946 Y33.5562 
G01 X-78.0232 Y33.4122 
G01 X-78.0794 Y33.2765 
G01 X-78.1610 Y33.1544 
G01 X-78.2648 Y33.0506 
G01 X-78.3869 Y32.9690 
G01 X-78.5226 Y32.9128 
G01 X-78.6666 Y32.8842 
G01 X-78.8134 Y32.8842 
G01 X-78.9574 Y32.9128 
G00 Z5.0000 
G00 X-80.8048 Y33.0506 
G01 Z-0.1400 F254.00 
G01 X-80.9269 Y32.9690 F1000.00 
G01 X-81.0626 Y32.9128 
G01 X-81.2066 Y32.8842 
G01 X-81.3534 Y32.8842 
G01 X-81.4974 Y32.9128 
G01 X-81.6331 Y32.9690 
G01 X-81.7552 Y33.0506 
G01 X-81.8590 Y33.1544 
G01 X-81.9406 Y33.2765 
G01 X-81.9968 Y33.4122 
G01 X-82.0254 Y33.5562 
G01 X-82.0254 Y35.0238 
G01 X-81.9968 Y35.1678 
G01 X-81.9406 Y35.3035 
G01 X-81.8590 Y35.4256 
G01 X-81.7552 Y35.5294 
G01 X-81.6331 Y35.6110 
G01 X-81.4974 Y35.6672 
G01 X-81.3534 Y35.6958 
G01 X-81.2066 Y35.6958 
G01 X-81.0626 Y35.6672 
G01 X-80.9269 Y35.6110 
G01 X-80.8048 Y35.5294 
G01 X-80.7010 Y35.4256 
G01 X-80.6194 Y35.3035 
G01 X-80.5632 Y35.1678 
G01 X-80.5346 Y35.0238 
G01 X-80.5346 Y33.5562 
G01 X-80.5632 Y33.4122 
G01 X-80.6194 Y33.2765 
G01 X-80.7010 Y33.1544 
G01 X-80.8048 Y33.0506 
G00 Z5.0000 
G00 X-76.7790 Y33.1544 
G01 Z-0.1400 F254.00 
G01 X-76.8606 Y33.2765 F1000.00 
G01 X-76.9168 Y33.4122 
G01 X-76.9454 Y33.5562 
G01 X-76.9454 Y35.0238 
G01 X-76.9168 Y35.1678 
G01 X-76.8606 Y35.3035 
G01 X-76.7790 Y35.4256 
G01 X-76.6752 Y35.5294 
G01 X-76.5531 Y35.6110 
G01 X-76.4174 Y35.6672 
G01 X-76.2734 Y35.6958 
G01 X-76.1266 Y35.6958 
G01 X-75.9826 Y35.6672 
G01 X-75.8469 Y35.6110 
G01 X-75.7248 Y35.5294 
G01 X-75.6210 Y35.4256 
G01 X-75.5394 Y35.3035 
G01 X-75.4832 Y35.1678 
G01 X-75.4546 Y35.0238 
G01 X-75.4546 Y33.5562 
G01 X-75.4832 Y33.4122 
G01 X-75.5394 Y33.2765 
G01 X-75.6210 Y33.1544 
G01 X-75.7248 Y33.0506 
G01 X-75.8469 Y32.9690 
G01 X-75.9826 Y32.9128 
G01 X-76.1266 Y32.8842 
G01 X-76.2734 Y32.8842 
G01 X-76.4174 Y32.9128 
G01 X-76.5531 Y32.9690 
G01 X-76.6752 Y33.0506 
G01 X-76.7790 Y33.1544 
G00 Z5.0000 
G00 X-74.2390 Y33.1544 
G01 Z-0.1400 F254.00 
G01 X-74.3206 Y33.2765 F1000.00 
G01 X-74.3768 Y33.4122 
G01 X-74.4054 Y33.5562 
G01 X-74.4054 Y35.0238 
G01 X-74.3768 Y35.1678 
G01 X-74.3206 Y35.3035 
G01 X-74.2390 Y35.4256 
G01 X-74.1352 Y35.5294 
G01 X-74.0131 Y35.6110 
G01 X-73.8774 Y35.6672 
G01 X-73.7334 Y35.6958 
G01 X-73.5866 Y35.6958 
G01 X-73.4426 Y35.6672 
G01 X-73.3069 Y35.6110 
G01 X-73.1848 Y35.5294 
G01 X-73.0810 Y35.4256 
G01 X-72.9994 Y35.3035 
G01 X-72.9432 Y35.1678 
G01 X-72.9146 Y35.0238 
G01 X-72.9146 Y33.5562 
G01 X-72.9432 Y33.4122 
G01 X-72.9994 Y33.2765 
G01 X-73.0810 Y33.1544 
G01 X-73.1848 Y33.0506 
G01 X-73.3069 Y32.9690 
G01 X-73.4426 Y32.9128 
G01 X-73.5866 Y32.8842 
G01 X-73.7334 Y32.8842 
G01 X-73.8774 Y32.9128 
G01 X-74.0131 Y32.9690 
G01 X-74.1352 Y33.0506 
G01 X-74.2390 Y33.1544 
G00 Z5.0000 
G00 X-71.6990 Y33.1544 
G01 Z-0.1400 F254.00 
G01 X-71.7806 Y33.2765 F1000.00 
G01 X-71.8368 Y33.4122 
G01 X-71.8654 Y33.5562 
G01 X-71.8654 Y35.0238 
G01 X-71.8368 Y35.1678 
G01 X-71.7806 Y35.3035 
G01 X-71.6990 Y35.4256 
G01 X-71.5952 Y35.5294 
G01 X-71.4731 Y35.6110 
G01 X-71.3374 Y35.6672 
G01 X-71.1934 Y35.6958 
G01 X-71.0466 Y35.6958 
G01 X-70.9026 Y35.6672 
G01 X-70.7669 Y35.6110 
G01 X-70.6448 Y35.5294 
G01 X-70.5410 Y35.4256 
G01 X-70.4594 Y35.3035 
G01 X-70.4032 Y35.1678 
G01 X-70.3746 Y35.0238 
G01 X-70.3746 Y33.5562 
G01 X-70.4032 Y33.4122 
G01 X-70.4594 Y33.2765 
G01 X-70.5410 Y33.1544 
G01 X-70.6448 Y33.0506 
G01 X-70.7669 Y32.9690 
G01 X-70.9026 Y32.9128 
G01 X-71.0466 Y32.8842 
G01 X-71.1934 Y32.8842 
G01 X-71.3374 Y32.9128 
G01 X-71.4731 Y32.9690 
G01 X-71.5952 Y33.0506 
G01 X-71.6990 Y33.1544 
G00 Z5.0000 
G00 X-69.1590 Y33.1544 
G01 Z-0.1400 F254.00 
G01 X-69.2406 Y33.2765 F1000.00 
G01 X-69.2968 Y33.4122 
G01 X-69.3254 Y33.5562 
G01 X-69.3254 Y35.0238 
G01 X-69.2968 Y35.1678 
G01 X-69.2406 Y35.3035 
G01 X-69.1590 Y35.4256 
G01 X-69.0552 Y35.5294 
G01 X-68.9331 Y35.6110 
G01 X-68.7974 Y35.6672 
G01 X-68.6534 Y35.6958 
G01 X-68.5066 Y35.6958 
G01 X-68.3626 Y35.6672 
G01 X-68.2269 Y35.6110 
G01 X-68.1048 Y35.5294 
G01 X-68.0010 Y35.4256 
G01 X-67.9194 Y35.3035 
G01 X-67.8632 Y35.1678 
G01 X-67.8346 Y35.0238 
G01 X-67.8346 Y33.5562 
G01 X-67.8632 Y33.4122 
G01 X-67.9194 Y33.2765 
G01 X-68.0010 Y33.1544 
G01 X-68.1048 Y33.0506 
G01 X-68.2269 Y32.9690 
G01 X-68.3626 Y32.9128 
G01 X-68.5066 Y32.8842 
G01 X-68.6534 Y32.8842 
G01 X-68.7974 Y32.9128 
G01 X-68.9331 Y32.9690 
G01 X-69.0552 Y33.0506 
G01 X-69.1590 Y33.1544 
G00 Z5.0000 
G00 X-66.6190 Y33.1544 
G01 Z-0.1400 F254.00 
G01 X-66.7006 Y33.2765 F1000.00 
G01 X-66.7568 Y33.4122 
G01 X-66.7854 Y33.5562 
G01 X-66.7854 Y35.0238 
G01 X-66.7568 Y35.1678 
G01 X-66.7006 Y35.3035 
G01 X-66.6190 Y35.4256 
G01 X-66.5152 Y35.5294 
G01 X-66.3931 Y35.6110 
G01 X-66.2574 Y35.6672 
G01 X-66.1134 Y35.6958 
G01 X-65.9666 Y35.6958 
G01 X-65.8226 Y35.6672 
G01 X-65.6869 Y35.6110 
G01 X-65.5648 Y35.5294 
G01 X-65.4610 Y35.4256 
G01 X-65.3794 Y35.3035 
G01 X-65.3232 Y35.1678 
G01 X-65.2946 Y35.0238 
G01 X-65.2946 Y33.5562 
G01 X-65.3232 Y33.4122 
G01 X-65.3794 Y33.2765 
G01 X-65.4610 Y33.1544 
G01 X-65.5648 Y33.0506 
G01 X-65.6869 Y32.9690 
G01 X-65.8226 Y32.9128 
G01 X-65.9666 Y32.8842 
G01 X-66.1134 Y32.8842 
G01 X-66.2574 Y32.9128 
G01 X-66.3931 Y32.9690 
G01 X-66.5152 Y33.0506 
G01 X-66.6190 Y33.1544 
G00 Z5.0000 
G00 X-64.2454 Y33.9812 
G01 Z-0.1400 F254.00 
G01 X-64.2454 Y34.5988 F1000.00 
G01 X-63.8088 Y35.0354 
G01 X-63.1912 Y35.0354 
G01 X-62.7546 Y34.5988 
G01 X-62.7546 Y33.9812 
G01 X-63.1912 Y33.5446 
G01 X-63.8088 Y33.5446 
G01 X-64.2454 Y33.9812 
G00 Z5.0000 
G00 X-59.1654 Y33.5562 
G01 Z-0.1400 F254.00 
G01 X-59.1654 Y35.0238 F1000.00 
G01 X-59.1368 Y35.1678 
G01 X-59.0806 Y35.3035 
G01 X-58.9990 Y35.4256 
G01 X-58.8952 Y35.5294 
G01 X-58.7731 Y35.6110 
G01 X-58.6374 Y35.6672 
G01 X-58.4934 Y35.6958 
G01 X-58.3466 Y35.6958 
G01 X-58.2026 Y35.6672 
G01 X-58.0669 Y35.6110 
G01 X-57.9448 Y35.5294 
G01 X-57.8410 Y35.4256 
G01 X-57.7594 Y35.3035 
G01 X-57.7032 Y35.1678 
G01 X-57.6746 Y35.0238 
G01 X-57.6746 Y33.5562 
G01 X-57.7032 Y33.4122 
G01 X-57.7594 Y33.2765 
G01 X-57.8410 Y33.1544 
G01 X-57.9448 Y33.0506 
G01 X-58.0669 Y32.9690 
G01 X-58.2026 Y32.9128 
G01 X-58.3466 Y32.8842 
G01 X-58.4934 Y32.8842 
G01 X-58.6374 Y32.9128 
G01 X-58.7731 Y32.9690 
G01 X-58.8952 Y33.0506 
G01 X-58.9990 Y33.1544 
G01 X-59.0806 Y33.2765 
G01 X-59.1368 Y33.4122 
G01 X-59.1654 Y33.5562 
G00 Z5.0000 
G00 X-56.6254 Y33.5562 
G01 Z-0.1400 F254.00 
G01 X-56.6254 Y35.0238 F1000.00 
G01 X-56.5968 Y35.1678 
G01 X-56.5406 Y35.3035 
G01 X-56.4590 Y35.4256 
G01 X-56.3552 Y35.5294 
G01 X-56.2331 Y35.6110 
G01 X-56.0974 Y35.6672 
G01 X-55.9534 Y35.6958 
G01 X-55.8066 Y35.6958 
G01 X-55.6626 Y35.6672 
G01 X-55.5269 Y35.6110 
G01 X-55.4048 Y35.5294 
G01 X-55.3010 Y35.4256 
G01 X-55.2194 Y35.3035 
G01 X-55.1632 Y35.1678 
G01 X-55.1346 Y35.0238 
G01 X-55.1346 Y33.5562 
G01 X-55.1632 Y33.4122 
G01 X-55.2194 Y33.2765 
G01 X-55.3010 Y33.1544 
G01 X-55.4048 Y33.0506 
G01 X-55.5269 Y32.9690 
G01 X-55.6626 Y32.9128 
G01 X-55.8066 Y32.8842 
G01 X-55.9534 Y32.8842 
G01 X-56.0974 Y32.9128 
G01 X-56.2331 Y32.9690 
G01 X-56.3552 Y33.0506 
G01 X-56.4590 Y33.1544 
G01 X-56.5406 Y33.2765 
G01 X-56.5968 Y33.4122 
G01 X-56.6254 Y33.5562 
G00 Z5.0000 
G00 X-54.0854 Y33.5562 
G01 Z-0.1400 F254.00 
G01 X-54.0854 Y35.0238 F1000.00 
G01 X-54.0568 Y35.1678 
G01 X-54.0006 Y35.3035 
G01 X-53.9190 Y35.4256 
G01 X-53.8152 Y35.5294 
G01 X-53.6931 Y35.6110 
G01 X-53.5574 Y35.6672 
G01 X-53.4134 Y35.6958 
G01 X-53.2666 Y35.6958 
G01 X-53.1226 Y35.6672 
G01 X-52.9869 Y35.6110 
G01 X-52.8648 Y35.5294 
G01 X-52.7610 Y35.4256 
G01 X-52.6794 Y35.3035 
G01 X-52.6232 Y35.1678 
G01 X-52.5946 Y35.0238 
G01 X-52.5946 Y33.5562 
G01 X-52.6232 Y33.4122 
G01 X-52.6794 Y33.2765 
G01 X-52.7610 Y33.1544 
G01 X-52.8648 Y33.0506 
G01 X-52.9869 Y32.9690 
G01 X-53.1226 Y32.9128 
G01 X-53.2666 Y32.8842 
G01 X-53.4134 Y32.8842 
G01 X-53.5574 Y32.9128 
G01 X-53.6931 Y32.9690 
G01 X-53.8152 Y33.0506 
G01 X-53.9190 Y33.1544 
G01 X-54.0006 Y33.2765 
G01 X-54.0568 Y33.4122 
G01 X-54.0854 Y33.5562 
G00 Z5.0000 
G00 X-51.5454 Y33.5562 
G01 Z-0.1400 F254.00 
G01 X-51.5454 Y35.0238 F1000.00 
G01 X-51.5168 Y35.1678 
G01 X-51.4606 Y35.3035 
G01 X-51.3790 Y35.4256 
G01 X-51.2752 Y35.5294 
G01 X-51.1531 Y35.6110 
G01 X-51.0174 Y35.6672 
G01 X-50.8734 Y35.6958 
G01 X-50.7266 Y35.6958 
G01 X-50.5826 Y35.6672 
G01 X-50.4469 Y35.6110 
G01 X-50.3248 Y35.5294 
G01 X-50.2210 Y35.4256 
G01 X-50.1394 Y35.3035 
G01 X-50.0832 Y35.1678 
G01 X-50.0546 Y35.0238 
G01 X-50.0546 Y33.5562 
G01 X-50.0832 Y33.4122 
G01 X-50.1394 Y33.2765 
G01 X-50.2210 Y33.1544 
G01 X-50.3248 Y33.0506 
G01 X-50.4469 Y32.9690 
G01 X-50.5826 Y32.9128 
G01 X-50.7266 Y32.8842 
G01 X-50.8734 Y32.8842 
G01 X-51.0174 Y32.9128 
G01 X-51.1531 Y32.9690 
G01 X-51.2752 Y33.0506 
G01 X-51.3790 Y33.1544 
G01 X-51.4606 Y33.2765 
G01 X-51.5168 Y33.4122 
G01 X-51.5454 Y33.5562 
G00 Z5.0000 
G00 X-51.5454 Y36.5212 
G01 Z-0.1400 F254.00 
G01 X-51.5454 Y37.1388 F1000.00 
G01 X-51.1088 Y37.5754 
G01 X-50.4912 Y37.5754 
G01 X-50.0546 Y37.1388 
G01 X-50.0546 Y36.5212 
G01 X-50.4912 Y36.0846 
G01 X-51.1088 Y36.0846 
G01 X-51.5454 Y36.5212 
G00 Z5.0000 
G00 X-51.4209 Y38.6134 
G01 Z-0.1400 F254.00 
G01 X-51.5566 Y38.7491 F1000.00 
G01 X-51.6431 Y38.8786 
G01 X-57.5769 Y38.8786 
G01 X-57.6634 Y38.7491 
G01 X-57.7991 Y38.6134 
G01 X-57.9586 Y38.5069 
G01 X-58.1359 Y38.4334 
G01 X-58.3241 Y38.3960 
G01 X-58.5159 Y38.3960 
G01 X-58.7041 Y38.4334 
G01 X-58.8814 Y38.5069 
G01 X-59.0409 Y38.6134 
G01 X-59.1766 Y38.7491 
G01 X-59.2831 Y38.9086 
G01 X-59.3566 Y39.0859 
G01 X-59.3940 Y39.2741 
G01 X-59.3940 Y39.4659 
G01 X-59.3566 Y39.6541 
G01 X-59.2831 Y39.8314 
G01 X-59.1766 Y39.9909 
G01 X-59.0409 Y40.1266 
G01 X-58.8814 Y40.2331 
G01 X-58.7041 Y40.3066 
G01 X-58.5159 Y40.3440 
G01 X-58.3241 Y40.3440 
G01 X-58.1359 Y40.3066 
G01 X-57.9586 Y40.2331 
G01 X-57.7991 Y40.1266 
G01 X-57.6634 Y39.9909 
G01 X-57.5769 Y39.8614 
G01 X-51.6431 Y39.8614 
G01 X-51.5566 Y39.9909 
G01 X-51.4209 Y40.1266 
G01 X-51.2614 Y40.2331 
G01 X-51.0841 Y40.3066 
G01 X-50.8959 Y40.3440 
G01 X-50.7041 Y40.3440 
G01 X-50.5159 Y40.3066 
G01 X-50.3386 Y40.2331 
G01 X-50.1791 Y40.1266 
G01 X-50.0434 Y39.9909 
G01 X-49.9369 Y39.8314 
G01 X-49.8634 Y39.6541 
G01 X-49.8260 Y39.4659 
G01 X-49.8260 Y39.2741 
G01 X-49.8634 Y39.0859 
G01 X-49.9369 Y38.9086 
G01 X-50.0434 Y38.7491 
G01 X-50.1791 Y38.6134 
G01 X-50.3386 Y38.5069 
G01 X-50.5159 Y38.4334 
G01 X-50.7041 Y38.3960 
G01 X-50.8959 Y38.3960 
G01 X-51.0841 Y38.4334 
G01 X-51.2614 Y38.5069 
G01 X-51.4209 Y38.6134 
G00 Z5.0000 
G00 X-49.0166 Y38.7491 
G01 Z-0.1400 F254.00 
G01 X-49.1231 Y38.9086 F1000.00 
G01 X-49.1966 Y39.0859 
G01 X-49.2340 Y39.2741 
G01 X-49.2340 Y39.4659 
G01 X-49.1966 Y39.6541 
G01 X-49.1231 Y39.8314 
G01 X-49.0166 Y39.9909 
G01 X-48.8809 Y40.1266 
G01 X-48.7214 Y40.2331 
G01 X-48.5441 Y40.3066 
G01 X-48.3559 Y40.3440 
G01 X-48.1641 Y40.3440 
G01 X-47.9759 Y40.3066 
G01 X-47.7986 Y40.2331 
G01 X-47.6391 Y40.1266 
G01 X-47.5034 Y39.9909 
G01 X-47.4169 Y39.8614 
G01 X-38.9431 Y39.8614 
G01 X-38.8566 Y39.9909 
G01 X-38.7209 Y40.1266 
G01 X-38.5614 Y40.2331 
G01 X-38.3841 Y40.3066 
G01 X-38.1959 Y40.3440 
G01 X-38.0041 Y40.3440 
G01 X-37.8159 Y40.3066 
G01 X-37.6386 Y40.2331 
G01 X-37.4791 Y40.1266 
G01 X-37.3434 Y39.9909 
G01 X-37.2369 Y39.8314 
G01 X-37.1634 Y39.6541 
G01 X-37.1260 Y39.4659 
G01 X-37.1260 Y39.2741 
G01 X-37.1634 Y39.0859 
G01 X-37.2369 Y38.9086 
G01 X-37.3434 Y38.7491 
G01 X-37.4791 Y38.6134 
G01 X-37.6386 Y38.5069 
G01 X-37.8159 Y38.4334 
G01 X-38.0041 Y38.3960 
G01 X-38.1959 Y38.3960 
G01 X-38.3841 Y38.4334 
G01 X-38.5614 Y38.5069 
G01 X-38.7209 Y38.6134 
G01 X-38.8566 Y38.7491 
G01 X-38.9431 Y38.8786 
G01 X-47.4169 Y38.8786 
G01 X-47.5034 Y38.7491 
G01 X-47.6391 Y38.6134 
G01 X-47.7986 Y38.5069 
G01 X-47.9759 Y38.4334 
G01 X-48.1641 Y38.3960 
G01 X-48.3559 Y38.3960 
G01 X-48.5441 Y38.4334 
G01 X-48.7214 Y38.5069 
G01 X-48.8809 Y38.6134 
G01 X-49.0166 Y38.7491 
G00 Z5.0000 
G00 X-49.2212 Y41.1646 
G01 Z-0.1400 F254.00 
G01 X-49.8388 Y41.1646 F1000.00 
G01 X-50.2754 Y41.6012 
G01 X-50.2754 Y42.2188 
G01 X-49.8388 Y42.6554 
G01 X-49.2212 Y42.6554 
G01 X-48.7846 Y42.2188 
G01 X-48.7846 Y41.6012 
G01 X-49.2212 Y41.1646 
G00 Z5.0000 
G00 X-51.3246 Y45.4112 
G01 Z-0.1400 F254.00 
G01 X-51.7612 Y44.9746 F1000.00 
G01 X-52.3788 Y44.9746 
G01 X-52.8154 Y45.4112 
G01 X-52.8154 Y46.0288 
G01 X-52.3788 Y46.4654 
G01 X-51.7612 Y46.4654 
G01 X-51.3246 Y46.0288 
G01 X-51.3246 Y45.4112 
G00 Z5.0000 
G00 X-51.2752 Y48.2906 
G01 Z-0.1400 F254.00 
G01 X-51.3790 Y48.3944 F1000.00 
G01 X-51.4606 Y48.5165 
G01 X-51.5168 Y48.6522 
G01 X-51.5454 Y48.7962 
G01 X-51.5454 Y50.2638 
G01 X-51.5168 Y50.4078 
G01 X-51.4606 Y50.5435 
G01 X-51.3790 Y50.6656 
G01 X-51.2752 Y50.7694 
G01 X-51.1531 Y50.8510 
G01 X-51.0174 Y50.9072 
G01 X-50.8734 Y50.9358 
G01 X-50.7266 Y50.9358 
G01 X-50.5826 Y50.9072 
G01 X-50.4469 Y50.8510 
G01 X-50.3248 Y50.7694 
G01 X-50.2210 Y50.6656 
G01 X-50.1394 Y50.5435 
G01 X-50.0832 Y50.4078 
G01 X-50.0546 Y50.2638 
G01 X-50.0546 Y48.7962 
G01 X-50.0832 Y48.6522 
G01 X-50.1394 Y48.5165 
G01 X-50.2210 Y48.3944 
G01 X-50.3248 Y48.2906 
G01 X-50.4469 Y48.2090 
G01 X-50.5826 Y48.1528 
G01 X-50.7266 Y48.1242 
G01 X-50.8734 Y48.1242 
G01 X-51.0174 Y48.1528 
G01 X-51.1531 Y48.2090 
G01 X-51.2752 Y48.2906 
G00 Z5.0000 
G00 X-48.8390 Y48.3944 
G01 Z-0.1400 F254.00 
G01 X-48.9206 Y48.5165 F1000.00 
G01 X-48.9768 Y48.6522 
G01 X-49.0054 Y48.7962 
G01 X-49.0054 Y50.2638 
G01 X-48.9768 Y50.4078 
G01 X-48.9206 Y50.5435 
G01 X-48.8390 Y50.6656 
G01 X-48.7352 Y50.7694 
G01 X-48.6131 Y50.8510 
G01 X-48.4774 Y50.9072 
G01 X-48.3334 Y50.9358 
G01 X-48.1866 Y50.9358 
G01 X-48.0426 Y50.9072 
G01 X-47.9069 Y50.8510 
G01 X-47.7848 Y50.7694 
G01 X-47.6810 Y50.6656 
G01 X-47.5994 Y50.5435 
G01 X-47.5432 Y50.4078 
G01 X-47.5146 Y50.2638 
G01 X-47.5146 Y48.7962 
G01 X-47.5432 Y48.6522 
G01 X-47.5994 Y48.5165 
G01 X-47.6810 Y48.3944 
G01 X-47.7848 Y48.2906 
G01 X-47.9069 Y48.2090 
G01 X-48.0426 Y48.1528 
G01 X-48.1866 Y48.1242 
G01 X-48.3334 Y48.1242 
G01 X-48.4774 Y48.1528 
G01 X-48.6131 Y48.2090 
G01 X-48.7352 Y48.2906 
G01 X-48.8390 Y48.3944 
G00 Z5.0000 
G00 X-46.2990 Y48.3944 
G01 Z-0.1400 F254.00 
G01 X-46.3806 Y48.5165 F1000.00 
G01 X-46.4368 Y48.6522 
G01 X-46.4654 Y48.7962 
G01 X-46.4654 Y50.2638 
G01 X-46.4368 Y50.4078 
G01 X-46.3806 Y50.5435 
G01 X-46.2990 Y50.6656 
G01 X-46.1952 Y50.7694 
G01 X-46.0731 Y50.8510 
G01 X-45.9374 Y50.9072 
G01 X-45.7934 Y50.9358 
G01 X-45.6466 Y50.9358 
G01 X-45.5026 Y50.9072 
G01 X-45.3669 Y50.8510 
G01 X-45.2448 Y50.7694 
G01 X-45.1410 Y50.6656 
G01 X-45.0594 Y50.5435 
G01 X-45.0032 Y50.4078 
G01 X-44.9746 Y50.2638 
G01 X-44.9746 Y48.7962 
G01 X-45.0032 Y48.6522 
G01 X-45.0594 Y48.5165 
G01 X-45.1410 Y48.3944 
G01 X-45.2448 Y48.2906 
G01 X-45.3669 Y48.2090 
G01 X-45.5026 Y48.1528 
G01 X-45.6466 Y48.1242 
G01 X-45.7934 Y48.1242 
G01 X-45.9374 Y48.1528 
G01 X-46.0731 Y48.2090 
G01 X-46.1952 Y48.2906 
G01 X-46.2990 Y48.3944 
G00 Z5.0000 
G00 X-43.7590 Y48.3944 
G01 Z-0.1400 F254.00 
G01 X-43.8406 Y48.5165 F1000.00 
G01 X-43.8968 Y48.6522 
G01 X-43.9254 Y48.7962 
G01 X-43.9254 Y50.2638 
G01 X-43.8968 Y50.4078 
G01 X-43.8406 Y50.5435 
G01 X-43.7590 Y50.6656 
G01 X-43.6552 Y50.7694 
G01 X-43.5331 Y50.8510 
G01 X-43.3974 Y50.9072 
G01 X-43.2534 Y50.9358 
G01 X-43.1066 Y50.9358 
G01 X-42.9626 Y50.9072 
G01 X-42.8269 Y50.8510 
G01 X-42.7048 Y50.7694 
G01 X-42.6010 Y50.6656 
G01 X-42.5194 Y50.5435 
G01 X-42.4632 Y50.4078 
G01 X-42.4346 Y50.2638 
G01 X-42.4346 Y48.7962 
G01 X-42.4632 Y48.6522 
G01 X-42.5194 Y48.5165 
G01 X-42.6010 Y48.3944 
G01 X-42.7048 Y48.2906 
G01 X-42.8269 Y48.2090 
G01 X-42.9626 Y48.1528 
G01 X-43.1066 Y48.1242 
G01 X-43.2534 Y48.1242 
G01 X-43.3974 Y48.1528 
G01 X-43.5331 Y48.2090 
G01 X-43.6552 Y48.2906 
G01 X-43.7590 Y48.3944 
G00 Z5.0000 
G00 X-41.2190 Y48.3944 
G01 Z-0.1400 F254.00 
G01 X-41.3006 Y48.5165 F1000.00 
G01 X-41.3568 Y48.6522 
G01 X-41.3854 Y48.7962 
G01 X-41.3854 Y50.2638 
G01 X-41.3568 Y50.4078 
G01 X-41.3006 Y50.5435 
G01 X-41.2190 Y50.6656 
G01 X-41.1152 Y50.7694 
G01 X-40.9931 Y50.8510 
G01 X-40.8574 Y50.9072 
G01 X-40.7134 Y50.9358 
G01 X-40.5666 Y50.9358 
G01 X-40.4226 Y50.9072 
G01 X-40.2869 Y50.8510 
G01 X-40.1648 Y50.7694 
G01 X-40.0610 Y50.6656 
G01 X-39.9794 Y50.5435 
G01 X-39.9232 Y50.4078 
G01 X-39.8946 Y50.2638 
G01 X-39.8946 Y48.7962 
G01 X-39.9232 Y48.6522 
G01 X-39.9794 Y48.5165 
G01 X-40.0610 Y48.3944 
G01 X-40.1648 Y48.2906 
G01 X-40.2869 Y48.2090 
G01 X-40.4226 Y48.1528 
G01 X-40.5666 Y48.1242 
G01 X-40.7134 Y48.1242 
G01 X-40.8574 Y48.1528 
G01 X-40.9931 Y48.2090 
G01 X-41.1152 Y48.2906 
G01 X-41.2190 Y48.3944 
G00 Z5.0000 
G00 X-38.6790 Y48.3944 
G01 Z-0.1400 F254.00 
G01 X-38.7606 Y48.5165 F1000.00 
G01 X-38.8168 Y48.6522 
G01 X-38.8454 Y48.7962 
G01 X-38.8454 Y50.2638 
G01 X-38.8168 Y50.4078 
G01 X-38.7606 Y50.5435 
G01 X-38.6790 Y50.6656 
G01 X-38.5752 Y50.7694 
G01 X-38.4531 Y50.8510 
G01 X-38.3174 Y50.9072 
G01 X-38.1734 Y50.9358 
G01 X-38.0266 Y50.9358 
G01 X-37.8826 Y50.9072 
G01 X-37.7469 Y50.8510 
G01 X-37.6248 Y50.7694 
G01 X-37.5210 Y50.6656 
G01 X-37.4394 Y50.5435 
G01 X-37.3832 Y50.4078 
G01 X-37.3546 Y50.2638 
G01 X-37.3546 Y48.7962 
G01 X-37.3832 Y48.6522 
G01 X-37.4394 Y48.5165 
G01 X-37.5210 Y48.3944 
G01 X-37.6248 Y48.2906 
G01 X-37.7469 Y48.2090 
G01 X-37.8826 Y48.1528 
G01 X-38.0266 Y48.1242 
G01 X-38.1734 Y48.1242 
G01 X-38.3174 Y48.1528 
G01 X-38.4531 Y48.2090 
G01 X-38.5752 Y48.2906 
G01 X-38.6790 Y48.3944 
G00 Z5.0000 
G00 X-36.1390 Y48.3944 
G01 Z-0.1400 F254.00 
G01 X-36.2206 Y48.5165 F1000.00 
G01 X-36.2768 Y48.6522 
G01 X-36.3054 Y48.7962 
G01 X-36.3054 Y50.2638 
G01 X-36.2768 Y50.4078 
G01 X-36.2206 Y50.5435 
G01 X-36.1390 Y50.6656 
G01 X-36.0352 Y50.7694 
G01 X-35.9131 Y50.8510 
G01 X-35.7774 Y50.9072 
G01 X-35.6334 Y50.9358 
G01 X-35.4866 Y50.9358 
G01 X-35.3426 Y50.9072 
G01 X-35.2069 Y50.8510 
G01 X-35.0848 Y50.7694 
G01 X-34.9810 Y50.6656 
G01 X-34.8994 Y50.5435 
G01 X-34.8432 Y50.4078 
G01 X-34.8146 Y50.2638 
G01 X-34.8146 Y48.7962 
G01 X-34.8432 Y48.6522 
G01 X-34.8994 Y48.5165 
G01 X-34.9810 Y48.3944 
G01 X-35.0848 Y48.2906 
G01 X-35.2069 Y48.2090 
G01 X-35.3426 Y48.1528 
G01 X-35.4866 Y48.1242 
G01 X-35.6334 Y48.1242 
G01 X-35.7774 Y48.1528 
G01 X-35.9131 Y48.2090 
G01 X-36.0352 Y48.2906 
G01 X-36.1390 Y48.3944 
G00 Z5.0000 
G00 X-33.5990 Y48.3944 
G01 Z-0.1400 F254.00 
G01 X-33.6806 Y48.5165 F1000.00 
G01 X-33.7368 Y48.6522 
G01 X-33.7654 Y48.7962 
G01 X-33.7654 Y50.2638 
G01 X-33.7368 Y50.4078 
G01 X-33.6806 Y50.5435 
G01 X-33.5990 Y50.6656 
G01 X-33.4952 Y50.7694 
G01 X-33.3731 Y50.8510 
G01 X-33.2374 Y50.9072 
G01 X-33.0934 Y50.9358 
G01 X-32.9466 Y50.9358 
G01 X-32.8026 Y50.9072 
G01 X-32.6669 Y50.8510 
G01 X-32.5448 Y50.7694 
G01 X-32.4410 Y50.6656 
G01 X-32.3594 Y50.5435 
G01 X-32.3032 Y50.4078 
G01 X-32.2746 Y50.2638 
G01 X-32.2746 Y48.7962 
G01 X-32.3032 Y48.6522 
G01 X-32.3594 Y48.5165 
G01 X-32.4410 Y48.3944 
G01 X-32.5448 Y48.2906 
G01 X-32.6669 Y48.2090 
G01 X-32.8026 Y48.1528 
G01 X-32.9466 Y48.1242 
G01 X-33.0934 Y48.1242 
G01 X-33.2374 Y48.1528 
G01 X-33.3731 Y48.2090 
G01 X-33.4952 Y48.2906 
G01 X-33.5990 Y48.3944 
G00 Z5.0000 
G00 X-31.0590 Y48.3944 
G01 Z-0.1400 F254.00 
G01 X-31.1406 Y48.5165 F1000.00 
G01 X-31.1968 Y48.6522 
G01 X-31.2254 Y48.7962 
G01 X-31.2254 Y50.2638 
G01 X-31.1968 Y50.4078 
G01 X-31.1406 Y50.5435 
G01 X-31.0590 Y50.6656 
G01 X-30.9552 Y50.7694 
G01 X-30.8331 Y50.8510 
G01 X-30.6974 Y50.9072 
G01 X-30.5534 Y50.9358 
G01 X-30.4066 Y50.9358 
G01 X-30.2626 Y50.9072 
G01 X-30.1269 Y50.8510 
G01 X-30.0048 Y50.7694 
G01 X-29.9010 Y50.6656 
G01 X-29.8194 Y50.5435 
G01 X-29.7632 Y50.4078 
G01 X-29.7346 Y50.2638 
G01 X-29.7346 Y48.7962 
G01 X-29.7632 Y48.6522 
G01 X-29.8194 Y48.5165 
G01 X-29.9010 Y48.3944 
G01 X-30.0048 Y48.2906 
G01 X-30.1269 Y48.2090 
G01 X-30.2626 Y48.1528 
G01 X-30.4066 Y48.1242 
G01 X-30.5534 Y48.1242 
G01 X-30.6974 Y48.1528 
G01 X-30.8331 Y48.2090 
G01 X-30.9552 Y48.2906 
G01 X-31.0590 Y48.3944 
G00 Z5.0000 
G00 X-28.5190 Y48.3944 
G01 Z-0.1400 F254.00 
G01 X-28.6006 Y48.5165 F1000.00 
G01 X-28.6568 Y48.6522 
G01 X-28.6854 Y48.7962 
G01 X-28.6854 Y50.2638 
G01 X-28.6568 Y50.4078 
G01 X-28.6006 Y50.5435 
G01 X-28.5190 Y50.6656 
G01 X-28.4152 Y50.7694 
G01 X-28.2931 Y50.8510 
G01 X-28.1574 Y50.9072 
G01 X-28.0134 Y50.9358 
G01 X-27.8666 Y50.9358 
G01 X-27.7226 Y50.9072 
G01 X-27.5869 Y50.8510 
G01 X-27.4648 Y50.7694 
G01 X-27.3610 Y50.6656 
G01 X-27.2794 Y50.5435 
G01 X-27.2232 Y50.4078 
G01 X-27.1946 Y50.2638 
G01 X-27.1946 Y48.7962 
G01 X-27.2232 Y48.6522 
G01 X-27.2794 Y48.5165 
G01 X-27.3610 Y48.3944 
G01 X-27.4648 Y48.2906 
G01 X-27.5869 Y48.2090 
G01 X-27.7226 Y48.1528 
G01 X-27.8666 Y48.1242 
G01 X-28.0134 Y48.1242 
G01 X-28.1574 Y48.1528 
G01 X-28.2931 Y48.2090 
G01 X-28.4152 Y48.2906 
G01 X-28.5190 Y48.3944 
G00 Z5.0000 
G00 X-25.9790 Y48.3944 
G01 Z-0.1400 F254.00 
G01 X-26.0606 Y48.5165 F1000.00 
G01 X-26.1168 Y48.6522 
G01 X-26.1454 Y48.7962 
G01 X-26.1454 Y50.2638 
G01 X-26.1168 Y50.4078 
G01 X-26.0606 Y50.5435 
G01 X-25.9790 Y50.6656 
G01 X-25.8752 Y50.7694 
G01 X-25.7531 Y50.8510 
G01 X-25.6174 Y50.9072 
G01 X-25.4734 Y50.9358 
G01 X-25.3266 Y50.9358 
G01 X-25.1826 Y50.9072 
G01 X-25.0469 Y50.8510 
G01 X-24.9248 Y50.7694 
G01 X-24.8210 Y50.6656 
G01 X-24.7394 Y50.5435 
G01 X-24.6832 Y50.4078 
G01 X-24.6546 Y50.2638 
G01 X-24.6546 Y48.7962 
G01 X-24.6832 Y48.6522 
G01 X-24.7394 Y48.5165 
G01 X-24.8210 Y48.3944 
G01 X-24.9248 Y48.2906 
G01 X-25.0469 Y48.2090 
G01 X-25.1826 Y48.1528 
G01 X-25.3266 Y48.1242 
G01 X-25.4734 Y48.1242 
G01 X-25.6174 Y48.1528 
G01 X-25.7531 Y48.2090 
G01 X-25.8752 Y48.2906 
G01 X-25.9790 Y48.3944 
G00 Z5.0000 
G00 X-23.4390 Y48.3944 
G01 Z-0.1400 F254.00 
G01 X-23.5206 Y48.5165 F1000.00 
G01 X-23.5768 Y48.6522 
G01 X-23.6054 Y48.7962 
G01 X-23.6054 Y50.2638 
G01 X-23.5768 Y50.4078 
G01 X-23.5206 Y50.5435 
G01 X-23.4390 Y50.6656 
G01 X-23.3352 Y50.7694 
G01 X-23.2131 Y50.8510 
G01 X-23.0774 Y50.9072 
G01 X-22.9334 Y50.9358 
G01 X-22.7866 Y50.9358 
G01 X-22.6426 Y50.9072 
G01 X-22.5069 Y50.8510 
G01 X-22.3848 Y50.7694 
G01 X-22.2810 Y50.6656 
G01 X-22.1994 Y50.5435 
G01 X-22.1432 Y50.4078 
G01 X-22.1146 Y50.2638 
G01 X-22.1146 Y48.7962 
G01 X-22.1432 Y48.6522 
G01 X-22.1994 Y48.5165 
G01 X-22.2810 Y48.3944 
G01 X-22.3848 Y48.2906 
G01 X-22.5069 Y48.2090 
G01 X-22.6426 Y48.1528 
G01 X-22.7866 Y48.1242 
G01 X-22.9334 Y48.1242 
G01 X-23.0774 Y48.1528 
G01 X-23.2131 Y48.2090 
G01 X-23.3352 Y48.2906 
G01 X-23.4390 Y48.3944 
G00 Z5.0000 
G00 X-20.8990 Y48.3944 
G01 Z-0.1400 F254.00 
G01 X-20.9806 Y48.5165 F1000.00 
G01 X-21.0368 Y48.6522 
G01 X-21.0654 Y48.7962 
G01 X-21.0654 Y50.2638 
G01 X-21.0368 Y50.4078 
G01 X-20.9806 Y50.5435 
G01 X-20.8990 Y50.6656 
G01 X-20.7952 Y50.7694 
G01 X-20.6731 Y50.8510 
G01 X-20.5374 Y50.9072 
G01 X-20.3934 Y50.9358 
G01 X-20.2466 Y50.9358 
G01 X-20.1026 Y50.9072 
G01 X-19.9669 Y50.8510 
G01 X-19.8448 Y50.7694 
G01 X-19.7410 Y50.6656 
G01 X-19.6594 Y50.5435 
G01 X-19.6032 Y50.4078 
G01 X-19.5746 Y50.2638 
G01 X-19.5746 Y48.7962 
G01 X-19.6032 Y48.6522 
G01 X-19.6594 Y48.5165 
G01 X-19.7410 Y48.3944 
G01 X-19.8448 Y48.2906 
G01 X-19.9669 Y48.2090 
G01 X-20.1026 Y48.1528 
G01 X-20.2466 Y48.1242 
G01 X-20.3934 Y48.1242 
G01 X-20.5374 Y48.1528 
G01 X-20.6731 Y48.2090 
G01 X-20.7952 Y48.2906 
G01 X-20.8990 Y48.3944 
G00 Z5.0000 
G00 X-18.3590 Y48.3944 
G01 Z-0.1400 F254.00 
G01 X-18.4406 Y48.5165 F1000.00 
G01 X-18.4968 Y48.6522 
G01 X-18.5254 Y48.7962 
G01 X-18.5254 Y50.2638 
G01 X-18.4968 Y50.4078 
G01 X-18.4406 Y50.5435 
G01 X-18.3590 Y50.6656 
G01 X-18.2552 Y50.7694 
G01 X-18.1331 Y50.8510 
G01 X-17.9974 Y50.9072 
G01 X-17.8534 Y50.9358 
G01 X-17.7066 Y50.9358 
G01 X-17.5626 Y50.9072 
G01 X-17.4269 Y50.8510 
G01 X-17.3048 Y50.7694 
G01 X-17.2010 Y50.6656 
G01 X-17.1194 Y50.5435 
G01 X-17.0632 Y50.4078 
G01 X-17.0346 Y50.2638 
G01 X-17.0346 Y48.7962 
G01 X-17.0632 Y48.6522 
G01 X-17.1194 Y48.5165 
G01 X-17.2010 Y48.3944 
G01 X-17.3048 Y48.2906 
G01 X-17.4269 Y48.2090 
G01 X-17.5626 Y48.1528 
G01 X-17.7066 Y48.1242 
G01 X-17.8534 Y48.1242 
G01 X-17.9974 Y48.1528 
G01 X-18.1331 Y48.2090 
G01 X-18.2552 Y48.2906 
G01 X-18.3590 Y48.3944 
G00 Z5.0000 
G00 X-18.7412 Y45.1954 
G01 Z-0.1400 F254.00 
G01 X-18.3046 Y44.7588 F1000.00 
G01 X-18.3046 Y44.1412 
G01 X-18.7412 Y43.7046 
G01 X-19.3588 Y43.7046 
G01 X-19.7954 Y44.1412 
G01 X-19.7954 Y44.7588 
G01 X-19.3588 Y45.1954 
G01 X-18.7412 Y45.1954 
G00 Z5.0000 
G00 X-18.7412 Y42.6554 
G01 Z-0.1400 F254.00 
G01 X-18.3046 Y42.2188 F1000.00 
G01 X-18.3046 Y41.6012 
G01 X-18.7412 Y41.1646 
G01 X-19.3588 Y41.1646 
G01 X-19.7954 Y41.6012 
G01 X-19.7954 Y42.2188 
G01 X-19.3588 Y42.6554 
G01 X-18.7412 Y42.6554 
G00 Z5.0000 
G00 X-14.2788 Y42.6554 
G01 Z-0.1400 F254.00 
G01 X-13.6612 Y42.6554 F1000.00 
G01 X-13.2246 Y42.2188 
G01 X-13.2246 Y41.6012 
G01 X-13.6612 Y41.1646 
G01 X-14.2788 Y41.1646 
G01 X-14.7154 Y41.6012 
G01 X-14.7154 Y42.2188 
G01 X-14.2788 Y42.6554 
G00 Z5.0000 
G00 X-14.2788 Y43.7046 
G01 Z-0.1400 F254.00 
G01 X-14.7154 Y44.1412 F1000.00 
G01 X-14.7154 Y44.7588 
G01 X-14.2788 Y45.1954 
G01 X-13.6612 Y45.1954 
G01 X-13.2246 Y44.7588 
G01 X-13.2246 Y44.1412 
G01 X-13.6612 Y43.7046 
G01 X-14.2788 Y43.7046 
G00 Z5.0000 
G00 X-9.1988 Y41.3854 
G01 Z-0.1400 F254.00 
G01 X-8.5812 Y41.3854 F1000.00 
G01 X-8.1446 Y40.9488 
G01 X-8.1446 Y40.3312 
G01 X-8.5812 Y39.8946 
G01 X-9.1988 Y39.8946 
G01 X-9.6354 Y40.3312 
G01 X-9.6354 Y40.9488 
G01 X-9.1988 Y41.3854 
G00 Z5.0000 
G00 X-6.6588 Y41.3854 
G01 Z-0.1400 F254.00 
G01 X-6.0412 Y41.3854 F1000.00 
G01 X-5.6046 Y40.9488 
G01 X-5.6046 Y40.3312 
G01 X-6.0412 Y39.8946 
G01 X-6.6588 Y39.8946 
G01 X-7.0954 Y40.3312 
G01 X-7.0954 Y40.9488 
G01 X-6.6588 Y41.3854 
G00 Z5.0000 
G00 X-6.6588 Y36.3054 
G01 Z-0.1400 F254.00 
G01 X-6.0412 Y36.3054 F1000.00 
G01 X-5.6046 Y35.8688 
G01 X-5.6046 Y35.2512 
G01 X-6.0412 Y34.8146 
G01 X-6.6588 Y34.8146 
G01 X-7.0954 Y35.2512 
G01 X-7.0954 Y35.8688 
G01 X-6.6588 Y36.3054 
G00 Z5.0000 
G00 X-8.1446 Y35.8688 
G01 Z-0.1400 F254.00 
G01 X-8.1446 Y35.2512 F1000.00 
G01 X-8.5812 Y34.8146 
G01 X-9.1988 Y34.8146 
G01 X-9.6354 Y35.2512 
G01 X-9.6354 Y35.8688 
G01 X-9.1988 Y36.3054 
G01 X-8.5812 Y36.3054 
G01 X-8.1446 Y35.8688 
G00 Z5.0000 
G00 X-8.1446 Y30.7888 
G01 Z-0.1400 F254.00 
G01 X-8.1446 Y30.1712 F1000.00 
G01 X-8.5812 Y29.7346 
G01 X-9.1988 Y29.7346 
G01 X-9.6354 Y30.1712 
G01 X-9.6354 Y30.7888 
G01 X-9.1988 Y31.2254 
G01 X-8.5812 Y31.2254 
G01 X-8.1446 Y30.7888 
G00 Z5.0000 
G00 X-7.0954 Y30.7888 
G01 Z-0.1400 F254.00 
G01 X-6.6588 Y31.2254 F1000.00 
G01 X-6.0412 Y31.2254 
G01 X-5.6046 Y30.7888 
G01 X-5.6046 Y30.1712 
G01 X-6.0412 Y29.7346 
G01 X-6.6588 Y29.7346 
G01 X-7.0954 Y30.1712 
G01 X-7.0954 Y30.7888 
G00 Z5.0000 
G00 X-11.9546 Y30.7888 
G01 Z-0.1400 F254.00 
G01 X-11.9546 Y30.1712 F1000.00 
G01 X-12.3912 Y29.7346 
G01 X-13.0088 Y29.7346 
G01 X-13.4454 Y30.1712 
G01 X-13.4454 Y30.7888 
G01 X-13.0088 Y31.2254 
G01 X-12.3912 Y31.2254 
G01 X-11.9546 Y30.7888 
G00 Z5.0000 
G00 X-11.9546 Y32.7112 
G01 Z-0.1400 F254.00 
G01 X-12.3912 Y32.2746 F1000.00 
G01 X-13.0088 Y32.2746 
G01 X-13.4454 Y32.7112 
G01 X-13.4454 Y33.3288 
G01 X-13.0088 Y33.7654 
G01 X-12.3912 Y33.7654 
G01 X-11.9546 Y33.3288 
G01 X-11.9546 Y32.7112 
G00 Z5.0000 
G00 X-19.5746 Y32.7112 
G01 Z-0.1400 F254.00 
G01 X-20.0112 Y32.2746 F1000.00 
G01 X-20.6288 Y32.2746 
G01 X-21.0654 Y32.7112 
G01 X-21.0654 Y33.3288 
G01 X-20.6288 Y33.7654 
G01 X-20.0112 Y33.7654 
G01 X-19.5746 Y33.3288 
G01 X-19.5746 Y32.7112 
G00 Z5.0000 
G00 X-19.5746 Y30.7888 
G01 Z-0.1400 F254.00 
G01 X-19.5746 Y30.1712 F1000.00 
G01 X-20.0112 Y29.7346 
G01 X-20.6288 Y29.7346 
G01 X-21.0654 Y30.1712 
G01 X-21.0654 Y30.7888 
G01 X-20.6288 Y31.2254 
G01 X-20.0112 Y31.2254 
G01 X-19.5746 Y30.7888 
G00 Z5.0000 
G00 X-23.3846 Y30.7888 
G01 Z-0.1400 F254.00 
G01 X-23.3846 Y30.1712 F1000.00 
G01 X-23.8212 Y29.7346 
G01 X-24.4388 Y29.7346 
G01 X-24.8754 Y30.1712 
G01 X-24.8754 Y30.7888 
G01 X-24.4388 Y31.2254 
G01 X-23.8212 Y31.2254 
G01 X-23.3846 Y30.7888 
G00 Z5.0000 
G00 X-23.3214 Y28.8031 
G01 Z-0.1400 F254.00 
G01 X-23.1441 Y28.8766 F1000.00 
G01 X-22.9559 Y28.9140 
G01 X-22.7641 Y28.9140 
G01 X-22.5759 Y28.8766 
G01 X-22.3986 Y28.8031 
G01 X-22.2391 Y28.6966 
G01 X-22.1034 Y28.5609 
G01 X-22.0848 Y28.5330 
G01 X-2.0452 Y28.5330 
G01 X-2.0266 Y28.5609 
G01 X-1.8909 Y28.6966 
G01 X-1.7314 Y28.8031 
G01 X-1.5541 Y28.8766 
G01 X-1.3659 Y28.9140 
G01 X-1.1741 Y28.9140 
G01 X-0.9859 Y28.8766 
G01 X-0.8086 Y28.8031 
G01 X-0.6491 Y28.6966 
G01 X-0.5134 Y28.5609 
G01 X-0.4069 Y28.4014 
G01 X-0.3334 Y28.2241 
G01 X-0.2960 Y28.0359 
G01 X-0.2960 Y27.8441 
G01 X-0.3334 Y27.6559 
G01 X-0.4069 Y27.4786 
G01 X-0.5134 Y27.3191 
G01 X-0.6491 Y27.1834 
G01 X-0.8086 Y27.0769 
G01 X-0.9859 Y27.0034 
G01 X-1.1741 Y26.9660 
G01 X-1.3659 Y26.9660 
G01 X-1.5541 Y27.0034 
G01 X-1.7314 Y27.0769 
G01 X-1.8909 Y27.1834 
G01 X-2.0266 Y27.3191 
G01 X-2.0452 Y27.3470 
G01 X-22.0848 Y27.3470 
G01 X-22.1034 Y27.3191 
G01 X-22.2391 Y27.1834 
G01 X-22.3986 Y27.0769 
G01 X-22.5759 Y27.0034 
G01 X-22.7641 Y26.9660 
G01 X-22.9559 Y26.9660 
G01 X-23.1441 Y27.0034 
G01 X-23.3214 Y27.0769 
G01 X-23.4809 Y27.1834 
G01 X-23.6166 Y27.3191 
G01 X-23.7231 Y27.4786 
G01 X-23.7966 Y27.6559 
G01 X-23.8340 Y27.8441 
G01 X-23.8340 Y28.0359 
G01 X-23.7966 Y28.2241 
G01 X-23.7231 Y28.4014 
G01 X-23.6166 Y28.5609 
G01 X-23.4809 Y28.6966 
G01 X-23.3214 Y28.8031 
G00 Z5.0000 
G00 X-26.0491 Y32.2634 
G01 Z-0.1400 F254.00 
G01 X-26.2086 Y32.1569 F1000.00 
G01 X-26.3859 Y32.0834 
G01 X-26.5741 Y32.0460 
G01 X-26.7659 Y32.0460 
G01 X-26.9541 Y32.0834 
G01 X-27.1314 Y32.1569 
G01 X-27.2909 Y32.2634 
G01 X-27.4266 Y32.3991 
G01 X-27.4452 Y32.4270 
G01 X-30.9748 Y32.4270 
G01 X-30.9934 Y32.3991 
G01 X-31.1291 Y32.2634 
G01 X-31.2886 Y32.1569 
G01 X-31.4659 Y32.0834 
G01 X-31.6541 Y32.0460 
G01 X-31.8459 Y32.0460 
G01 X-32.0341 Y32.0834 
G01 X-32.2114 Y32.1569 
G01 X-32.3709 Y32.2634 
G01 X-32.5066 Y32.3991 
G01 X-32.6131 Y32.5586 
G01 X-32.6866 Y32.7359 
G01 X-32.7240 Y32.9241 
G01 X-32.7240 Y33.1159 
G01 X-32.6866 Y33.3041 
G01 X-32.6131 Y33.4814 
G01 X-32.5066 Y33.6409 
G01 X-32.3709 Y33.7766 
G01 X-32.2114 Y33.8831 
G01 X-32.0341 Y33.9566 
G01 X-31.8459 Y33.9940 
G01 X-31.6541 Y33.9940 
G01 X-31.4659 Y33.9566 
G01 X-31.2886 Y33.8831 
G01 X-31.1291 Y33.7766 
G01 X-30.9934 Y33.6409 
G01 X-30.9748 Y33.6130 
G01 X-27.4452 Y33.6130 
G01 X-27.4266 Y33.6409 
G01 X-27.2909 Y33.7766 
G01 X-27.1314 Y33.8831 
G01 X-26.9541 Y33.9566 
G01 X-26.7659 Y33.9940 
G01 X-26.5741 Y33.9940 
G01 X-26.3859 Y33.9566 
G01 X-26.2086 Y33.8831 
G01 X-26.0491 Y33.7766 
G01 X-25.9134 Y33.6409 
G01 X-25.8069 Y33.4814 
G01 X-25.7334 Y33.3041 
G01 X-25.6960 Y33.1159 
G01 X-25.6960 Y32.9241 
G01 X-25.7334 Y32.7359 
G01 X-25.8069 Y32.5586 
G01 X-25.9134 Y32.3991 
G01 X-26.0491 Y32.2634 
G00 Z5.0000 
G00 X-26.3612 Y37.3546 
G01 Z-0.1400 F254.00 
G01 X-26.9788 Y37.3546 F1000.00 
G01 X-27.4154 Y37.7912 
G01 X-27.4154 Y38.4088 
G01 X-26.9788 Y38.8454 
G01 X-26.3612 Y38.8454 
G01 X-25.9246 Y38.4088 
G01 X-25.9246 Y37.7912 
G01 X-26.3612 Y37.3546 
G00 Z5.0000 
G00 X-24.8754 Y37.7912 
G01 Z-0.1400 F254.00 
G01 X-24.8754 Y38.4088 F1000.00 
G01 X-24.4388 Y38.8454 
G01 X-23.8212 Y38.8454 
G01 X-23.3846 Y38.4088 
G01 X-23.3846 Y37.7912 
G01 X-23.8212 Y37.3546 
G01 X-24.4388 Y37.3546 
G01 X-24.8754 Y37.7912 
G00 Z5.0000 
G00 X-31.0046 Y37.7912 
G01 Z-0.1400 F254.00 
G01 X-31.4412 Y37.3546 F1000.00 
G01 X-32.0588 Y37.3546 
G01 X-32.4954 Y37.7912 
G01 X-32.4954 Y38.4088 
G01 X-32.0588 Y38.8454 
G01 X-31.4412 Y38.8454 
G01 X-31.0046 Y38.4088 
G01 X-31.0046 Y37.7912 
G00 Z5.0000 
G00 X-34.8146 Y34.5988 
G01 Z-0.1400 F254.00 
G01 X-34.8146 Y33.9812 F1000.00 
G01 X-35.2512 Y33.5446 
G01 X-35.8688 Y33.5446 
G01 X-36.3054 Y33.9812 
G01 X-36.3054 Y34.5988 
G01 X-35.8688 Y35.0354 
G01 X-35.2512 Y35.0354 
G01 X-34.8146 Y34.5988 
G00 Z5.0000 
G00 X-37.3546 Y35.0238 
G01 Z-0.1400 F254.00 
G01 X-37.3546 Y33.5562 F1000.00 
G01 X-37.3832 Y33.4122 
G01 X-37.4394 Y33.2765 
G01 X-37.5210 Y33.1544 
G01 X-37.6248 Y33.0506 
G01 X-37.7469 Y32.9690 
G01 X-37.8826 Y32.9128 
G01 X-38.0266 Y32.8842 
G01 X-38.1734 Y32.8842 
G01 X-38.3174 Y32.9128 
G01 X-38.4531 Y32.9690 
G01 X-38.5752 Y33.0506 
G01 X-38.6790 Y33.1544 
G01 X-38.7606 Y33.2765 
G01 X-38.8168 Y33.4122 
G01 X-38.8454 Y33.5562 
G01 X-38.8454 Y35.0238 
G01 X-38.8168 Y35.1678 
G01 X-38.7606 Y35.3035 
G01 X-38.6790 Y35.4256 
G01 X-38.5752 Y35.5294 
G01 X-38.4531 Y35.6110 
G01 X-38.3174 Y35.6672 
G01 X-38.1734 Y35.6958 
G01 X-38.0266 Y35.6958 
G01 X-37.8826 Y35.6672 
G01 X-37.7469 Y35.6110 
G01 X-37.6248 Y35.5294 
G01 X-37.5210 Y35.4256 
G01 X-37.4394 Y35.3035 
G01 X-37.3832 Y35.1678 
G01 X-37.3546 Y35.0238 
G00 Z5.0000 
G00 X-39.8946 Y35.0238 
G01 Z-0.1400 F254.00 
G01 X-39.8946 Y33.5562 F1000.00 
G01 X-39.9232 Y33.4122 
G01 X-39.9794 Y33.2765 
G01 X-40.0610 Y33.1544 
G01 X-40.1648 Y33.0506 
G01 X-40.2869 Y32.9690 
G01 X-40.4226 Y32.9128 
G01 X-40.5666 Y32.8842 
G01 X-40.7134 Y32.8842 
G01 X-40.8574 Y32.9128 
G01 X-40.9931 Y32.9690 
G01 X-41.1152 Y33.0506 
G01 X-41.2190 Y33.1544 
G01 X-41.3006 Y33.2765 
G01 X-41.3568 Y33.4122 
G01 X-41.3854 Y33.5562 
G01 X-41.3854 Y35.0238 
G01 X-41.3568 Y35.1678 
G01 X-41.3006 Y35.3035 
G01 X-41.2190 Y35.4256 
G01 X-41.1152 Y35.5294 
G01 X-40.9931 Y35.6110 
G01 X-40.8574 Y35.6672 
G01 X-40.7134 Y35.6958 
G01 X-40.5666 Y35.6958 
G01 X-40.4226 Y35.6672 
G01 X-40.2869 Y35.6110 
G01 X-40.1648 Y35.5294 
G01 X-40.0610 Y35.4256 
G01 X-39.9794 Y35.3035 
G01 X-39.9232 Y35.1678 
G01 X-39.8946 Y35.0238 
G00 Z5.0000 
G00 X-42.4346 Y35.0238 
G01 Z-0.1400 F254.00 
G01 X-42.4346 Y33.5562 F1000.00 
G01 X-42.4632 Y33.4122 
G01 X-42.5194 Y33.2765 
G01 X-42.6010 Y33.1544 
G01 X-42.7048 Y33.0506 
G01 X-42.8269 Y32.9690 
G01 X-42.9626 Y32.9128 
G01 X-43.1066 Y32.8842 
G01 X-43.2534 Y32.8842 
G01 X-43.3974 Y32.9128 
G01 X-43.5331 Y32.9690 
G01 X-43.6552 Y33.0506 
G01 X-43.7590 Y33.1544 
G01 X-43.8406 Y33.2765 
G01 X-43.8968 Y33.4122 
G01 X-43.9254 Y33.5562 
G01 X-43.9254 Y35.0238 
G01 X-43.8968 Y35.1678 
G01 X-43.8406 Y35.3035 
G01 X-43.7590 Y35.4256 
G01 X-43.6552 Y35.5294 
G01 X-43.5331 Y35.6110 
G01 X-43.3974 Y35.6672 
G01 X-43.2534 Y35.6958 
G01 X-43.1066 Y35.6958 
G01 X-42.9626 Y35.6672 
G01 X-42.8269 Y35.6110 
G01 X-42.7048 Y35.5294 
G01 X-42.6010 Y35.4256 
G01 X-42.5194 Y35.3035 
G01 X-42.4632 Y35.1678 
G01 X-42.4346 Y35.0238 
G00 Z5.0000 
G00 X-42.4346 Y36.5212 
G01 Z-0.1400 F254.00 
G01 X-42.8712 Y36.0846 F1000.00 
G01 X-43.4888 Y36.0846 
G01 X-43.9254 Y36.5212 
G01 X-43.9254 Y37.1388 
G01 X-43.4888 Y37.5754 
G01 X-42.8712 Y37.5754 
G01 X-42.4346 Y37.1388 
G01 X-42.4346 Y36.5212 
G00 Z5.0000 
G00 X-45.1410 Y35.4256 
G01 Z-0.1400 F254.00 
G01 X-45.0594 Y35.3035 F1000.00 
G01 X-45.0032 Y35.1678 
G01 X-44.9746 Y35.0238 
G01 X-44.9746 Y33.5562 
G01 X-45.0032 Y33.4122 
G01 X-45.0594 Y33.2765 
G01 X-45.1410 Y33.1544 
G01 X-45.2448 Y33.0506 
G01 X-45.3669 Y32.9690 
G01 X-45.5026 Y32.9128 
G01 X-45.6466 Y32.8842 
G01 X-45.7934 Y32.8842 
G01 X-45.9374 Y32.9128 
G01 X-46.0731 Y32.9690 
G01 X-46.1952 Y33.0506 
G01 X-46.2990 Y33.1544 
G01 X-46.3806 Y33.2765 
G01 X-46.4368 Y33.4122 
G01 X-46.4654 Y33.5562 
G01 X-46.4654 Y35.0238 
G01 X-46.4368 Y35.1678 
G01 X-46.3806 Y35.3035 
G01 X-46.2990 Y35.4256 
G01 X-46.1952 Y35.5294 
G01 X-46.0731 Y35.6110 
G01 X-45.9374 Y35.6672 
G01 X-45.7934 Y35.6958 
G01 X-45.6466 Y35.6958 
G01 X-45.5026 Y35.6672 
G01 X-45.3669 Y35.6110 
G01 X-45.2448 Y35.5294 
G01 X-45.1410 Y35.4256 
G00 Z5.0000 
G00 X-45.4112 Y21.0654 
G01 Z-0.1400 F254.00 
G01 X-44.9746 Y20.6288 F1000.00 
G01 X-44.9746 Y20.0112 
G01 X-45.4112 Y19.5746 
G01 X-46.0288 Y19.5746 
G01 X-46.4654 Y20.0112 
G01 X-46.4654 Y20.6288 
G01 X-46.0288 Y21.0654 
G01 X-45.4112 Y21.0654 
G00 Z5.0000 
G00 X-43.4888 Y21.0654 
G01 Z-0.1400 F254.00 
G01 X-42.8712 Y21.0654 F1000.00 
G01 X-42.4346 Y20.6288 
G01 X-42.4346 Y20.0112 
G01 X-42.8712 Y19.5746 
G01 X-43.4888 Y19.5746 
G01 X-43.9254 Y20.0112 
G01 X-43.9254 Y20.6288 
G01 X-43.4888 Y21.0654 
G00 Z5.0000 
G00 X-43.4980 Y16.3604 
G01 Z-0.1400 F254.00 
G01 X-43.3170 Y16.4192 F1000.00 
G01 X-43.1291 Y16.4489 
G01 X-40.6909 Y16.4489 
G01 X-40.5029 Y16.4192 
G01 X-40.3220 Y16.3604 
G01 X-40.1524 Y16.2740 
G01 X-39.9985 Y16.1621 
G01 X-39.8639 Y16.0276 
G01 X-39.7521 Y15.8736 
G01 X-39.6657 Y15.7041 
G01 X-39.6069 Y15.5231 
G01 X-39.5771 Y15.3351 
G01 X-39.5771 Y15.1448 
G01 X-39.6069 Y14.9569 
G01 X-39.6657 Y14.7759 
G01 X-39.7521 Y14.6064 
G01 X-39.8639 Y14.4524 
G01 X-39.9985 Y14.3179 
G01 X-40.1524 Y14.2060 
G01 X-40.3220 Y14.1196 
G01 X-40.5029 Y14.0608 
G01 X-40.6909 Y14.0311 
G01 X-43.1291 Y14.0311 
G01 X-43.3170 Y14.0608 
G01 X-43.4980 Y14.1196 
G01 X-43.6676 Y14.2060 
G01 X-43.8215 Y14.3179 
G01 X-43.9561 Y14.4524 
G01 X-44.0679 Y14.6064 
G01 X-44.1543 Y14.7759 
G01 X-44.2131 Y14.9569 
G01 X-44.2429 Y15.1448 
G01 X-44.2429 Y15.3351 
G01 X-44.2131 Y15.5231 
G01 X-44.1543 Y15.7041 
G01 X-44.0679 Y15.8736 
G01 X-43.9561 Y16.0276 
G01 X-43.8215 Y16.1621 
G01 X-43.6676 Y16.2740 
G01 X-43.4980 Y16.3604 
G00 Z5.0000 
G00 X-38.8454 Y20.0112 
G01 Z-0.1400 F254.00 
G01 X-38.8454 Y20.6288 F1000.00 
G01 X-38.4088 Y21.0654 
G01 X-37.7912 Y21.0654 
G01 X-37.3546 Y20.6288 
G01 X-37.3546 Y20.0112 
G01 X-37.7912 Y19.5746 
G01 X-38.4088 Y19.5746 
G01 X-38.8454 Y20.0112 
G00 Z5.0000 
G00 X-50.0546 Y20.0112 
G01 Z-0.1400 F254.00 
G01 X-50.4912 Y19.5746 F1000.00 
G01 X-51.1088 Y19.5746 
G01 X-51.5454 Y20.0112 
G01 X-51.5454 Y20.6288 
G01 X-51.1088 Y21.0654 
G01 X-50.4912 Y21.0654 
G01 X-50.0546 Y20.6288 
G01 X-50.0546 Y20.0112 
G00 Z5.0000 
G00 X-50.7491 Y7.5589 
G01 Z-0.1400 F254.00 
G01 X-48.3109 Y7.5589 F1000.00 
G01 X-48.1230 Y7.5292 
G01 X-47.9420 Y7.4704 
G01 X-47.7724 Y7.3840 
G01 X-47.6185 Y7.2721 
G01 X-47.4839 Y7.1376 
G01 X-47.3721 Y6.9836 
G01 X-47.2857 Y6.8141 
G01 X-47.2269 Y6.6331 
G01 X-47.1971 Y6.4451 
G01 X-47.1971 Y6.2549 
G01 X-47.2269 Y6.0669 
G01 X-47.2857 Y5.8859 
G01 X-47.3721 Y5.7164 
G01 X-47.4839 Y5.5624 
G01 X-47.6185 Y5.4279 
G01 X-47.7724 Y5.3160 
G01 X-47.9420 Y5.2296 
G01 X-48.1230 Y5.1708 
G01 X-48.3109 Y5.1410 
G01 X-50.7491 Y5.1410 
G01 X-50.9370 Y5.1708 
G01 X-51.1180 Y5.2296 
G01 X-51.2876 Y5.3160 
G01 X-51.4415 Y5.4279 
G01 X-51.5761 Y5.5624 
G01 X-51.6879 Y5.7164 
G01 X-51.7743 Y5.8859 
G01 X-51.8331 Y6.0669 
G01 X-51.8629 Y6.2549 
G01 X-51.8629 Y6.4451 
G01 X-51.8331 Y6.6331 
G01 X-51.7743 Y6.8141 
G01 X-51.6879 Y6.9836 
G01 X-51.5761 Y7.1376 
G01 X-51.4415 Y7.2721 
G01 X-51.2876 Y7.3840 
G01 X-51.1180 Y7.4704 
G01 X-50.9370 Y7.5292 
G01 X-50.7491 Y7.5589 
G00 Z5.0000 
G00 X-36.2015 Y7.2721 
G01 Z-0.1400 F254.00 
G01 X-36.0476 Y7.3840 F1000.00 
G01 X-35.8780 Y7.4704 
G01 X-35.6970 Y7.5292 
G01 X-35.5091 Y7.5589 
G01 X-33.0709 Y7.5589 
G01 X-32.8830 Y7.5292 
G01 X-32.7020 Y7.4704 
G01 X-32.5324 Y7.3840 
G01 X-32.3785 Y7.2721 
G01 X-32.2439 Y7.1376 
G01 X-32.1321 Y6.9836 
G01 X-32.0457 Y6.8141 
G01 X-31.9869 Y6.6331 
G01 X-31.9571 Y6.4451 
G01 X-31.9571 Y6.2549 
G01 X-31.9869 Y6.0669 
G01 X-32.0457 Y5.8859 
G01 X-32.1321 Y5.7164 
G01 X-32.2439 Y5.5624 
G01 X-32.3785 Y5.4279 
G01 X-32.5324 Y5.3160 
G01 X-32.7020 Y5.2296 
G01 X-32.8830 Y5.1708 
G01 X-33.0709 Y5.1410 
G01 X-35.5091 Y5.1410 
G01 X-35.6970 Y5.1708 
G01 X-35.8780 Y5.2296 
G01 X-36.0476 Y5.3160 
G01 X-36.2015 Y5.4279 
G01 X-36.3361 Y5.5624 
G01 X-36.4479 Y5.7164 
G01 X-36.5343 Y5.8859 
G01 X-36.5931 Y6.0669 
G01 X-36.6229 Y6.2549 
G01 X-36.6229 Y6.4451 
G01 X-36.5931 Y6.6331 
G01 X-36.5343 Y6.8141 
G01 X-36.4479 Y6.9836 
G01 X-36.3361 Y7.1376 
G01 X-36.2015 Y7.2721 
G00 Z5.0000 
G00 X-29.6620 Y43.9748 
G01 Z-0.1400 F254.00 
G01 X-29.7436 Y44.0969 F1000.00 
G01 X-29.7998 Y44.2326 
G01 X-29.8284 Y44.3766 
G01 X-29.8284 Y44.5234 
G01 X-29.7998 Y44.6674 
G01 X-29.7436 Y44.8031 
G01 X-29.6620 Y44.9252 
G01 X-29.5582 Y45.0290 
G01 X-29.4361 Y45.1106 
G01 X-29.3004 Y45.1668 
G01 X-29.1564 Y45.1954 
G01 X-29.0096 Y45.1954 
G01 X-28.8656 Y45.1668 
G01 X-28.7299 Y45.1106 
G01 X-28.6078 Y45.0290 
G01 X-28.5040 Y44.9252 
G01 X-28.4224 Y44.8031 
G01 X-28.3662 Y44.6674 
G01 X-28.3376 Y44.5234 
G01 X-28.3376 Y44.3766 
G01 X-28.3662 Y44.2326 
G01 X-28.4224 Y44.0969 
G01 X-28.5040 Y43.9748 
G01 X-28.6078 Y43.8710 
G01 X-28.7299 Y43.7894 
G01 X-28.8656 Y43.7332 
G01 X-29.0096 Y43.7046 
G01 X-29.1564 Y43.7046 
G01 X-29.3004 Y43.7332 
G01 X-29.4361 Y43.7894 
G01 X-29.5582 Y43.8710 
G01 X-29.6620 Y43.9748 
G00 Z5.0000 
G00 X-24.8360 Y43.9748 
G01 Z-0.1400 F254.00 
G01 X-24.9176 Y44.0969 F1000.00 
G01 X-24.9738 Y44.2326 
G01 X-25.0024 Y44.3766 
G01 X-25.0024 Y44.5234 
G01 X-24.9738 Y44.6674 
G01 X-24.9176 Y44.8031 
G01 X-24.8360 Y44.9252 
G01 X-24.7322 Y45.0290 
G01 X-24.6101 Y45.1106 
G01 X-24.4744 Y45.1668 
G01 X-24.3304 Y45.1954 
G01 X-24.1836 Y45.1954 
G01 X-24.0396 Y45.1668 
G01 X-23.9039 Y45.1106 
G01 X-23.7818 Y45.0290 
G01 X-23.6780 Y44.9252 
G01 X-23.5964 Y44.8031 
G01 X-23.5402 Y44.6674 
G01 X-23.5116 Y44.5234 
G01 X-23.5116 Y44.3766 
G01 X-23.5402 Y44.2326 
G01 X-23.5964 Y44.0969 
G01 X-23.6780 Y43.9748 
G01 X-23.7818 Y43.8710 
G01 X-23.9039 Y43.7894 
G01 X-24.0396 Y43.7332 
G01 X-24.1836 Y43.7046 
G01 X-24.3304 Y43.7046 
G01 X-24.4744 Y43.7332 
G01 X-24.6101 Y43.7894 
G01 X-24.7322 Y43.8710 
G01 X-24.8360 Y43.9748 
G00 Z5.0000 
G00 X-24.9248 Y55.9106 
G01 Z-0.1400 F254.00 
G01 X-25.0469 Y55.8290 F1000.00 
G01 X-25.1826 Y55.7728 
G01 X-25.3266 Y55.7442 
G01 X-25.4734 Y55.7442 
G01 X-25.6174 Y55.7728 
G01 X-25.7531 Y55.8290 
G01 X-25.8752 Y55.9106 
G01 X-25.9790 Y56.0144 
G01 X-26.0606 Y56.1365 
G01 X-26.1168 Y56.2722 
G01 X-26.1454 Y56.4162 
G01 X-26.1454 Y57.8838 
G01 X-26.1168 Y58.0278 
G01 X-26.0606 Y58.1635 
G01 X-25.9790 Y58.2856 
G01 X-25.8752 Y58.3894 
G01 X-25.7531 Y58.4710 
G01 X-25.6174 Y58.5272 
G01 X-25.4734 Y58.5558 
G01 X-25.3266 Y58.5558 
G01 X-25.1826 Y58.5272 
G01 X-25.0469 Y58.4710 
G01 X-24.9248 Y58.3894 
G01 X-24.8210 Y58.2856 
G01 X-24.7394 Y58.1635 
G01 X-24.6832 Y58.0278 
G01 X-24.6546 Y57.8838 
G01 X-24.6546 Y56.4162 
G01 X-24.6832 Y56.2722 
G01 X-24.7394 Y56.1365 
G01 X-24.8210 Y56.0144 
G01 X-24.9248 Y55.9106 
G00 Z5.0000 
G00 X-23.4390 Y56.0144 
G01 Z-0.1400 F254.00 
G01 X-23.5206 Y56.1365 F1000.00 
G01 X-23.5768 Y56.2722 
G01 X-23.6054 Y56.4162 
G01 X-23.6054 Y57.8838 
G01 X-23.5768 Y58.0278 
G01 X-23.5206 Y58.1635 
G01 X-23.4390 Y58.2856 
G01 X-23.3352 Y58.3894 
G01 X-23.2131 Y58.4710 
G01 X-23.0774 Y58.5272 
G01 X-22.9334 Y58.5558 
G01 X-22.7866 Y58.5558 
G01 X-22.6426 Y58.5272 
G01 X-22.5069 Y58.4710 
G01 X-22.3848 Y58.3894 
G01 X-22.2810 Y58.2856 
G01 X-22.1994 Y58.1635 
G01 X-22.1432 Y58.0278 
G01 X-22.1146 Y57.8838 
G01 X-22.1146 Y56.4162 
G01 X-22.1432 Y56.2722 
G01 X-22.1994 Y56.1365 
G01 X-22.2810 Y56.0144 
G01 X-22.3848 Y55.9106 
G01 X-22.5069 Y55.8290 
G01 X-22.6426 Y55.7728 
G01 X-22.7866 Y55.7442 
G01 X-22.9334 Y55.7442 
G01 X-23.0774 Y55.7728 
G01 X-23.2131 Y55.8290 
G01 X-23.3352 Y55.9106 
G01 X-23.4390 Y56.0144 
G00 Z5.0000 
G00 X-20.8990 Y56.0144 
G01 Z-0.1400 F254.00 
G01 X-20.9806 Y56.1365 F1000.00 
G01 X-21.0368 Y56.2722 
G01 X-21.0654 Y56.4162 
G01 X-21.0654 Y57.8838 
G01 X-21.0368 Y58.0278 
G01 X-20.9806 Y58.1635 
G01 X-20.8990 Y58.2856 
G01 X-20.7952 Y58.3894 
G01 X-20.6731 Y58.4710 
G01 X-20.5374 Y58.5272 
G01 X-20.3934 Y58.5558 
G01 X-20.2466 Y58.5558 
G01 X-20.1026 Y58.5272 
G01 X-19.9669 Y58.4710 
G01 X-19.8448 Y58.3894 
G01 X-19.7410 Y58.2856 
G01 X-19.6594 Y58.1635 
G01 X-19.6032 Y58.0278 
G01 X-19.5746 Y57.8838 
G01 X-19.5746 Y56.4162 
G01 X-19.6032 Y56.2722 
G01 X-19.6594 Y56.1365 
G01 X-19.7410 Y56.0144 
G01 X-19.8448 Y55.9106 
G01 X-19.9669 Y55.8290 
G01 X-20.1026 Y55.7728 
G01 X-20.2466 Y55.7442 
G01 X-20.3934 Y55.7442 
G01 X-20.5374 Y55.7728 
G01 X-20.6731 Y55.8290 
G01 X-20.7952 Y55.9106 
G01 X-20.8990 Y56.0144 
G00 Z5.0000 
G00 X-18.3590 Y56.0144 
G01 Z-0.1400 F254.00 
G01 X-18.4406 Y56.1365 F1000.00 
G01 X-18.4968 Y56.2722 
G01 X-18.5254 Y56.4162 
G01 X-18.5254 Y57.8838 
G01 X-18.4968 Y58.0278 
G01 X-18.4406 Y58.1635 
G01 X-18.3590 Y58.2856 
G01 X-18.2552 Y58.3894 
G01 X-18.1331 Y58.4710 
G01 X-17.9974 Y58.5272 
G01 X-17.8534 Y58.5558 
G01 X-17.7066 Y58.5558 
G01 X-17.5626 Y58.5272 
G01 X-17.4269 Y58.4710 
G01 X-17.3048 Y58.3894 
G01 X-17.2010 Y58.2856 
G01 X-17.1194 Y58.1635 
G01 X-17.0632 Y58.0278 
G01 X-17.0346 Y57.8838 
G01 X-17.0346 Y56.4162 
G01 X-17.0632 Y56.2722 
G01 X-17.1194 Y56.1365 
G01 X-17.2010 Y56.0144 
G01 X-17.3048 Y55.9106 
G01 X-17.4269 Y55.8290 
G01 X-17.5626 Y55.7728 
G01 X-17.7066 Y55.7442 
G01 X-17.8534 Y55.7442 
G01 X-17.9974 Y55.7728 
G01 X-18.1331 Y55.8290 
G01 X-18.2552 Y55.9106 
G01 X-18.3590 Y56.0144 
G00 Z5.0000 
G00 X-18.0888 Y62.7546 
G01 Z-0.1400 F254.00 
G01 X-18.5254 Y63.1912 F1000.00 
G01 X-18.5254 Y63.8088 
G01 X-18.3528 Y63.9813 
G01 X-18.4009 Y64.0134 
G01 X-18.5366 Y64.1491 
G01 X-18.6431 Y64.3086 
G01 X-18.7166 Y64.4859 
G01 X-18.7540 Y64.6741 
G01 X-18.7540 Y64.8659 
G01 X-18.7166 Y65.0541 
G01 X-18.6431 Y65.2314 
G01 X-18.5366 Y65.3909 
G01 X-18.4009 Y65.5266 
G01 X-18.2414 Y65.6331 
G01 X-18.0641 Y65.7066 
G01 X-17.8759 Y65.7440 
G01 X-17.6841 Y65.7440 
G01 X-17.4959 Y65.7066 
G01 X-17.3186 Y65.6331 
G01 X-17.1591 Y65.5266 
G01 X-17.0234 Y65.3909 
G01 X-16.9369 Y65.2614 
G01 X-9.7331 Y65.2614 
G01 X-9.6466 Y65.3909 
G01 X-9.5109 Y65.5266 
G01 X-9.3514 Y65.6331 
G01 X-9.1741 Y65.7066 
G01 X-8.9859 Y65.7440 
G01 X-8.7941 Y65.7440 
G01 X-8.6059 Y65.7066 
G01 X-8.4286 Y65.6331 
G01 X-8.2691 Y65.5266 
G01 X-8.1334 Y65.3909 
G01 X-8.0269 Y65.2314 
G01 X-7.9534 Y65.0541 
G01 X-7.9160 Y64.8659 
G01 X-7.9160 Y64.6741 
G01 X-7.9534 Y64.4859 
G01 X-8.0269 Y64.3086 
G01 X-8.1334 Y64.1491 
G01 X-8.2691 Y64.0134 
G01 X-8.4286 Y63.9069 
G01 X-8.6059 Y63.8334 
G01 X-8.7941 Y63.7960 
G01 X-8.9859 Y63.7960 
G01 X-9.1741 Y63.8334 
G01 X-9.3514 Y63.9069 
G01 X-9.5109 Y64.0134 
G01 X-9.6466 Y64.1491 
G01 X-9.7331 Y64.2786 
G01 X-16.9369 Y64.2786 
G01 X-17.0234 Y64.1491 
G01 X-17.1591 Y64.0134 
G01 X-17.2072 Y63.9813 
G01 X-17.0346 Y63.8088 
G01 X-17.0346 Y63.1912 
G01 X-17.4712 Y62.7546 
G01 X-18.0888 Y62.7546 
G00 Z5.0000 
G00 X-22.2391 Y66.5534 
G01 Z-0.1400 F254.00 
G01 X-22.3986 Y66.4469 F1000.00 
G01 X-22.5759 Y66.3734 
G01 X-22.7641 Y66.3360 
G01 X-22.9559 Y66.3360 
G01 X-23.1441 Y66.3734 
G01 X-23.3214 Y66.4469 
G01 X-23.4809 Y66.5534 
G01 X-23.6166 Y66.6891 
G01 X-23.7231 Y66.8486 
G01 X-23.7966 Y67.0259 
G01 X-23.8340 Y67.2141 
G01 X-23.8340 Y67.4059 
G01 X-23.7966 Y67.5941 
G01 X-23.7231 Y67.7714 
G01 X-23.6166 Y67.9309 
G01 X-23.4809 Y68.0666 
G01 X-23.3214 Y68.1731 
G01 X-23.1441 Y68.2466 
G01 X-22.9559 Y68.2840 
G01 X-22.7641 Y68.2840 
G01 X-22.5759 Y68.2466 
G01 X-22.3986 Y68.1731 
G01 X-22.2391 Y68.0666 
G01 X-22.1034 Y67.9309 
G01 X-22.0169 Y67.8014 
G01 X-7.1931 Y67.8014 
G01 X-7.1066 Y67.9309 
G01 X-6.9709 Y68.0666 
G01 X-6.8114 Y68.1731 
G01 X-6.6341 Y68.2466 
G01 X-6.4459 Y68.2840 
G01 X-6.2541 Y68.2840 
G01 X-6.0659 Y68.2466 
G01 X-5.8886 Y68.1731 
G01 X-5.7291 Y68.0666 
G01 X-5.5934 Y67.9309 
G01 X-5.4869 Y67.7714 
G01 X-5.4134 Y67.5941 
G01 X-5.3760 Y67.4059 
G01 X-5.3760 Y67.2141 
G01 X-5.4134 Y67.0259 
G01 X-5.4869 Y66.8486 
G01 X-5.5934 Y66.6891 
G01 X-5.7291 Y66.5534 
G01 X-5.8886 Y66.4469 
G01 X-6.0659 Y66.3734 
G01 X-6.2541 Y66.3360 
G01 X-6.4459 Y66.3360 
G01 X-6.6341 Y66.3734 
G01 X-6.8114 Y66.4469 
G01 X-6.9709 Y66.5534 
G01 X-7.1066 Y66.6891 
G01 X-7.1931 Y66.8186 
G01 X-22.0169 Y66.8186 
G01 X-22.1034 Y66.6891 
G01 X-22.2391 Y66.5534 
G00 Z5.0000 
G00 X-27.3191 Y70.3634 
G01 Z-0.1400 F254.00 
G01 X-27.4786 Y70.2569 F1000.00 
G01 X-27.6559 Y70.1834 
G01 X-27.8441 Y70.1460 
G01 X-28.0359 Y70.1460 
G01 X-28.2241 Y70.1834 
G01 X-28.4014 Y70.2569 
G01 X-28.5609 Y70.3634 
G01 X-28.6966 Y70.4991 
G01 X-28.8031 Y70.6586 
G01 X-28.8766 Y70.8359 
G01 X-28.9140 Y71.0241 
G01 X-28.9140 Y71.2159 
G01 X-28.8766 Y71.4041 
G01 X-28.8031 Y71.5814 
G01 X-28.6966 Y71.7409 
G01 X-28.5609 Y71.8766 
G01 X-28.4014 Y71.9831 
G01 X-28.2241 Y72.0566 
G01 X-28.0359 Y72.0940 
G01 X-27.8441 Y72.0940 
G01 X-27.6559 Y72.0566 
G01 X-27.4786 Y71.9831 
G01 X-27.3191 Y71.8766 
G01 X-27.1834 Y71.7409 
G01 X-27.0969 Y71.6114 
G01 X-12.2731 Y71.6114 
G01 X-12.1866 Y71.7409 
G01 X-12.0509 Y71.8766 
G01 X-11.8914 Y71.9831 
G01 X-11.7141 Y72.0566 
G01 X-11.5259 Y72.0940 
G01 X-11.3341 Y72.0940 
G01 X-11.1459 Y72.0566 
G01 X-10.9686 Y71.9831 
G01 X-10.8091 Y71.8766 
G01 X-10.6734 Y71.7409 
G01 X-10.5669 Y71.5814 
G01 X-10.4934 Y71.4041 
G01 X-10.4560 Y71.2159 
G01 X-10.4560 Y71.0241 
G01 X-10.4934 Y70.8359 
G01 X-10.5669 Y70.6586 
G01 X-10.6734 Y70.4991 
G01 X-10.8091 Y70.3634 
G01 X-10.9686 Y70.2569 
G01 X-11.1459 Y70.1834 
G01 X-11.3341 Y70.1460 
G01 X-11.5259 Y70.1460 
G01 X-11.7141 Y70.1834 
G01 X-11.8914 Y70.2569 
G01 X-12.0509 Y70.3634 
G01 X-12.1866 Y70.4991 
G01 X-12.2731 Y70.6286 
G01 X-27.0969 Y70.6286 
G01 X-27.1834 Y70.4991 
G01 X-27.3191 Y70.3634 
G00 Z5.0000 
G00 X-26.1566 Y76.8491 
G01 Z-0.1400 F254.00 
G01 X-26.2631 Y77.0086 F1000.00 
G01 X-26.3366 Y77.1859 
G01 X-26.3740 Y77.3741 
G01 X-26.3740 Y77.5659 
G01 X-26.3366 Y77.7541 
G01 X-26.2631 Y77.9314 
G01 X-26.1566 Y78.0909 
G01 X-26.0209 Y78.2266 
G01 X-25.8614 Y78.3331 
G01 X-25.6841 Y78.4066 
G01 X-25.5978 Y78.4237 
G01 X-25.6471 Y78.4335 
G01 X-25.8012 Y78.4974 
G01 X-25.9399 Y78.5901 
G01 X-26.0579 Y78.7081 
G01 X-26.1506 Y78.8468 
G01 X-26.2144 Y79.0009 
G01 X-26.2470 Y79.1646 
G01 X-26.2470 Y80.8554 
G01 X-26.2144 Y81.0191 
G01 X-26.1506 Y81.1732 
G01 X-26.0579 Y81.3119 
G01 X-25.9399 Y81.4299 
G01 X-25.8012 Y81.5226 
G01 X-25.6471 Y81.5864 
G01 X-25.4834 Y81.6190 
G01 X-25.3166 Y81.6190 
G01 X-25.1529 Y81.5864 
G01 X-24.9988 Y81.5226 
G01 X-24.8601 Y81.4299 
G01 X-24.7421 Y81.3119 
G01 X-24.6494 Y81.1732 
G01 X-24.5856 Y81.0191 
G01 X-24.5530 Y80.8554 
G01 X-24.5530 Y79.1646 
G01 X-24.5856 Y79.0009 
G01 X-24.6494 Y78.8468 
G01 X-24.7421 Y78.7081 
G01 X-24.8601 Y78.5901 
G01 X-24.9988 Y78.4974 
G01 X-25.1529 Y78.4335 
G01 X-25.2022 Y78.4237 
G01 X-25.1159 Y78.4066 
G01 X-24.9386 Y78.3331 
G01 X-24.7791 Y78.2266 
G01 X-24.6434 Y78.0909 
G01 X-24.5569 Y77.9614 
G01 X-13.3292 Y77.9614 
G01 X-13.3184 Y77.9775 
G01 X-13.2075 Y78.0884 
G01 X-13.0771 Y78.1756 
G01 X-12.9322 Y78.2356 
G01 X-12.7784 Y78.2662 
G01 X-12.6216 Y78.2662 
G01 X-12.4678 Y78.2356 
G01 X-12.3229 Y78.1756 
G01 X-12.1924 Y78.0884 
G01 X-12.0816 Y77.9775 
G01 X-11.9944 Y77.8471 
G01 X-11.9344 Y77.7022 
G01 X-11.9038 Y77.5484 
G01 X-11.9038 Y77.3916 
G01 X-11.9344 Y77.2378 
G01 X-11.9944 Y77.0929 
G01 X-12.0816 Y76.9625 
G01 X-12.1924 Y76.8516 
G01 X-12.3229 Y76.7644 
G01 X-12.4678 Y76.7044 
G01 X-12.6216 Y76.6738 
G01 X-12.7784 Y76.6738 
G01 X-12.9322 Y76.7044 
G01 X-13.0771 Y76.7644 
G01 X-13.2075 Y76.8516 
G01 X-13.3184 Y76.9625 
G01 X-13.3292 Y76.9786 
G01 X-24.5569 Y76.9786 
G01 X-24.6434 Y76.8491 
G01 X-24.7791 Y76.7134 
G01 X-24.9386 Y76.6069 
G01 X-25.1159 Y76.5334 
G01 X-25.3041 Y76.4960 
G01 X-25.4959 Y76.4960 
G01 X-25.6841 Y76.5334 
G01 X-25.8614 Y76.6069 
G01 X-26.0209 Y76.7134 
G01 X-26.1566 Y76.8491 
G00 Z5.0000 
G00 X-27.4001 Y78.5901 
G01 Z-0.1400 F254.00 
G01 X-27.5388 Y78.4974 F1000.00 
G01 X-27.6929 Y78.4335 
G01 X-27.8566 Y78.4010 
G01 X-28.0234 Y78.4010 
G01 X-28.1871 Y78.4335 
G01 X-28.3412 Y78.4974 
G01 X-28.4799 Y78.5901 
G01 X-28.5979 Y78.7081 
G01 X-28.6906 Y78.8468 
G01 X-28.7544 Y79.0009 
G01 X-28.7870 Y79.1646 
G01 X-28.7870 Y80.8554 
G01 X-28.7544 Y81.0191 
G01 X-28.6906 Y81.1732 
G01 X-28.5979 Y81.3119 
G01 X-28.4799 Y81.4299 
G01 X-28.3412 Y81.5226 
G01 X-28.1871 Y81.5864 
G01 X-28.0234 Y81.6190 
G01 X-27.8566 Y81.6190 
G01 X-27.6929 Y81.5864 
G01 X-27.5388 Y81.5226 
G01 X-27.4001 Y81.4299 
G01 X-27.2821 Y81.3119 
G01 X-27.1894 Y81.1732 
G01 X-27.1256 Y81.0191 
G01 X-27.0930 Y80.8554 
G01 X-27.0930 Y79.1646 
G01 X-27.1256 Y79.0009 
G01 X-27.1894 Y78.8468 
G01 X-27.2821 Y78.7081 
G01 X-27.4001 Y78.5901 
G00 Z5.0000 
G00 X-29.9401 Y78.5901 
G01 Z-0.1400 F254.00 
G01 X-30.0788 Y78.4974 F1000.00 
G01 X-30.2329 Y78.4335 
G01 X-30.3966 Y78.4010 
G01 X-30.5634 Y78.4010 
G01 X-30.7271 Y78.4335 
G01 X-30.8812 Y78.4974 
G01 X-31.0199 Y78.5901 
G01 X-31.1379 Y78.7081 
G01 X-31.2306 Y78.8468 
G01 X-31.2944 Y79.0009 
G01 X-31.3270 Y79.1646 
G01 X-31.3270 Y80.8554 
G01 X-31.2944 Y81.0191 
G01 X-31.2306 Y81.1732 
G01 X-31.1379 Y81.3119 
G01 X-31.0199 Y81.4299 
G01 X-30.8812 Y81.5226 
G01 X-30.7271 Y81.5864 
G01 X-30.5634 Y81.6190 
G01 X-30.3966 Y81.6190 
G01 X-30.2329 Y81.5864 
G01 X-30.0788 Y81.5226 
G01 X-29.9401 Y81.4299 
G01 X-29.8221 Y81.3119 
G01 X-29.7294 Y81.1732 
G01 X-29.6655 Y81.0191 
G01 X-29.6330 Y80.8554 
G01 X-29.6330 Y79.1646 
G01 X-29.6655 Y79.0009 
G01 X-29.7294 Y78.8468 
G01 X-29.8221 Y78.7081 
G01 X-29.9401 Y78.5901 
G00 Z5.0000 
G00 X-32.4801 Y78.5901 
G01 Z-0.1400 F254.00 
G01 X-32.6188 Y78.4974 F1000.00 
G01 X-32.7729 Y78.4335 
G01 X-32.9366 Y78.4010 
G01 X-33.1034 Y78.4010 
G01 X-33.2671 Y78.4335 
G01 X-33.4212 Y78.4974 
G01 X-33.5599 Y78.5901 
G01 X-33.6779 Y78.7081 
G01 X-33.7706 Y78.8468 
G01 X-33.8344 Y79.0009 
G01 X-33.8670 Y79.1646 
G01 X-33.8670 Y80.8554 
G01 X-33.8344 Y81.0191 
G01 X-33.7706 Y81.1732 
G01 X-33.6779 Y81.3119 
G01 X-33.5599 Y81.4299 
G01 X-33.4212 Y81.5226 
G01 X-33.2671 Y81.5864 
G01 X-33.1034 Y81.6190 
G01 X-32.9366 Y81.6190 
G01 X-32.7729 Y81.5864 
G01 X-32.6188 Y81.5226 
G01 X-32.4801 Y81.4299 
G01 X-32.3621 Y81.3119 
G01 X-32.2694 Y81.1732 
G01 X-32.2056 Y81.0191 
G01 X-32.1730 Y80.8554 
G01 X-32.1730 Y79.1646 
G01 X-32.2056 Y79.0009 
G01 X-32.2694 Y78.8468 
G01 X-32.3621 Y78.7081 
G01 X-32.4801 Y78.5901 
G00 Z5.0000 
G00 X-35.0201 Y78.5901 
G01 Z-0.1400 F254.00 
G01 X-35.1588 Y78.4974 F1000.00 
G01 X-35.3129 Y78.4335 
G01 X-35.4766 Y78.4010 
G01 X-35.6434 Y78.4010 
G01 X-35.8071 Y78.4335 
G01 X-35.9612 Y78.4974 
G01 X-36.0999 Y78.5901 
G01 X-36.2179 Y78.7081 
G01 X-36.3106 Y78.8468 
G01 X-36.3744 Y79.0009 
G01 X-36.4070 Y79.1646 
G01 X-36.4070 Y80.8554 
G01 X-36.3744 Y81.0191 
G01 X-36.3106 Y81.1732 
G01 X-36.2179 Y81.3119 
G01 X-36.0999 Y81.4299 
G01 X-35.9612 Y81.5226 
G01 X-35.8071 Y81.5864 
G01 X-35.6434 Y81.6190 
G01 X-35.4766 Y81.6190 
G01 X-35.3129 Y81.5864 
G01 X-35.1588 Y81.5226 
G01 X-35.0201 Y81.4299 
G01 X-34.9021 Y81.3119 
G01 X-34.8094 Y81.1732 
G01 X-34.7456 Y81.0191 
G01 X-34.7130 Y80.8554 
G01 X-34.7130 Y79.1646 
G01 X-34.7456 Y79.0009 
G01 X-34.8094 Y78.8468 
G01 X-34.9021 Y78.7081 
G01 X-35.0201 Y78.5901 
G00 Z5.0000 
G00 X-37.5601 Y78.5901 
G01 Z-0.1400 F254.00 
G01 X-37.6988 Y78.4974 F1000.00 
G01 X-37.8529 Y78.4335 
G01 X-38.0166 Y78.4010 
G01 X-38.1834 Y78.4010 
G01 X-38.3471 Y78.4335 
G01 X-38.5012 Y78.4974 
G01 X-38.6399 Y78.5901 
G01 X-38.7579 Y78.7081 
G01 X-38.8506 Y78.8468 
G01 X-38.9144 Y79.0009 
G01 X-38.9470 Y79.1646 
G01 X-38.9470 Y80.8554 
G01 X-38.9144 Y81.0191 
G01 X-38.8506 Y81.1732 
G01 X-38.7579 Y81.3119 
G01 X-38.6399 Y81.4299 
G01 X-38.5012 Y81.5226 
G01 X-38.3471 Y81.5864 
G01 X-38.1834 Y81.6190 
G01 X-38.0166 Y81.6190 
G01 X-37.8529 Y81.5864 
G01 X-37.6988 Y81.5226 
G01 X-37.5601 Y81.4299 
G01 X-37.4421 Y81.3119 
G01 X-37.3494 Y81.1732 
G01 X-37.2856 Y81.0191 
G01 X-37.2530 Y80.8554 
G01 X-37.2530 Y79.1646 
G01 X-37.2856 Y79.0009 
G01 X-37.3494 Y78.8468 
G01 X-37.4421 Y78.7081 
G01 X-37.5601 Y78.5901 
G00 Z5.0000 
G00 X-40.1001 Y78.5901 
G01 Z-0.1400 F254.00 
G01 X-40.2388 Y78.4974 F1000.00 
G01 X-40.3929 Y78.4335 
G01 X-40.5566 Y78.4010 
G01 X-40.7234 Y78.4010 
G01 X-40.8871 Y78.4335 
G01 X-41.0412 Y78.4974 
G01 X-41.1799 Y78.5901 
G01 X-41.2979 Y78.7081 
G01 X-41.3906 Y78.8468 
G01 X-41.4544 Y79.0009 
G01 X-41.4870 Y79.1646 
G01 X-41.4870 Y80.8554 
G01 X-41.4544 Y81.0191 
G01 X-41.3906 Y81.1732 
G01 X-41.2979 Y81.3119 
G01 X-41.1799 Y81.4299 
G01 X-41.0412 Y81.5226 
G01 X-40.8871 Y81.5864 
G01 X-40.7234 Y81.6190 
G01 X-40.5566 Y81.6190 
G01 X-40.3929 Y81.5864 
G01 X-40.2388 Y81.5226 
G01 X-40.1001 Y81.4299 
G01 X-39.9821 Y81.3119 
G01 X-39.8894 Y81.1732 
G01 X-39.8255 Y81.0191 
G01 X-39.7930 Y80.8554 
G01 X-39.7930 Y79.1646 
G01 X-39.8255 Y79.0009 
G01 X-39.8894 Y78.8468 
G01 X-39.9821 Y78.7081 
G01 X-40.1001 Y78.5901 
G00 Z5.0000 
G00 X-42.6401 Y78.5901 
G01 Z-0.1400 F254.00 
G01 X-42.7788 Y78.4974 F1000.00 
G01 X-42.9329 Y78.4335 
G01 X-43.0966 Y78.4010 
G01 X-43.2634 Y78.4010 
G01 X-43.4271 Y78.4335 
G01 X-43.5812 Y78.4974 
G01 X-43.7199 Y78.5901 
G01 X-43.8379 Y78.7081 
G01 X-43.9306 Y78.8468 
G01 X-43.9944 Y79.0009 
G01 X-44.0270 Y79.1646 
G01 X-44.0270 Y80.8554 
G01 X-43.9944 Y81.0191 
G01 X-43.9306 Y81.1732 
G01 X-43.8379 Y81.3119 
G01 X-43.7199 Y81.4299 
G01 X-43.5812 Y81.5226 
G01 X-43.4271 Y81.5864 
G01 X-43.2634 Y81.6190 
G01 X-43.0966 Y81.6190 
G01 X-42.9329 Y81.5864 
G01 X-42.7788 Y81.5226 
G01 X-42.6401 Y81.4299 
G01 X-42.5221 Y81.3119 
G01 X-42.4294 Y81.1732 
G01 X-42.3655 Y81.0191 
G01 X-42.3330 Y80.8554 
G01 X-42.3330 Y79.1646 
G01 X-42.3655 Y79.0009 
G01 X-42.4294 Y78.8468 
G01 X-42.5221 Y78.7081 
G01 X-42.6401 Y78.5901 
G00 Z5.0000 
G00 X-47.3394 Y78.6065 
G01 Z-0.1400 F254.00 
G01 X-47.4163 Y78.4557 F1000.00 
