(.../pcb-gcode-3.6.2.4/pcb-gcode.ulp)
(Copyright 2005 - 2012 by John Johnson)
(See readme.txt for licensing terms.)
(This file generated from the board:)
(.../my projects/My Controllers/pc.brd)
(Current profile is .../pcb-gcode-3.6.2.4/profiles/emc.pp  )
(This file generated 06.01.2017 19:21:26)
(Settings from pcb-machine.h)
(spindle on time = 3.0000)
(spindle speed = 20000.0000)
(tool change at 0.0000 0.0000 40.0000 )
(feed rate xy = F0.00  )
(feed rate z  = F508.00 )
(Z Axis Settings)
(  High     Up        Down     Drill)
(15.0000 	5.0000 	-0.1400 	-1.5000 )
(Settings from pcb-defaults.h)
(isolate min = 0.0100)
(isolate max = 1.2700)
(isolate step = 0.1270)
(Generated top outlines, top drill, bottom outlines, bottom drill, )
(Unit of measure: mm)
( Tool|       Size       |  Min Sub |  Max Sub |   Count )
( T01 | 0.600mm 0.0236in | 0.0000in | 0.0000in |       0 )
( T02 | 0.610mm 0.0240in | 0.0000in | 0.0000in |       0 )
( T03 | 0.813mm 0.0320in | 0.0000in | 0.0000in |       0 )
( T04 | 1.000mm 0.0394in | 0.0000in | 0.0000in |       0 )
( T05 | 1.016mm 0.0400in | 0.0000in | 0.0000in |       0 )
( T06 | 1.118mm 0.0440in | 0.0000in | 0.0000in |       0 )
( T07 | 1.321mm 0.0520in | 0.0000in | 0.0000in |       0 )
( T08 | 3.000mm 0.1181in | 0.0000in | 0.0000in |       0 )
( T09 | 3.302mm 0.1300in | 0.0000in | 0.0000in |       0 )
(Metric Mode)
G21
(Absolute Coordinates)
G90
S20000
G00 Z15.0000 
G00 X0.0000 Y0.0000 
M03
G04 P3.000000
M05
G00 Z40.0000 
M06 T01 (0.6000 )
G00 Z5.0000 
M03
G04 P3.000000
G82 X26.5000 Y69.8500 Z-1.5000 F508.00 R5.0000 P1.000000
G82 X27.7700 Y67.3100 
G82 X29.0400 Y68.5800 
G82 X31.5800 Y68.5800 
G82 X31.5800 Y72.3900 
G82 X29.0400 Y74.9300 
G82 X26.5000 Y82.5500 
G82 X36.6600 Y77.4700 
G82 X39.2000 Y82.5500 
G82 X60.7900 Y82.5500 
G82 X68.4100 Y82.5500 
G82 X76.0300 Y77.4700 
G82 X78.5700 Y85.0900 
G82 X76.0300 Y88.9000 
G82 X78.5700 Y99.0600 
G82 X37.9300 Y49.5300 
G82 X30.3100 Y49.5300 
G82 X27.7700 Y55.8800 
M05
G00 Z40.0000 
G00 X0.0000 Y0.0000 
M06 T02 (0.6096 )
G00 Z5.0000 
M03
G04 P3.000000
G82 X8.7200 Y63.5000 Z-1.5000 F508.00 R5.0000 P1.000000
G82 X8.7200 Y66.0400 
G82 X8.7200 Y68.5800 
M05
G00 Z40.0000 
G00 X0.0000 Y0.0000 
M06 T03 (0.8128 )
G00 Z5.0000 
M03
G04 P3.000000
G82 X4.9100 Y50.8000 Z-1.5000 F508.00 R5.0000 P1.000000
G82 X4.9100 Y53.3400 
G82 X12.5300 Y53.3400 
G82 X12.5300 Y50.8000 
G82 X12.5300 Y56.1340 
G82 X12.5300 Y58.1660 
G82 X18.8800 Y46.9900 
G82 X18.8800 Y44.4500 
G82 X34.1200 Y64.7700 
G82 X34.1200 Y67.3100 
G82 X34.1200 Y69.8500 
G82 X34.1200 Y72.3900 
G82 X34.1200 Y74.9300 
G82 X34.1200 Y77.4700 
G82 X34.1200 Y80.0100 
G82 X34.1200 Y82.5500 
G82 X34.1200 Y85.0900 
G82 X34.1200 Y87.6300 
G82 X34.1200 Y90.1700 
G82 X34.1200 Y92.7100 
G82 X34.1200 Y95.2500 
G82 X34.1200 Y97.7900 
G82 X34.1200 Y101.6000 
G82 X37.9300 Y104.1400 
G82 X41.7400 Y101.6000 
G82 X41.7400 Y97.7900 
G82 X41.7400 Y95.2500 
G82 X41.7400 Y92.7100 
G82 X41.7400 Y90.1700 
G82 X41.7400 Y87.6300 
G82 X41.7400 Y85.0900 
G82 X41.7400 Y82.5500 
G82 X41.7400 Y80.0100 
G82 X41.7400 Y77.4700 
G82 X41.7400 Y74.9300 
G82 X41.7400 Y72.3900 
G82 X41.7400 Y69.8500 
G82 X41.7400 Y67.3100 
G82 X41.7400 Y64.7700 
G82 X48.0900 Y62.2300 
G82 X53.1700 Y62.2300 
G82 X53.1700 Y67.3100 
G82 X48.0900 Y67.3100 
G82 X48.2170 Y72.3900 
G82 X53.0430 Y72.3900 
G82 X55.7100 Y78.7400 
G82 X53.1700 Y80.0100 
G82 X49.3600 Y80.0100 
G82 X45.5500 Y80.0100 
G82 X45.5500 Y85.0900 
G82 X45.5500 Y88.9000 
G82 X49.3600 Y85.0900 
G82 X53.1700 Y87.6300 
G82 X55.7100 Y86.3600 
G82 X60.7900 Y86.3600 
G82 X60.7900 Y88.9000 
G82 X60.7900 Y91.4400 
G82 X60.7900 Y93.9800 
G82 X59.5200 Y99.0600 
G82 X62.0600 Y99.0600 
G82 X64.6000 Y99.0600 
G82 X67.1400 Y96.5200 
G82 X68.4100 Y93.9800 
G82 X68.4100 Y91.4400 
G82 X68.4100 Y88.9000 
G82 X68.4100 Y86.3600 
G82 X72.2200 Y86.3600 
G82 X72.2200 Y91.4400 
G82 X74.7600 Y96.5200 
G82 X68.4100 Y104.1400 
G82 X64.6000 Y106.6800 
G82 X62.0600 Y106.6800 
G82 X59.5200 Y106.6800 
G82 X56.9800 Y106.6800 
G82 X54.4400 Y106.6800 
G82 X51.9000 Y106.6800 
G82 X49.3600 Y106.6800 
G82 X49.3600 Y99.0600 
G82 X51.9000 Y99.0600 
G82 X54.4400 Y99.0600 
G82 X56.9800 Y99.0600 
G82 X45.5500 Y99.0600 
G82 X37.9300 Y109.2200 
G82 X30.3100 Y97.7900 
G82 X30.3100 Y95.2500 
G82 X30.3100 Y92.7100 
G82 X30.3100 Y90.1700 
G82 X30.3100 Y87.6300 
G82 X30.3100 Y85.0900 
G82 X22.6900 Y85.0900 
G82 X22.6900 Y87.6300 
G82 X22.6900 Y90.1700 
G82 X22.6900 Y92.7100 
G82 X22.6900 Y95.2500 
G82 X22.6900 Y97.7900 
G82 X18.8800 Y99.0600 
G82 X16.3400 Y99.0600 
G82 X16.3400 Y104.1400 
G82 X18.8800 Y104.1400 
G82 X18.8800 Y93.9800 
G82 X16.3400 Y93.9800 
G82 X16.3400 Y88.9000 
G82 X18.8800 Y88.9000 
G82 X18.8800 Y83.8200 
G82 X16.3400 Y83.8200 
G82 X16.3400 Y78.7400 
G82 X18.8800 Y78.7400 
G82 X60.7900 Y77.4700 
G82 X60.7900 Y74.9300 
G82 X60.7900 Y72.3900 
G82 X68.4100 Y72.3900 
G82 X68.4100 Y74.9300 
G82 X68.4100 Y77.4700 
G82 X68.4100 Y80.0100 
G82 X72.2200 Y80.0100 
G82 X72.2200 Y74.9300 
G82 X70.9500 Y71.1200 
G82 X74.7600 Y66.0400 
G82 X70.9500 Y63.5000 
G82 X74.7600 Y60.9600 
G82 X79.8400 Y60.9600 
G82 X79.8400 Y66.0400 
G82 X79.8400 Y80.0100 
G82 X87.4600 Y80.0100 
G82 X60.7900 Y80.0100 
G82 X64.6000 Y53.3400 
G82 X64.6000 Y50.8000 
G82 X64.6000 Y46.9900 
G82 X67.1400 Y46.9900 
G82 X69.9340 Y49.5300 
G82 X71.9660 Y49.5300 
G82 X77.3000 Y43.1800 
G82 X79.8400 Y43.1800 
G82 X79.8400 Y39.3700 
G82 X79.8400 Y31.7500 
G82 X68.4100 Y109.2200 
M05
G00 Z40.0000 
G00 X0.0000 Y0.0000 
M06 T04 (1.0000 )
G00 Z5.0000 
M03
G04 P3.000000
G82 X27.0600 Y104.4300 Z-1.5000 F508.00 R5.0000 P1.000000
G82 X27.0600 Y108.9300 
G82 X33.5600 Y108.9300 
G82 X33.5600 Y104.4300 
M05
G00 Z40.0000 
G00 X0.0000 Y0.0000 
M06 T05 (1.0160 )
G00 Z5.0000 
M03
G04 P3.000000
G82 X17.6100 Y50.8000 Z-1.5000 F508.00 R5.0000 P1.000000
G82 X17.6100 Y53.3400 
G82 X21.4200 Y64.7700 
G82 X23.9600 Y64.7700 
G82 X23.9600 Y67.3100 
G82 X23.9600 Y69.8500 
G82 X21.4200 Y69.8500 
G82 X21.4200 Y67.3100 
G82 X21.4200 Y72.3900 
G82 X23.9600 Y72.3900 
G82 X23.9600 Y74.9300 
G82 X21.4200 Y74.9300 
G82 X32.8500 Y55.6300 
G82 X32.8500 Y53.0900 
G82 X35.3900 Y53.0900 
G82 X35.3900 Y55.6300 
G82 X37.9300 Y55.6300 
G82 X37.9300 Y53.0900 
G82 X40.4700 Y53.0900 
G82 X40.4700 Y55.6300 
G82 X43.0100 Y55.6300 
G82 X43.0100 Y53.0900 
G82 X70.9500 Y58.4200 
G82 X70.9500 Y60.9600 
M05
G00 Z40.0000 
G00 X0.0000 Y0.0000 
M06 T06 (1.1176 )
G00 Z5.0000 
M03
G04 P3.000000
G82 X8.7200 Y46.9900 Z-1.5000 F508.00 R5.0000 P1.000000
G82 X11.2600 Y46.9900 
G82 X13.8000 Y46.9900 
G82 X67.1400 Y43.1800 
G82 X69.6800 Y43.1800 
G82 X72.2200 Y43.1800 
G82 X58.2500 Y13.9700 
G82 X58.2500 Y3.8100 
M05
G00 Z40.0000 
G00 X0.0000 Y0.0000 
M06 T07 (1.3208 )
G00 Z5.0000 
M03
G04 P3.000000
G82 X63.3554 Y3.8100 Z-1.5000 F508.00 R5.0000 P1.000000
G82 X68.3846 Y3.8100 
G82 X84.9200 Y61.0616 
G82 X84.9200 Y66.0908 
G82 X84.9200 Y71.0692 
G82 X84.9200 Y76.0984 
M05
G00 Z40.0000 
G00 X0.0000 Y0.0000 
M06 T08 (3.0000 )
G00 Z5.0000 
M03
G04 P3.000000
G82 X5.0000 Y5.0000 Z-1.5000 F508.00 R5.0000 P1.000000
G82 X24.2300 Y5.0500 
G82 X51.6300 Y5.0500 
G82 X85.0000 Y5.0000 
G82 X51.6300 Y53.7500 
G82 X24.2300 Y53.7500 
G82 X5.0000 Y107.0000 
G82 X85.0000 Y107.0000 
M05
G00 Z40.0000 
G00 X0.0000 Y0.0000 
M06 T09 (3.3020 )
G00 Z5.0000 
M03
G04 P3.000000
G82 X11.2600 Y32.0040 Z-1.5000 F508.00 R5.0000 P1.000000
G82 X69.6800 Y28.1940 
T01 
G00 Z15.0000 
M05
M02
