(.../pcb-gcode-3.6.2.4/pcb-gcode.ulp)
(Copyright 2005 - 2012 by John Johnson)
(See readme.txt for licensing terms.)
(This file generated from the board:)
(.../my projects/My Controllers/pc.brd)
(Current profile is .../pcb-gcode-3.6.2.4/profiles/emc.pp  )
(This file generated 06.01.2017 19:21:08)
(Settings from pcb-machine.h)
(spindle on time = 3.0000)
(  Tool Size)
(0.1500 )
(spindle speed = 20000.0000)
(tool change at 0.0000 0.0000 40.0000 )
(feed rate xy = F1000.00 )
(feed rate z  = F254.00 )
(Z Axis Settings)
(  High     Up        Down     Drill)
(15.0000 	5.0000 	-0.1400 	-1.5000 )
(Settings from pcb-defaults.h)
(isolate min = 0.0100)
(isolate max = 1.2700)
(isolate step = 0.1270)
(Generated top outlines, top drill, bottom outlines, bottom drill, )
(Unit of measure: mm)
(Metric Mode)
G21
(Absolute Coordinates)
G90
S20000
G00 Z15.0000 
G00 X0.0000 Y0.0000 
M03
G04 P3.000000
G00 Z5.0000 
G00 X1.0815 Y1.0089 
G01 Z-0.1400 F254.00 
G01 X1.0089 Y1.0815 F1000.00 
G01 X0.9576 Y1.1703 
G01 X0.9310 Y1.2695 
G01 X0.9310 Y110.7305 
G01 X0.9576 Y110.8297 
G01 X1.0089 Y110.9185 
G01 X1.0815 Y110.9911 
G01 X1.1703 Y111.0424 
G01 X1.2695 Y111.0690 
G01 X88.7305 Y111.0690 
G01 X88.8297 Y111.0424 
G01 X88.9185 Y110.9911 
G01 X88.9911 Y110.9185 
G01 X89.0424 Y110.8297 
G01 X89.0690 Y110.7305 
G01 X89.0690 Y1.2695 
G01 X89.0424 Y1.1703 
G01 X88.9911 Y1.0815 
G01 X88.9185 Y1.0089 
G01 X88.8297 Y0.9576 
G01 X88.7305 Y0.9310 
G01 X64.2100 Y0.9310 
G01 X64.1844 Y0.9276 
G01 X64.1589 Y0.9310 
G01 X64.1331 Y0.9310 
G01 X64.1082 Y0.9377 
G01 X64.0827 Y0.9410 
G01 X64.0589 Y0.9509 
G01 X64.0340 Y0.9576 
G01 X64.0117 Y0.9704 
G01 X63.9879 Y0.9803 
G01 X63.9674 Y0.9960 
G01 X63.9451 Y1.0089 
G01 X63.9269 Y1.0271 
G01 X63.9064 Y1.0428 
G01 X63.8908 Y1.0632 
G01 X63.8725 Y1.0815 
G01 X63.8597 Y1.1038 
G01 X63.8440 Y1.1242 
G01 X63.8341 Y1.1480 
G01 X63.8212 Y1.1703 
G01 X63.8145 Y1.1952 
G01 X63.8047 Y1.2190 
G01 X63.8013 Y1.2446 
G01 X63.7947 Y1.2695 
G01 X63.7947 Y1.2953 
G01 X63.7913 Y1.3208 
G01 X63.7947 Y1.3463 
G01 X63.7947 Y1.3721 
G01 X63.8013 Y1.3970 
G01 X63.8047 Y1.4226 
G01 X63.8146 Y1.4464 
G01 X63.8212 Y1.4713 
G01 X63.8341 Y1.4936 
G01 X63.8440 Y1.5174 
G01 X63.8597 Y1.5378 
G01 X63.8725 Y1.5601 
G01 X63.8908 Y1.5784 
G01 X63.9065 Y1.5988 
G01 X63.9269 Y1.6145 
G01 X63.9451 Y1.6327 
G01 X63.9674 Y1.6456 
G01 X63.9879 Y1.6613 
G01 X64.0117 Y1.6711 
G01 X64.0340 Y1.6840 
G01 X64.0589 Y1.6907 
G01 X64.0986 Y1.7071 
G01 X64.4677 Y2.0762 
G01 X64.6674 Y2.5584 
G01 X64.6674 Y5.0616 
G01 X64.4677 Y5.5438 
G01 X64.0986 Y5.9129 
G01 X63.6164 Y6.1126 
G01 X63.0944 Y6.1126 
G01 X62.6122 Y5.9129 
G01 X62.2431 Y5.5438 
G01 X62.0306 Y5.0306 
G01 X62.0239 Y5.0057 
G01 X62.0110 Y4.9834 
G01 X62.0012 Y4.9596 
G01 X61.9855 Y4.9392 
G01 X61.9726 Y4.9169 
G01 X61.9544 Y4.8986 
G01 X61.9387 Y4.8782 
G01 X61.9183 Y4.8625 
G01 X61.9000 Y4.8443 
G01 X61.8777 Y4.8314 
G01 X61.8573 Y4.8157 
G01 X61.8335 Y4.8059 
G01 X61.8111 Y4.7930 
G01 X61.7862 Y4.7863 
G01 X61.7624 Y4.7764 
G01 X61.7369 Y4.7731 
G01 X61.7120 Y4.7664 
G01 X61.6862 Y4.7664 
G01 X61.6607 Y4.7630 
G01 X61.6351 Y4.7664 
G01 X59.0743 Y4.7664 
G01 X59.0488 Y4.7630 
G01 X59.0232 Y4.7664 
G01 X58.9974 Y4.7664 
G01 X58.9725 Y4.7731 
G01 X58.9470 Y4.7764 
G01 X58.9232 Y4.7863 
G01 X58.8983 Y4.7930 
G01 X58.8760 Y4.8059 
G01 X58.4807 Y4.9696 
G01 X58.0193 Y4.9696 
G01 X57.5931 Y4.7931 
G01 X57.2669 Y4.4669 
G01 X57.0904 Y4.0407 
G01 X57.0904 Y3.5793 
G01 X57.2669 Y3.1531 
G01 X57.5931 Y2.8269 
G01 X58.0193 Y2.6504 
G01 X58.4807 Y2.6504 
G01 X58.8760 Y2.8141 
G01 X58.8983 Y2.8270 
G01 X58.9232 Y2.8337 
G01 X58.9470 Y2.8436 
G01 X58.9725 Y2.8469 
G01 X58.9974 Y2.8536 
G01 X59.0232 Y2.8536 
G01 X59.0488 Y2.8570 
G01 X59.0743 Y2.8536 
G01 X61.6351 Y2.8536 
G01 X61.6607 Y2.8570 
G01 X61.6862 Y2.8536 
G01 X61.7120 Y2.8536 
G01 X61.7369 Y2.8469 
G01 X61.7624 Y2.8436 
G01 X61.7862 Y2.8337 
G01 X61.8111 Y2.8270 
G01 X61.8335 Y2.8141 
G01 X61.8573 Y2.8043 
G01 X61.8777 Y2.7886 
G01 X61.9000 Y2.7757 
G01 X61.9182 Y2.7575 
G01 X61.9387 Y2.7418 
G01 X61.9544 Y2.7214 
G01 X61.9726 Y2.7031 
G01 X61.9855 Y2.6808 
G01 X62.0012 Y2.6604 
G01 X62.0110 Y2.6366 
G01 X62.0239 Y2.6143 
G01 X62.0306 Y2.5894 
G01 X62.2431 Y2.0762 
G01 X62.6122 Y1.7071 
G01 X62.6519 Y1.6907 
G01 X62.6768 Y1.6840 
G01 X62.6991 Y1.6711 
G01 X62.7229 Y1.6613 
G01 X62.7434 Y1.6456 
G01 X62.7657 Y1.6327 
G01 X62.7839 Y1.6145 
G01 X62.8043 Y1.5988 
G01 X62.8200 Y1.5784 
G01 X62.8383 Y1.5601 
G01 X62.8511 Y1.5378 
G01 X62.8668 Y1.5174 
G01 X62.8767 Y1.4936 
G01 X62.8896 Y1.4713 
G01 X62.8962 Y1.4464 
G01 X62.9061 Y1.4226 
G01 X62.9095 Y1.3970 
G01 X62.9161 Y1.3721 
G01 X62.9161 Y1.3463 
G01 X62.9195 Y1.3208 
G01 X62.9161 Y1.2953 
G01 X62.9161 Y1.2695 
G01 X62.9095 Y1.2446 
G01 X62.9061 Y1.2190 
G01 X62.8962 Y1.1952 
G01 X62.8896 Y1.1703 
G01 X62.8767 Y1.1480 
G01 X62.8668 Y1.1242 
G01 X62.8511 Y1.1038 
G01 X62.8383 Y1.0815 
G01 X62.8200 Y1.0632 
G01 X62.8043 Y1.0428 
G01 X62.7839 Y1.0271 
G01 X62.7657 Y1.0089 
G01 X62.7434 Y0.9960 
G01 X62.7229 Y0.9803 
G01 X62.6991 Y0.9704 
G01 X62.6768 Y0.9576 
G01 X62.6519 Y0.9509 
G01 X62.6281 Y0.9410 
G01 X62.6026 Y0.9377 
G01 X62.5777 Y0.9310 
G01 X62.5519 Y0.9310 
G01 X62.5263 Y0.9276 
G01 X62.5008 Y0.9310 
G01 X1.2695 Y0.9310 
G01 X1.1703 Y0.9576 
G01 X1.0815 Y1.0089 
G00 Z5.0000 
G00 X2.7423 Y3.2676 
G01 Z-0.1400 F254.00 
G01 X3.2676 Y2.7423 F1000.00 
G01 X3.9110 Y2.3709 
G01 X4.6286 Y2.1786 
G01 X5.3714 Y2.1786 
G01 X6.0890 Y2.3709 
G01 X6.7324 Y2.7423 
G01 X7.2577 Y3.2676 
G01 X7.6291 Y3.9110 
G01 X7.8214 Y4.6286 
G01 X7.8214 Y5.3714 
G01 X7.6291 Y6.0890 
G01 X7.2577 Y6.7324 
G01 X6.7324 Y7.2577 
G01 X6.0890 Y7.6291 
G01 X5.3714 Y7.8214 
G01 X4.6286 Y7.8214 
G01 X3.9110 Y7.6291 
G01 X3.2676 Y7.2577 
G01 X2.7423 Y6.7324 
G01 X2.3709 Y6.0890 
G01 X2.1786 Y5.3714 
G01 X2.1786 Y4.6286 
G01 X2.3709 Y3.9110 
G01 X2.7423 Y3.2676 
G00 Z5.0000 
G00 X3.0695 Y3.2748 
G01 Z-0.1400 F254.00 
G01 X2.8885 Y3.5018 F1000.00 
G01 X2.7340 Y3.7476 
G01 X2.6080 Y4.0092 
G01 X2.5121 Y4.2832 
G01 X2.4475 Y4.5663 
G01 X2.4150 Y4.8548 
G01 X2.4150 Y5.1452 
G01 X2.4475 Y5.4337 
G01 X2.5121 Y5.7167 
G01 X2.6080 Y5.9908 
G01 X2.7340 Y6.2524 
G01 X2.8885 Y6.4982 
G01 X3.0695 Y6.7252 
G01 X3.2748 Y6.9305 
G01 X3.5018 Y7.1115 
G01 X3.7476 Y7.2660 
G01 X4.0092 Y7.3920 
G01 X4.2832 Y7.4879 
G01 X4.5663 Y7.5525 
G01 X4.8548 Y7.5850 
G01 X5.1452 Y7.5850 
G01 X5.4337 Y7.5525 
G01 X5.7167 Y7.4879 
G01 X5.9908 Y7.3920 
G01 X6.2524 Y7.2660 
G01 X6.4982 Y7.1115 
G01 X6.7252 Y6.9305 
G01 X6.9305 Y6.7252 
G01 X7.1115 Y6.4982 
G01 X7.2660 Y6.2524 
G01 X7.3920 Y5.9908 
G01 X7.4879 Y5.7167 
G01 X7.5525 Y5.4337 
G01 X7.5850 Y5.1452 
G01 X7.5850 Y4.8548 
G01 X7.5525 Y4.5663 
G01 X7.4879 Y4.2832 
G01 X7.3920 Y4.0092 
G01 X7.2660 Y3.7476 
G01 X7.1115 Y3.5018 
G01 X6.9305 Y3.2748 
G01 X6.7252 Y3.0695 
G01 X6.4982 Y2.8885 
G01 X6.2524 Y2.7340 
G01 X5.9908 Y2.6080 
G01 X5.7167 Y2.5121 
G01 X5.4337 Y2.4475 
G01 X5.1452 Y2.4150 
G01 X4.8548 Y2.4150 
G01 X4.5663 Y2.4475 
G01 X4.2832 Y2.5121 
G01 X4.0092 Y2.6080 
G01 X3.7476 Y2.7340 
G01 X3.5018 Y2.8885 
G01 X3.2748 Y3.0695 
G01 X3.0695 Y3.2748 
G00 Z5.0000 
G00 X22.3660 Y3.6197 
G01 Z-0.1400 F254.00 
G01 X22.7997 Y3.1860 F1000.00 
G01 X23.3309 Y2.8793 
G01 X23.9233 Y2.7206 
G01 X24.5367 Y2.7206 
G01 X25.1291 Y2.8793 
G01 X25.6603 Y3.1860 
G01 X26.0940 Y3.6197 
G01 X26.4007 Y4.1509 
G01 X26.5594 Y4.7433 
G01 X26.5594 Y5.3567 
G01 X26.4007 Y5.9491 
G01 X26.0940 Y6.4803 
G01 X25.6603 Y6.9140 
G01 X25.1291 Y7.2207 
G01 X24.5367 Y7.3794 
G01 X23.9233 Y7.3794 
G01 X23.3309 Y7.2207 
G01 X22.7997 Y6.9140 
G01 X22.3660 Y6.4803 
G01 X22.0593 Y5.9491 
G01 X21.9006 Y5.3567 
G01 X21.9006 Y4.7433 
G01 X22.0593 Y4.1509 
G01 X22.3660 Y3.6197 
G00 Z5.0000 
G00 X22.6530 Y3.6670 
G01 Z-0.1400 F254.00 
G01 X22.4860 Y3.8847 F1000.00 
G01 X22.3488 Y4.1223 
G01 X22.2438 Y4.3758 
G01 X22.1728 Y4.6408 
G01 X22.1370 Y4.9128 
G01 X22.1370 Y5.1872 
G01 X22.1728 Y5.4592 
G01 X22.2438 Y5.7242 
G01 X22.3488 Y5.9777 
G01 X22.4860 Y6.2153 
G01 X22.6530 Y6.4330 
G01 X22.8470 Y6.6270 
G01 X23.0647 Y6.7940 
G01 X23.3023 Y6.9312 
G01 X23.5558 Y7.0362 
G01 X23.8208 Y7.1072 
G01 X24.0928 Y7.1430 
G01 X24.3672 Y7.1430 
G01 X24.6392 Y7.1072 
G01 X24.9042 Y7.0362 
G01 X25.1577 Y6.9312 
G01 X25.3953 Y6.7940 
G01 X25.6130 Y6.6270 
G01 X25.8070 Y6.4330 
G01 X25.9740 Y6.2153 
G01 X26.1112 Y5.9777 
G01 X26.2162 Y5.7242 
G01 X26.2872 Y5.4592 
G01 X26.3230 Y5.1872 
G01 X26.3230 Y4.9128 
G01 X26.2872 Y4.6408 
G01 X26.2162 Y4.3758 
G01 X26.1112 Y4.1223 
G01 X25.9740 Y3.8847 
G01 X25.8070 Y3.6670 
G01 X25.6130 Y3.4730 
G01 X25.3953 Y3.3060 
G01 X25.1577 Y3.1688 
G01 X24.9042 Y3.0638 
G01 X24.6392 Y2.9928 
G01 X24.3672 Y2.9570 
G01 X24.0928 Y2.9570 
G01 X23.8208 Y2.9928 
G01 X23.5558 Y3.0638 
G01 X23.3023 Y3.1688 
G01 X23.0647 Y3.3060 
G01 X22.8470 Y3.4730 
G01 X22.6530 Y3.6670 
G00 Z5.0000 
G00 X49.7660 Y3.6197 
G01 Z-0.1400 F254.00 
G01 X50.1997 Y3.1860 F1000.00 
G01 X50.7309 Y2.8793 
G01 X51.3233 Y2.7206 
G01 X51.9367 Y2.7206 
G01 X52.5291 Y2.8793 
G01 X53.0603 Y3.1860 
G01 X53.4940 Y3.6197 
G01 X53.8007 Y4.1509 
G01 X53.9594 Y4.7433 
G01 X53.9594 Y5.3567 
G01 X53.8007 Y5.9491 
G01 X53.4940 Y6.4803 
G01 X53.0603 Y6.9140 
G01 X52.5291 Y7.2207 
G01 X51.9367 Y7.3794 
G01 X51.3233 Y7.3794 
G01 X50.7309 Y7.2207 
G01 X50.1997 Y6.9140 
G01 X49.7660 Y6.4803 
G01 X49.4593 Y5.9491 
G01 X49.3006 Y5.3567 
G01 X49.3006 Y4.7433 
G01 X49.4593 Y4.1509 
G01 X49.7660 Y3.6197 
G00 Z5.0000 
G00 X50.0530 Y3.6670 
G01 Z-0.1400 F254.00 
G01 X49.8860 Y3.8847 F1000.00 
G01 X49.7488 Y4.1223 
G01 X49.6438 Y4.3758 
G01 X49.5728 Y4.6408 
G01 X49.5370 Y4.9128 
G01 X49.5370 Y5.1872 
G01 X49.5728 Y5.4592 
G01 X49.6438 Y5.7242 
G01 X49.7488 Y5.9777 
G01 X49.8860 Y6.2153 
G01 X50.0530 Y6.4330 
G01 X50.2470 Y6.6270 
G01 X50.4647 Y6.7940 
G01 X50.7023 Y6.9312 
G01 X50.9558 Y7.0362 
G01 X51.2208 Y7.1072 
G01 X51.4928 Y7.1430 
G01 X51.7672 Y7.1430 
G01 X52.0392 Y7.1072 
G01 X52.3042 Y7.0362 
G01 X52.5577 Y6.9312 
G01 X52.7953 Y6.7940 
G01 X53.0130 Y6.6270 
G01 X53.2070 Y6.4330 
G01 X53.3740 Y6.2153 
G01 X53.5112 Y5.9777 
G01 X53.6162 Y5.7242 
G01 X53.6872 Y5.4592 
G01 X53.7230 Y5.1872 
G01 X53.7230 Y4.9128 
G01 X53.6872 Y4.6408 
G01 X53.6162 Y4.3758 
G01 X53.5112 Y4.1223 
G01 X53.3740 Y3.8847 
G01 X53.2070 Y3.6670 
G01 X53.0130 Y3.4730 
G01 X52.7953 Y3.3060 
G01 X52.5577 Y3.1688 
G01 X52.3042 Y3.0638 
G01 X52.0392 Y2.9928 
G01 X51.7672 Y2.9570 
G01 X51.4928 Y2.9570 
G01 X51.2208 Y2.9928 
G01 X50.9558 Y3.0638 
G01 X50.7023 Y3.1688 
G01 X50.4647 Y3.3060 
G01 X50.2470 Y3.4730 
G01 X50.0530 Y3.6670 
G00 Z5.0000 
G00 X57.3268 Y3.7191 
G01 Z-0.1400 F254.00 
G01 X57.3268 Y3.9009 F1000.00 
G01 X57.3623 Y4.0793 
G01 X57.4319 Y4.2473 
G01 X57.5329 Y4.3985 
G01 X57.6615 Y4.5271 
G01 X57.8127 Y4.6281 
G01 X57.9807 Y4.6977 
G01 X58.1591 Y4.7332 
G01 X58.3409 Y4.7332 
G01 X58.5193 Y4.6977 
G01 X58.6873 Y4.6281 
G01 X58.8342 Y4.5300 
G01 X62.2798 Y4.5300 
G01 X62.2798 Y4.8853 
G01 X62.3063 Y5.0525 
G01 X62.3586 Y5.2135 
G01 X62.4355 Y5.3643 
G01 X62.5350 Y5.5013 
G01 X62.6547 Y5.6210 
G01 X62.7917 Y5.7205 
G01 X62.9425 Y5.7974 
G01 X63.1035 Y5.8497 
G01 X63.2707 Y5.8762 
G01 X63.4400 Y5.8762 
G01 X63.6073 Y5.8497 
G01 X63.7683 Y5.7974 
G01 X63.9191 Y5.7205 
G01 X64.0561 Y5.6210 
G01 X64.1758 Y5.5013 
G01 X64.2753 Y5.3643 
G01 X64.3522 Y5.2135 
G01 X64.4045 Y5.0525 
G01 X64.4310 Y4.8853 
G01 X64.4310 Y2.7347 
G01 X64.4045 Y2.5675 
G01 X64.3522 Y2.4065 
G01 X64.2753 Y2.2557 
G01 X64.1758 Y2.1187 
G01 X64.0561 Y1.9990 
G01 X63.9191 Y1.8995 
G01 X63.7683 Y1.8226 
G01 X63.6073 Y1.7703 
G01 X63.4400 Y1.7438 
G01 X63.2707 Y1.7438 
G01 X63.1035 Y1.7703 
G01 X62.9425 Y1.8226 
G01 X62.7917 Y1.8995 
G01 X62.6547 Y1.9990 
G01 X62.5350 Y2.1187 
G01 X62.4355 Y2.2557 
G01 X62.3586 Y2.4065 
G01 X62.3063 Y2.5675 
G01 X62.2798 Y2.7347 
G01 X62.2798 Y3.0900 
G01 X58.8342 Y3.0900 
G01 X58.6873 Y2.9919 
G01 X58.5193 Y2.9223 
G01 X58.3409 Y2.8868 
G01 X58.1591 Y2.8868 
G01 X57.9807 Y2.9223 
G01 X57.8127 Y2.9919 
G01 X57.6615 Y3.0929 
G01 X57.5329 Y3.2215 
G01 X57.4319 Y3.3727 
G01 X57.3623 Y3.5407 
G01 X57.3268 Y3.7191 
G00 Z5.0000 
G00 X57.5931 Y12.9869 
G01 Z-0.1400 F254.00 
G01 X58.0193 Y12.8104 F1000.00 
G01 X58.4807 Y12.8104 
G01 X58.9069 Y12.9869 
G01 X59.2331 Y13.3131 
G01 X59.4096 Y13.7393 
G01 X59.4096 Y14.2007 
G01 X59.2459 Y14.5960 
G01 X59.2330 Y14.6183 
G01 X59.2263 Y14.6432 
G01 X59.2164 Y14.6670 
G01 X59.2131 Y14.6925 
G01 X59.2064 Y14.7174 
G01 X59.2064 Y14.7432 
G01 X59.2030 Y14.7688 
G01 X59.2064 Y14.7943 
G01 X59.2064 Y44.4251 
G01 X59.2330 Y44.5243 
G01 X59.2843 Y44.6131 
G01 X59.3569 Y44.6857 
G01 X59.4457 Y44.7370 
G01 X59.5449 Y44.7636 
G01 X63.3051 Y44.7636 
G01 X63.4043 Y44.7370 
G01 X63.4931 Y44.6857 
G01 X63.5657 Y44.6131 
G01 X63.6170 Y44.5243 
G01 X63.6436 Y44.4251 
G01 X63.6436 Y42.9898 
G01 X63.7892 Y42.6382 
G01 X64.0582 Y42.3692 
G01 X64.4098 Y42.2236 
G01 X65.6478 Y42.2236 
G01 X65.6734 Y42.2270 
G01 X65.6989 Y42.2236 
G01 X65.7247 Y42.2236 
G01 X65.7496 Y42.2169 
G01 X65.7751 Y42.2136 
G01 X65.7989 Y42.2037 
G01 X65.8238 Y42.1970 
G01 X65.8461 Y42.1841 
G01 X65.8699 Y42.1743 
G01 X65.8904 Y42.1586 
G01 X65.9127 Y42.1457 
G01 X65.9309 Y42.1275 
G01 X65.9514 Y42.1118 
G01 X65.9671 Y42.0914 
G01 X65.9853 Y42.0731 
G01 X65.9982 Y42.0508 
G01 X66.0139 Y42.0304 
G01 X66.0237 Y42.0066 
G01 X66.0366 Y41.9843 
G01 X66.0433 Y41.9594 
G01 X66.1569 Y41.6849 
G01 X66.4831 Y41.3587 
G01 X66.9093 Y41.1822 
G01 X67.3707 Y41.1822 
G01 X67.7969 Y41.3587 
G01 X68.1231 Y41.6849 
G01 X68.2996 Y42.1111 
G01 X68.2996 Y44.2489 
G01 X68.1231 Y44.6751 
G01 X67.7969 Y45.0013 
G01 X67.3707 Y45.1778 
G01 X66.9093 Y45.1778 
G01 X66.4831 Y45.0013 
G01 X66.2581 Y44.7762 
G01 X66.1916 Y44.7097 
G01 X66.1855 Y44.7037 
G01 X66.0967 Y44.6523 
G01 X65.9986 Y44.6261 
G01 X65.8949 Y44.6258 
G01 X65.7957 Y44.6523 
G01 X65.7088 Y44.7025 
G01 X65.6343 Y44.7762 
G01 X65.5830 Y44.8651 
G01 X65.5567 Y44.9631 
G01 X65.5564 Y46.3452 
G01 X65.5564 Y46.3959 
G01 X65.5564 Y46.4478 
G01 X65.5679 Y46.4906 
G01 X65.5818 Y46.5426 
G01 X65.5818 Y47.3967 
G01 X65.0067 Y47.9718 
G01 X64.1933 Y47.9718 
G01 X63.6182 Y47.3967 
G01 X63.6182 Y47.0149 
G01 X63.5916 Y46.9157 
G01 X63.5403 Y46.8269 
G01 X63.4677 Y46.7543 
G01 X63.3789 Y46.7030 
G01 X63.2797 Y46.6764 
G01 X58.0598 Y46.6764 
G01 X57.7082 Y46.5308 
G01 X57.4392 Y46.2618 
G01 X57.2936 Y45.9102 
G01 X57.2936 Y36.8549 
G01 X57.2670 Y36.7557 
G01 X57.2157 Y36.6669 
G01 X57.1431 Y36.5943 
G01 X57.0543 Y36.5430 
G01 X56.9551 Y36.5164 
G01 X25.2549 Y36.5164 
G01 X25.1557 Y36.5430 
G01 X25.0669 Y36.5943 
G01 X24.9943 Y36.6669 
G01 X24.9430 Y36.7557 
G01 X24.9164 Y36.8549 
G01 X24.9164 Y47.1802 
G01 X24.7708 Y47.5318 
G01 X24.5018 Y47.8008 
G01 X24.1502 Y47.9464 
G01 X19.5248 Y47.9464 
G01 X19.4741 Y47.9464 
G01 X19.4222 Y47.9464 
G01 X19.3793 Y47.9579 
G01 X19.3274 Y47.9718 
G01 X18.4733 Y47.9718 
G01 X18.3988 Y47.8973 
G01 X18.3099 Y47.8460 
G01 X18.2108 Y47.8194 
G01 X15.3448 Y47.8194 
G01 X15.3192 Y47.8160 
G01 X15.2937 Y47.8194 
G01 X15.2679 Y47.8194 
G01 X15.2430 Y47.8261 
G01 X15.2175 Y47.8294 
G01 X15.1937 Y47.8393 
G01 X15.1688 Y47.8460 
G01 X15.1465 Y47.8588 
G01 X15.1227 Y47.8687 
G01 X15.1022 Y47.8844 
G01 X15.0799 Y47.8973 
G01 X15.0617 Y47.9155 
G01 X15.0412 Y47.9312 
G01 X15.0255 Y47.9516 
G01 X15.0073 Y47.9699 
G01 X14.9944 Y47.9922 
G01 X14.9787 Y48.0126 
G01 X14.9689 Y48.0364 
G01 X14.9560 Y48.0587 
G01 X14.9493 Y48.0836 
G01 X14.7831 Y48.4851 
G01 X14.4569 Y48.8113 
G01 X14.0307 Y48.9878 
G01 X13.5693 Y48.9878 
G01 X13.1431 Y48.8113 
G01 X12.9181 Y48.5862 
G01 X12.8516 Y48.5197 
G01 X12.8455 Y48.5137 
G01 X12.7567 Y48.4623 
G01 X12.6586 Y48.4361 
G01 X12.5549 Y48.4358 
G01 X12.4557 Y48.4623 
G01 X12.3688 Y48.5125 
G01 X12.2943 Y48.5862 
G01 X12.2430 Y48.6751 
G01 X12.2167 Y48.7731 
G01 X12.2164 Y49.0237 
G01 X12.2430 Y49.1228 
G01 X12.2943 Y49.2117 
G01 X12.3669 Y49.2843 
G01 X12.8229 Y49.7403 
G01 X12.9118 Y49.7916 
G01 X12.9441 Y49.8003 
G01 X12.9730 Y49.8170 
G01 X13.0282 Y49.8318 
G01 X13.0722 Y49.8436 
G01 X13.1229 Y49.8436 
G01 X13.1748 Y49.8436 
G01 X16.2228 Y49.8436 
G01 X16.2484 Y49.8470 
G01 X16.2739 Y49.8436 
G01 X16.2997 Y49.8436 
G01 X16.3246 Y49.8369 
G01 X16.3501 Y49.8336 
G01 X16.3739 Y49.8237 
G01 X16.3988 Y49.8170 
G01 X16.4211 Y49.8041 
G01 X16.6325 Y49.7166 
G01 X18.5875 Y49.7166 
G01 X18.9857 Y49.8815 
G01 X19.2905 Y50.1863 
G01 X19.4554 Y50.5845 
G01 X19.4554 Y51.0155 
G01 X19.2905 Y51.4137 
G01 X18.9857 Y51.7185 
G01 X18.9590 Y51.7295 
G01 X18.9166 Y51.7620 
G01 X18.8776 Y51.7920 
G01 X18.8408 Y51.8399 
G01 X18.8151 Y51.8734 
G01 X18.7858 Y51.9441 
G01 X18.7758 Y51.9682 
G01 X18.7679 Y52.0287 
G01 X18.7624 Y52.0700 
G01 X18.7676 Y52.1090 
G01 X18.7758 Y52.1717 
G01 X18.7977 Y52.2245 
G01 X18.8151 Y52.2666 
G01 X18.8476 Y52.3090 
G01 X18.8776 Y52.3480 
G01 X18.9255 Y52.3847 
G01 X18.9590 Y52.4105 
G01 X18.9857 Y52.4215 
G01 X19.2905 Y52.7263 
G01 X19.4554 Y53.1245 
G01 X19.4554 Y53.5555 
G01 X19.2905 Y53.9537 
G01 X18.9857 Y54.2585 
G01 X18.8306 Y54.3227 
G01 X18.8057 Y54.3294 
G01 X18.7834 Y54.3422 
G01 X18.7596 Y54.3521 
G01 X18.7392 Y54.3678 
G01 X18.7169 Y54.3807 
G01 X18.6986 Y54.3989 
G01 X18.6782 Y54.4146 
G01 X18.6625 Y54.4350 
G01 X18.6443 Y54.4532 
G01 X18.6314 Y54.4756 
G01 X18.6157 Y54.4960 
G01 X18.6058 Y54.5198 
G01 X18.5930 Y54.5421 
G01 X18.5863 Y54.5670 
G01 X18.5764 Y54.5908 
G01 X18.5731 Y54.6164 
G01 X18.5664 Y54.6413 
G01 X18.5664 Y54.6671 
G01 X18.5630 Y54.6926 
G01 X18.5664 Y54.7181 
G01 X18.5664 Y55.3737 
G01 X18.5930 Y55.4728 
G01 X18.6443 Y55.5617 
G01 X18.7169 Y55.6343 
G01 X20.4683 Y57.3857 
G01 X20.5572 Y57.4370 
G01 X20.6563 Y57.4636 
G01 X27.1088 Y57.4636 
G01 X27.1343 Y57.4670 
G01 X27.1599 Y57.4636 
G01 X27.1856 Y57.4636 
G01 X27.2105 Y57.4569 
G01 X27.2361 Y57.4536 
G01 X27.2599 Y57.4437 
G01 X27.2848 Y57.4370 
G01 X27.3071 Y57.4241 
G01 X27.3309 Y57.4143 
G01 X27.3513 Y57.3986 
G01 X27.3737 Y57.3857 
G01 X27.3919 Y57.3675 
G01 X27.4123 Y57.3518 
G01 X27.4280 Y57.3314 
G01 X27.4462 Y57.3131 
G01 X27.4591 Y57.2908 
G01 X27.4748 Y57.2704 
G01 X27.4847 Y57.2466 
G01 X27.4975 Y57.2243 
G01 X27.5042 Y57.1994 
G01 X27.5141 Y57.1756 
G01 X27.5174 Y57.1500 
G01 X27.5241 Y57.1251 
G01 X27.5241 Y57.0993 
G01 X27.5275 Y57.0738 
G01 X27.5241 Y57.0483 
G01 X27.5241 Y57.0225 
G01 X27.5174 Y56.9976 
G01 X27.5141 Y56.9720 
G01 X27.5042 Y56.9482 
G01 X27.4975 Y56.9233 
G01 X27.4846 Y56.9010 
G01 X27.4748 Y56.8772 
G01 X27.4591 Y56.8568 
G01 X27.4462 Y56.8345 
G01 X27.4280 Y56.8162 
G01 X27.4123 Y56.7958 
G01 X27.3919 Y56.7801 
G01 X27.3737 Y56.7619 
G01 X27.3513 Y56.7490 
G01 X27.3309 Y56.7333 
G01 X27.3071 Y56.7234 
G01 X27.2848 Y56.7106 
G01 X27.2599 Y56.7039 
G01 X27.2282 Y56.6908 
G01 X26.9592 Y56.4218 
G01 X26.8136 Y56.0702 
G01 X26.8136 Y55.6898 
G01 X26.9592 Y55.3382 
G01 X27.2282 Y55.0692 
G01 X27.5798 Y54.9236 
G01 X27.5870 Y54.9236 
G01 X27.6861 Y54.8970 
G01 X27.7750 Y54.8457 
G01 X27.8476 Y54.7731 
G01 X29.5043 Y53.1164 
G01 X29.5556 Y53.0275 
G01 X29.5822 Y52.9284 
G01 X29.5822 Y50.2649 
G01 X29.5556 Y50.1658 
G01 X29.5043 Y50.0769 
G01 X29.4992 Y50.0718 
G01 X29.3536 Y49.7202 
G01 X29.3536 Y49.3398 
G01 X29.4992 Y48.9882 
G01 X29.7682 Y48.7192 
G01 X30.1198 Y48.5736 
G01 X30.5002 Y48.5736 
G01 X30.8518 Y48.7192 
G01 X31.1208 Y48.9882 
G01 X31.2664 Y49.3398 
G01 X31.2664 Y49.7202 
G01 X31.1208 Y50.0718 
G01 X31.1157 Y50.0769 
G01 X31.0644 Y50.1658 
G01 X31.0378 Y50.2649 
G01 X31.0378 Y53.4848 
G01 X30.9270 Y53.7523 
G01 X28.8043 Y55.8750 
G01 X28.7530 Y55.9639 
G01 X28.7264 Y56.0630 
G01 X28.7264 Y56.0702 
G01 X28.5808 Y56.4218 
G01 X28.3118 Y56.6908 
G01 X28.2801 Y56.7039 
G01 X28.2552 Y56.7106 
G01 X28.2329 Y56.7234 
G01 X28.2091 Y56.7333 
G01 X28.1887 Y56.7490 
G01 X28.1663 Y56.7619 
G01 X28.1481 Y56.7801 
G01 X28.1277 Y56.7958 
G01 X28.1120 Y56.8162 
G01 X28.0938 Y56.8345 
G01 X28.0809 Y56.8568 
G01 X28.0652 Y56.8772 
G01 X28.0553 Y56.9010 
G01 X28.0424 Y56.9233 
G01 X28.0358 Y56.9482 
G01 X28.0259 Y56.9720 
G01 X28.0226 Y56.9976 
G01 X28.0159 Y57.0225 
G01 X28.0159 Y57.0483 
G01 X28.0125 Y57.0738 
G01 X28.0159 Y57.0993 
G01 X28.0159 Y57.1251 
G01 X28.0226 Y57.1500 
G01 X28.0259 Y57.1756 
G01 X28.0358 Y57.1994 
G01 X28.0424 Y57.2243 
G01 X28.0553 Y57.2466 
G01 X28.0652 Y57.2704 
G01 X28.0809 Y57.2908 
G01 X28.0938 Y57.3131 
G01 X28.1120 Y57.3314 
G01 X28.1277 Y57.3518 
G01 X28.1481 Y57.3675 
G01 X28.1663 Y57.3857 
G01 X28.1887 Y57.3986 
G01 X28.2091 Y57.4143 
G01 X28.2329 Y57.4241 
G01 X28.2552 Y57.4370 
G01 X28.2801 Y57.4437 
G01 X28.3039 Y57.4536 
G01 X28.3295 Y57.4569 
G01 X28.3544 Y57.4636 
G01 X28.3801 Y57.4636 
G01 X28.4057 Y57.4670 
G01 X28.4312 Y57.4636 
G01 X30.2851 Y57.4636 
G01 X30.3843 Y57.4370 
G01 X30.4731 Y57.3857 
G01 X30.5457 Y57.3131 
G01 X30.5970 Y57.2243 
G01 X30.6236 Y57.1251 
G01 X30.6236 Y55.6898 
G01 X30.7692 Y55.3382 
G01 X31.0382 Y55.0692 
G01 X31.3898 Y54.9236 
G01 X31.9141 Y54.9236 
G01 X32.0132 Y54.8970 
G01 X32.0703 Y54.8641 
G01 X32.1021 Y54.8457 
G01 X32.4012 Y54.5466 
G01 X33.2988 Y54.5466 
G01 X33.8807 Y55.1285 
G01 X33.9695 Y55.1798 
G01 X34.0687 Y55.2064 
G01 X34.1713 Y55.2064 
G01 X34.2705 Y55.1798 
G01 X34.3593 Y55.1285 
G01 X34.4319 Y55.0559 
G01 X34.8885 Y54.5993 
G01 X34.9398 Y54.5105 
G01 X34.9664 Y54.4113 
G01 X34.9664 Y54.3087 
G01 X34.9398 Y54.2095 
G01 X34.8885 Y54.1207 
G01 X34.8159 Y54.0481 
G01 X34.3066 Y53.5388 
G01 X34.3066 Y52.6412 
G01 X34.9412 Y52.0066 
G01 X35.8388 Y52.0066 
G01 X36.3481 Y52.5159 
G01 X36.4092 Y52.5771 
G01 X36.4207 Y52.5885 
G01 X36.5095 Y52.6398 
G01 X36.6075 Y52.6661 
G01 X36.7113 Y52.6664 
G01 X36.8062 Y52.6409 
G01 X36.8105 Y52.6398 
G01 X36.8993 Y52.5885 
G01 X36.9719 Y52.5159 
G01 X37.1243 Y52.3635 
G01 X37.1756 Y52.2746 
G01 X37.2022 Y52.1755 
G01 X37.2022 Y50.2649 
G01 X37.1756 Y50.1658 
G01 X37.1243 Y50.0769 
G01 X37.1192 Y50.0718 
G01 X36.9736 Y49.7202 
G01 X36.9736 Y49.3398 
G01 X37.1192 Y48.9882 
G01 X37.3882 Y48.7192 
G01 X37.7398 Y48.5736 
G01 X38.1202 Y48.5736 
G01 X38.4718 Y48.7192 
G01 X38.7408 Y48.9882 
G01 X38.8864 Y49.3398 
G01 X38.8864 Y49.7202 
G01 X38.7408 Y50.0718 
G01 X38.7357 Y50.0769 
G01 X38.6844 Y50.1658 
G01 X38.6578 Y50.2649 
G01 X38.6578 Y52.1755 
G01 X38.6844 Y52.2746 
G01 X38.7357 Y52.3635 
G01 X38.8083 Y52.4361 
G01 X38.9607 Y52.5885 
G01 X39.0495 Y52.6398 
G01 X39.1487 Y52.6664 
G01 X39.2513 Y52.6664 
G01 X39.3505 Y52.6398 
G01 X39.4393 Y52.5885 
G01 X39.5119 Y52.5159 
G01 X40.0212 Y52.0066 
G01 X40.9188 Y52.0066 
G01 X41.5007 Y52.5885 
G01 X41.5895 Y52.6398 
G01 X41.6887 Y52.6664 
G01 X41.7913 Y52.6664 
G01 X41.8905 Y52.6398 
G01 X41.9793 Y52.5885 
G01 X42.0519 Y52.5159 
G01 X42.5612 Y52.0066 
G01 X43.4588 Y52.0066 
G01 X44.0934 Y52.6412 
G01 X44.0934 Y53.5388 
G01 X43.5841 Y54.0481 
G01 X43.5229 Y54.1092 
G01 X43.5115 Y54.1207 
G01 X43.4602 Y54.2095 
G01 X43.4339 Y54.3075 
G01 X43.4336 Y54.4113 
G01 X43.4590 Y54.5062 
G01 X43.4602 Y54.5105 
G01 X43.5115 Y54.5993 
G01 X43.5841 Y54.6719 
G01 X44.0934 Y55.1812 
G01 X44.0934 Y56.0788 
G01 X43.4588 Y56.7134 
G01 X42.5612 Y56.7134 
G01 X42.0519 Y56.2041 
G01 X41.9907 Y56.1429 
G01 X41.9793 Y56.1315 
G01 X41.8905 Y56.0802 
G01 X41.7924 Y56.0539 
G01 X41.6887 Y56.0536 
G01 X41.5938 Y56.0790 
G01 X41.5895 Y56.0802 
G01 X41.5007 Y56.1315 
G01 X41.4281 Y56.2041 
G01 X40.9188 Y56.7134 
G01 X40.1647 Y56.7134 
G01 X40.0655 Y56.7400 
G01 X39.9767 Y56.7913 
G01 X39.9041 Y56.8639 
G01 X39.8528 Y56.9527 
G01 X39.8262 Y57.0519 
G01 X39.8262 Y62.3546 
G01 X39.7309 Y62.5847 
G01 X39.4636 Y62.8520 
G01 X38.6341 Y63.6815 
G01 X38.5828 Y63.7704 
G01 X38.5562 Y63.8695 
G01 X38.5562 Y69.9746 
G01 X38.4609 Y70.2047 
G01 X38.1936 Y70.4720 
G01 X35.7447 Y72.9209 
G01 X35.6578 Y72.9569 
G01 X35.6329 Y72.9635 
G01 X35.6106 Y72.9764 
G01 X35.5868 Y72.9863 
G01 X35.5663 Y73.0020 
G01 X35.5440 Y73.0149 
G01 X35.5258 Y73.0331 
G01 X35.5053 Y73.0488 
G01 X35.4897 Y73.0692 
G01 X35.3365 Y73.2223 
G01 X35.1577 Y73.2964 
G01 X35.1019 Y73.3195 
G01 X35.0406 Y73.3666 
G01 X35.0205 Y73.3820 
G01 X34.9580 Y73.4634 
G01 X34.9195 Y73.5563 
G01 X34.9053 Y73.6600 
G01 X34.9070 Y73.6723 
G01 X34.9187 Y73.7618 
G01 X34.9422 Y73.8184 
G01 X34.9580 Y73.8566 
G01 X35.0051 Y73.9179 
G01 X35.0205 Y73.9380 
G01 X35.1019 Y74.0005 
G01 X35.3365 Y74.0977 
G01 X35.6127 Y74.3739 
G01 X35.7622 Y74.7347 
G01 X35.7622 Y75.1253 
G01 X35.6127 Y75.4861 
G01 X35.3365 Y75.7623 
G01 X35.1577 Y75.8364 
G01 X35.1019 Y75.8595 
G01 X35.0406 Y75.9066 
G01 X35.0205 Y75.9220 
G01 X34.9580 Y76.0034 
G01 X34.9195 Y76.0963 
G01 X34.9053 Y76.2000 
G01 X34.9070 Y76.2123 
G01 X34.9187 Y76.3017 
G01 X34.9422 Y76.3584 
G01 X34.9580 Y76.3966 
G01 X35.0051 Y76.4579 
G01 X35.0205 Y76.4780 
G01 X35.1019 Y76.5405 
G01 X35.3365 Y76.6377 
G01 X35.4648 Y76.7659 
G01 X35.5537 Y76.8172 
G01 X35.6528 Y76.8438 
G01 X35.8235 Y76.8438 
G01 X35.9226 Y76.8172 
G01 X36.0115 Y76.7659 
G01 X36.0841 Y76.6933 
G01 X36.1182 Y76.6592 
G01 X36.4698 Y76.5136 
G01 X36.8502 Y76.5136 
G01 X37.2018 Y76.6592 
G01 X37.4708 Y76.9282 
G01 X37.6164 Y77.2798 
G01 X37.6164 Y77.6602 
G01 X37.4708 Y78.0118 
G01 X37.2018 Y78.2808 
G01 X36.8502 Y78.4264 
G01 X36.4698 Y78.4264 
G01 X36.1182 Y78.2808 
G01 X36.0115 Y78.1741 
G01 X35.9226 Y78.1228 
G01 X35.8235 Y78.0962 
G01 X35.6528 Y78.0962 
G01 X35.5537 Y78.1228 
G01 X35.4648 Y78.1741 
G01 X35.3922 Y78.2467 
G01 X35.3365 Y78.3023 
G01 X35.1577 Y78.3764 
G01 X35.1019 Y78.3995 
G01 X35.0406 Y78.4466 
G01 X35.0205 Y78.4620 
G01 X34.9580 Y78.5434 
G01 X34.9195 Y78.6363 
G01 X34.9053 Y78.7400 
G01 X34.9070 Y78.7523 
G01 X34.9187 Y78.8418 
G01 X34.9422 Y78.8984 
G01 X34.9580 Y78.9366 
G01 X35.0051 Y78.9979 
G01 X35.0205 Y79.0180 
G01 X35.1019 Y79.0805 
G01 X35.3365 Y79.1777 
G01 X35.6127 Y79.4539 
G01 X35.7622 Y79.8147 
G01 X35.7622 Y80.2053 
G01 X35.6127 Y80.5661 
G01 X35.3365 Y80.8423 
G01 X34.9757 Y80.9918 
G01 X33.2643 Y80.9918 
G01 X32.9035 Y80.8423 
G01 X32.6273 Y80.5661 
G01 X32.4778 Y80.2053 
G01 X32.4778 Y79.8147 
G01 X32.6273 Y79.4539 
G01 X32.9035 Y79.1777 
G01 X33.1381 Y79.0805 
G01 X33.2195 Y79.0180 
G01 X33.2332 Y79.0002 
G01 X33.2820 Y78.9366 
G01 X33.2987 Y78.8962 
G01 X33.3213 Y78.8418 
G01 X33.3327 Y78.7545 
G01 X33.3347 Y78.7400 
G01 X33.3224 Y78.6468 
G01 X33.3213 Y78.6382 
G01 X33.2820 Y78.5434 
G01 X33.2195 Y78.4620 
G01 X33.2017 Y78.4483 
G01 X33.1381 Y78.3995 
G01 X33.0790 Y78.3750 
G01 X32.9034 Y78.3023 
G01 X32.6273 Y78.0261 
G01 X32.4778 Y77.6653 
G01 X32.4778 Y77.2747 
G01 X32.6273 Y76.9139 
G01 X32.9034 Y76.6377 
G01 X33.1381 Y76.5405 
G01 X33.2195 Y76.4780 
G01 X33.2332 Y76.4602 
G01 X33.2820 Y76.3966 
G01 X33.2987 Y76.3562 
G01 X33.3213 Y76.3017 
G01 X33.3327 Y76.2145 
G01 X33.3347 Y76.2000 
G01 X33.3224 Y76.1068 
G01 X33.3213 Y76.0982 
G01 X33.2820 Y76.0034 
G01 X33.2195 Y75.9220 
G01 X33.2017 Y75.9083 
G01 X33.1381 Y75.8595 
G01 X33.0790 Y75.8350 
G01 X32.9034 Y75.7623 
G01 X32.7752 Y75.6341 
G01 X32.6863 Y75.5828 
G01 X32.5872 Y75.5562 
G01 X29.8765 Y75.5562 
G01 X29.7774 Y75.5828 
G01 X29.6885 Y75.6341 
G01 X29.6159 Y75.7067 
G01 X29.5818 Y75.7408 
G01 X29.2302 Y75.8864 
G01 X28.8498 Y75.8864 
G01 X28.4982 Y75.7408 
G01 X28.2292 Y75.4718 
G01 X28.0836 Y75.1202 
G01 X28.0836 Y74.7398 
G01 X28.2292 Y74.3882 
G01 X28.4982 Y74.1192 
G01 X28.8498 Y73.9736 
G01 X29.2302 Y73.9736 
G01 X29.5818 Y74.1192 
G01 X29.6885 Y74.2259 
G01 X29.7774 Y74.2772 
G01 X29.8765 Y74.3038 
G01 X32.5872 Y74.3038 
G01 X32.6863 Y74.2772 
G01 X32.7752 Y74.2259 
G01 X32.8478 Y74.1533 
G01 X32.9034 Y74.0977 
G01 X33.1381 Y74.0005 
G01 X33.2195 Y73.9380 
G01 X33.2332 Y73.9202 
G01 X33.2820 Y73.8566 
G01 X33.2987 Y73.8162 
G01 X33.3213 Y73.7618 
G01 X33.3327 Y73.6745 
G01 X33.3347 Y73.6600 
G01 X33.3224 Y73.5668 
G01 X33.3213 Y73.5582 
G01 X33.2820 Y73.4634 
G01 X33.2195 Y73.3820 
G01 X33.2017 Y73.3683 
G01 X33.1381 Y73.3195 
G01 X33.0790 Y73.2950 
G01 X32.9035 Y73.2223 
G01 X32.8478 Y73.1667 
G01 X32.7752 Y73.0941 
G01 X32.6863 Y73.0428 
G01 X32.5872 Y73.0162 
G01 X32.4165 Y73.0162 
G01 X32.3174 Y73.0428 
G01 X32.2285 Y73.0941 
G01 X32.1559 Y73.1667 
G01 X32.1218 Y73.2008 
G01 X31.7702 Y73.3464 
G01 X31.3898 Y73.3464 
G01 X31.0382 Y73.2008 
G01 X30.7692 Y72.9318 
G01 X30.6236 Y72.5802 
G01 X30.6236 Y72.1998 
G01 X30.7692 Y71.8482 
G01 X31.0382 Y71.5792 
G01 X31.3898 Y71.4336 
G01 X31.7702 Y71.4336 
G01 X32.1218 Y71.5792 
G01 X32.2285 Y71.6859 
G01 X32.3174 Y71.7372 
G01 X32.4165 Y71.7638 
G01 X32.5872 Y71.7638 
G01 X32.6126 Y71.7570 
G01 X32.6863 Y71.7372 
G01 X32.7752 Y71.6859 
G01 X32.8478 Y71.6133 
G01 X32.9035 Y71.5577 
G01 X33.1381 Y71.4605 
G01 X33.2195 Y71.3980 
G01 X33.2332 Y71.3802 
G01 X33.2820 Y71.3166 
G01 X33.2987 Y71.2762 
G01 X33.3213 Y71.2218 
G01 X33.3327 Y71.1345 
G01 X33.3347 Y71.1200 
G01 X33.3224 Y71.0268 
G01 X33.3213 Y71.0182 
G01 X33.2820 Y70.9234 
G01 X33.2195 Y70.8420 
G01 X33.2017 Y70.8283 
G01 X33.1381 Y70.7795 
G01 X33.0790 Y70.7550 
G01 X32.9034 Y70.6823 
G01 X32.7752 Y70.5541 
G01 X32.6863 Y70.5028 
G01 X32.5872 Y70.4762 
G01 X30.6880 Y70.4762 
G01 X30.6584 Y70.4729 
G01 X30.6369 Y70.4762 
G01 X30.6151 Y70.4762 
G01 X30.5863 Y70.4839 
G01 X30.5570 Y70.4884 
G01 X30.5370 Y70.4971 
G01 X30.5159 Y70.5028 
G01 X30.4902 Y70.5176 
G01 X30.4630 Y70.5296 
G01 X30.4459 Y70.5432 
G01 X30.4270 Y70.5541 
G01 X30.4060 Y70.5751 
G01 X25.3905 Y74.5875 
G01 X25.3717 Y74.5984 
G01 X25.3506 Y74.6194 
G01 X25.3274 Y74.6380 
G01 X25.3145 Y74.6555 
G01 X25.2991 Y74.6710 
G01 X25.2842 Y74.6967 
G01 X25.2666 Y74.7207 
G01 X25.2587 Y74.7410 
G01 X25.2478 Y74.7599 
G01 X25.2401 Y74.7886 
G01 X25.2292 Y74.8163 
G01 X25.2268 Y74.8379 
G01 X25.2212 Y74.8590 
G01 X25.2212 Y74.8887 
G01 X25.2179 Y74.9183 
G01 X25.2212 Y74.9398 
G01 X25.2212 Y75.4524 
G01 X24.4824 Y76.1912 
G01 X23.4376 Y76.1912 
G01 X23.0019 Y75.7555 
G01 X22.9396 Y75.6932 
G01 X22.9293 Y75.6829 
G01 X22.8405 Y75.6316 
G01 X22.7424 Y75.6054 
G01 X22.6387 Y75.6051 
G01 X22.5438 Y75.6305 
G01 X22.5395 Y75.6316 
G01 X22.4507 Y75.6829 
G01 X22.3781 Y75.7555 
G01 X21.9424 Y76.1912 
G01 X20.8976 Y76.1912 
G01 X20.1588 Y75.4524 
G01 X20.1588 Y74.4076 
G01 X20.8976 Y73.6688 
G01 X21.9424 Y73.6688 
G01 X22.4507 Y74.1771 
G01 X22.5395 Y74.2284 
G01 X22.6387 Y74.2549 
G01 X22.7413 Y74.2549 
G01 X22.8405 Y74.2284 
G01 X22.9293 Y74.1771 
G01 X23.0019 Y74.1045 
G01 X23.2071 Y73.8993 
G01 X23.2584 Y73.8105 
G01 X23.2849 Y73.7113 
G01 X23.2849 Y73.6087 
G01 X23.2584 Y73.5095 
G01 X23.2071 Y73.4207 
G01 X23.1345 Y73.3481 
G01 X22.6988 Y72.9124 
G01 X22.6988 Y71.8676 
G01 X23.1345 Y71.4319 
G01 X23.2071 Y71.3593 
G01 X23.2584 Y71.2705 
G01 X23.2849 Y71.1713 
G01 X23.2849 Y71.0687 
G01 X23.2584 Y70.9695 
G01 X23.2071 Y70.8807 
G01 X22.6988 Y70.3724 
G01 X22.6988 Y69.3276 
G01 X23.1345 Y68.8919 
G01 X23.1968 Y68.8296 
G01 X23.2071 Y68.8193 
G01 X23.2584 Y68.7305 
G01 X23.2846 Y68.6324 
G01 X23.2849 Y68.5287 
G01 X23.2595 Y68.4338 
G01 X23.2584 Y68.4295 
G01 X23.2071 Y68.3407 
G01 X23.1345 Y68.2681 
G01 X22.6988 Y67.8324 
G01 X22.6988 Y66.7876 
G01 X23.1345 Y66.3519 
G01 X23.1968 Y66.2896 
G01 X23.2071 Y66.2793 
G01 X23.2584 Y66.1905 
G01 X23.2846 Y66.0924 
G01 X23.2849 Y65.9887 
G01 X23.2595 Y65.8938 
G01 X23.2584 Y65.8895 
G01 X23.2071 Y65.8007 
G01 X23.1345 Y65.7281 
G01 X22.6988 Y65.2924 
G01 X22.6988 Y64.2476 
G01 X23.4376 Y63.5088 
G01 X24.4824 Y63.5088 
G01 X25.0395 Y64.0659 
G01 X25.1284 Y64.1172 
G01 X25.2275 Y64.1438 
G01 X27.8946 Y64.1438 
G01 X28.1247 Y64.2391 
G01 X30.2521 Y66.3665 
G01 X30.2890 Y66.4034 
G01 X30.3247 Y66.4391 
G01 X30.4135 Y66.4904 
G01 X30.5115 Y66.5167 
G01 X30.6153 Y66.5170 
G01 X30.7145 Y66.4904 
G01 X30.8033 Y66.4391 
G01 X30.8759 Y66.3665 
G01 X30.9272 Y66.2776 
G01 X30.9535 Y66.1796 
G01 X30.9538 Y62.1054 
G01 X31.0491 Y61.8753 
G01 X34.6859 Y58.2385 
G01 X34.7372 Y58.1496 
G01 X34.7638 Y58.0505 
G01 X34.7638 Y56.6461 
G01 X34.7372 Y56.5470 
G01 X34.6859 Y56.4581 
G01 X34.6133 Y56.3855 
G01 X34.3593 Y56.1315 
G01 X34.2705 Y56.0802 
G01 X34.1713 Y56.0536 
G01 X34.0687 Y56.0536 
G01 X33.9695 Y56.0802 
G01 X33.8807 Y56.1315 
G01 X33.8081 Y56.2041 
G01 X33.2988 Y56.7134 
G01 X33.1903 Y56.7134 
G01 X33.1647 Y56.7100 
G01 X33.1392 Y56.7134 
G01 X33.1134 Y56.7134 
G01 X33.0885 Y56.7201 
G01 X33.0630 Y56.7234 
G01 X33.0392 Y56.7333 
G01 X33.0143 Y56.7400 
G01 X32.9920 Y56.7528 
G01 X32.8006 Y56.8321 
G01 X32.7757 Y56.8388 
G01 X32.7534 Y56.8516 
G01 X32.7296 Y56.8615 
G01 X32.7092 Y56.8772 
G01 X32.6869 Y56.8901 
G01 X32.6686 Y56.9083 
G01 X32.6482 Y56.9240 
G01 X32.6325 Y56.9444 
G01 X32.6143 Y56.9627 
G01 X32.6014 Y56.9850 
G01 X32.5857 Y57.0054 
G01 X32.5759 Y57.0292 
G01 X32.5630 Y57.0515 
G01 X32.5563 Y57.0764 
G01 X32.5464 Y57.1002 
G01 X32.5431 Y57.1258 
G01 X32.5364 Y57.1507 
G01 X32.5364 Y57.1765 
G01 X32.5330 Y57.2020 
G01 X32.5364 Y57.2275 
G01 X32.5364 Y58.6102 
G01 X32.3908 Y58.9618 
G01 X32.1218 Y59.2308 
G01 X31.7702 Y59.3764 
G01 X19.9598 Y59.3764 
G01 X19.6082 Y59.2308 
G01 X19.2481 Y58.8706 
G01 X16.7992 Y56.4218 
G01 X16.6536 Y56.0702 
G01 X16.6536 Y54.7181 
G01 X16.6570 Y54.6926 
G01 X16.6536 Y54.6671 
G01 X16.6536 Y54.6413 
G01 X16.6469 Y54.6164 
G01 X16.6436 Y54.5908 
G01 X16.6337 Y54.5670 
G01 X16.6270 Y54.5421 
G01 X16.6141 Y54.5198 
G01 X16.6043 Y54.4960 
G01 X16.5886 Y54.4756 
G01 X16.5757 Y54.4532 
G01 X16.5575 Y54.4350 
G01 X16.5418 Y54.4146 
G01 X16.5214 Y54.3989 
G01 X16.5031 Y54.3807 
G01 X16.4808 Y54.3678 
G01 X16.4604 Y54.3521 
G01 X16.4366 Y54.3422 
G01 X16.4143 Y54.3294 
G01 X16.3894 Y54.3227 
G01 X16.2343 Y54.2585 
G01 X15.9295 Y53.9537 
G01 X15.7646 Y53.5555 
G01 X15.7646 Y53.1245 
G01 X15.9295 Y52.7263 
G01 X16.2703 Y52.3855 
G01 X16.2895 Y52.3523 
G01 X16.3216 Y52.2967 
G01 X16.3479 Y52.1986 
G01 X16.3482 Y52.0949 
G01 X16.3216 Y51.9957 
G01 X16.2714 Y51.9088 
G01 X16.1977 Y51.8343 
G01 X16.1645 Y51.8151 
G01 X16.1088 Y51.7830 
G01 X16.0108 Y51.7567 
G01 X13.8249 Y51.7564 
G01 X13.7257 Y51.7830 
G01 X13.6369 Y51.8343 
G01 X13.5643 Y51.9069 
G01 X13.5130 Y51.9957 
G01 X13.4864 Y52.0949 
G01 X13.4864 Y52.6952 
G01 X13.4864 Y52.7459 
G01 X13.4864 Y52.7978 
G01 X13.4979 Y52.8406 
G01 X13.5118 Y52.8926 
G01 X13.5118 Y53.7467 
G01 X13.4408 Y53.8177 
G01 X13.4373 Y53.8212 
G01 X13.3860 Y53.9101 
G01 X13.3668 Y53.9815 
G01 X13.3594 Y54.0092 
G01 X13.3594 Y55.4677 
G01 X13.3560 Y55.4933 
G01 X13.3594 Y55.5188 
G01 X13.3594 Y55.5446 
G01 X13.3661 Y55.5695 
G01 X13.3694 Y55.5950 
G01 X13.3793 Y55.6188 
G01 X13.3860 Y55.6437 
G01 X13.3988 Y55.6660 
G01 X13.5118 Y55.9387 
G01 X13.5118 Y56.3293 
G01 X13.3623 Y56.6901 
G01 X13.0861 Y56.9663 
G01 X12.7253 Y57.1158 
G01 X12.3347 Y57.1158 
G01 X11.9739 Y56.9663 
G01 X11.6977 Y56.6901 
G01 X11.5482 Y56.3293 
G01 X11.5482 Y55.9387 
G01 X11.6611 Y55.6660 
G01 X11.6740 Y55.6437 
G01 X11.6807 Y55.6188 
G01 X11.6906 Y55.5950 
G01 X11.6939 Y55.5695 
G01 X11.7006 Y55.5446 
G01 X11.7006 Y55.5188 
G01 X11.7040 Y55.4933 
G01 X11.7006 Y55.4677 
G01 X11.7006 Y54.0092 
G01 X11.6938 Y53.9838 
G01 X11.6740 Y53.9101 
G01 X11.6227 Y53.8212 
G01 X11.5501 Y53.7486 
G01 X11.5482 Y52.8926 
G01 X11.5618 Y52.8418 
G01 X11.5736 Y52.7978 
G01 X11.5736 Y52.7471 
G01 X11.5736 Y52.6952 
G01 X11.5736 Y51.4448 
G01 X11.5736 Y51.3941 
G01 X11.5736 Y51.3422 
G01 X11.5621 Y51.2993 
G01 X11.5470 Y51.2431 
G01 X11.5303 Y51.2141 
G01 X11.5216 Y51.1818 
G01 X11.4703 Y51.0929 
G01 X11.3977 Y51.0203 
G01 X10.4492 Y50.0718 
G01 X10.4361 Y50.0401 
G01 X10.4294 Y50.0152 
G01 X10.4165 Y49.9929 
G01 X10.4067 Y49.9691 
G01 X10.3910 Y49.9487 
G01 X10.3781 Y49.9263 
G01 X10.3599 Y49.9081 
G01 X10.3442 Y49.8877 
G01 X10.3238 Y49.8720 
G01 X10.3055 Y49.8538 
G01 X10.2832 Y49.8409 
G01 X10.2628 Y49.8252 
G01 X10.2390 Y49.8153 
G01 X10.2167 Y49.8025 
G01 X10.1918 Y49.7958 
G01 X10.1680 Y49.7859 
G01 X10.1424 Y49.7826 
G01 X10.1175 Y49.7759 
G01 X10.0917 Y49.7759 
G01 X10.0662 Y49.7725 
G01 X10.0407 Y49.7759 
G01 X10.0149 Y49.7759 
G01 X9.9900 Y49.7826 
G01 X9.9644 Y49.7859 
G01 X9.9406 Y49.7958 
G01 X9.9157 Y49.8025 
G01 X9.8934 Y49.8153 
G01 X9.8696 Y49.8252 
G01 X9.8492 Y49.8409 
G01 X9.8269 Y49.8538 
G01 X9.8086 Y49.8720 
G01 X9.7882 Y49.8877 
G01 X9.7725 Y49.9081 
G01 X9.7543 Y49.9263 
G01 X9.7414 Y49.9487 
G01 X9.7257 Y49.9691 
G01 X9.7158 Y49.9929 
G01 X9.7030 Y50.0152 
G01 X9.6963 Y50.0401 
G01 X9.6864 Y50.0639 
G01 X9.6831 Y50.0895 
G01 X9.6764 Y50.1144 
G01 X9.6764 Y50.1401 
G01 X9.6730 Y50.1657 
G01 X9.6764 Y50.1912 
G01 X9.6764 Y53.5302 
G01 X9.5308 Y53.8818 
G01 X9.5257 Y53.8869 
G01 X9.4744 Y53.9758 
G01 X9.4478 Y54.0749 
G01 X9.4478 Y62.8539 
G01 X9.4444 Y62.8795 
G01 X9.4478 Y62.9050 
G01 X9.4478 Y62.9308 
G01 X9.4545 Y62.9557 
G01 X9.4578 Y62.9812 
G01 X9.4677 Y63.0050 
G01 X9.4744 Y63.0299 
G01 X9.4873 Y63.0522 
G01 X9.6002 Y63.3249 
G01 X9.6002 Y63.6751 
G01 X9.4662 Y63.9986 
G01 X9.2186 Y64.2462 
G01 X8.8951 Y64.3802 
G01 X8.5449 Y64.3802 
G01 X8.2214 Y64.2462 
G01 X7.9738 Y63.9986 
G01 X7.8398 Y63.6751 
G01 X7.8398 Y63.3249 
G01 X7.9527 Y63.0522 
G01 X7.9656 Y63.0299 
G01 X7.9723 Y63.0050 
G01 X7.9822 Y62.9812 
G01 X7.9855 Y62.9557 
G01 X7.9922 Y62.9308 
G01 X7.9922 Y62.9050 
G01 X7.9956 Y62.8795 
G01 X7.9922 Y62.8539 
G01 X7.9922 Y54.6349 
G01 X7.9656 Y54.5357 
G01 X7.9143 Y54.4469 
G01 X7.8417 Y54.3743 
G01 X7.7529 Y54.3230 
G01 X7.6537 Y54.2964 
G01 X5.5548 Y54.2964 
G01 X5.5041 Y54.2964 
G01 X5.4522 Y54.2964 
G01 X5.4093 Y54.3079 
G01 X5.3574 Y54.3218 
G01 X4.5033 Y54.3218 
G01 X3.9282 Y53.7467 
G01 X3.9282 Y52.8926 
G01 X3.9418 Y52.8418 
G01 X3.9536 Y52.7978 
G01 X3.9536 Y52.7471 
G01 X3.9536 Y52.6952 
G01 X3.9536 Y51.4448 
G01 X3.9536 Y51.3941 
G01 X3.9536 Y51.3422 
G01 X3.9421 Y51.2993 
G01 X3.9282 Y51.2474 
G01 X3.9282 Y50.3933 
G01 X4.5033 Y49.8182 
G01 X5.3167 Y49.8182 
G01 X5.8918 Y50.3933 
G01 X5.8918 Y51.2474 
G01 X5.8782 Y51.2982 
G01 X5.8664 Y51.3422 
G01 X5.8664 Y51.3929 
G01 X5.8664 Y51.4448 
G01 X5.8664 Y52.0451 
G01 X5.8930 Y52.1443 
G01 X5.9443 Y52.2331 
G01 X6.0169 Y52.3057 
G01 X6.1057 Y52.3570 
G01 X6.2049 Y52.3836 
G01 X7.4251 Y52.3836 
G01 X7.5243 Y52.3570 
G01 X7.6131 Y52.3057 
G01 X7.6857 Y52.2331 
G01 X7.7370 Y52.1443 
G01 X7.7636 Y52.0451 
G01 X7.7636 Y48.6525 
G01 X7.7670 Y48.6270 
G01 X7.7636 Y48.6014 
G01 X7.7636 Y48.5756 
G01 X7.7569 Y48.5507 
G01 X7.7536 Y48.5252 
G01 X7.7437 Y48.5014 
G01 X7.7370 Y48.4765 
G01 X7.7241 Y48.4542 
G01 X7.5604 Y48.0589 
G01 X7.5604 Y45.9211 
G01 X7.7369 Y45.4949 
G01 X8.0631 Y45.1687 
G01 X8.4893 Y44.9922 
G01 X8.9507 Y44.9922 
G01 X9.3769 Y45.1687 
G01 X9.6781 Y45.4700 
G01 X9.7434 Y45.5353 
G01 X9.7507 Y45.5425 
G01 X9.8395 Y45.5939 
G01 X9.9375 Y45.6201 
G01 X10.0413 Y45.6204 
G01 X10.1405 Y45.5939 
G01 X10.2274 Y45.5437 
G01 X10.3019 Y45.4700 
G01 X10.6031 Y45.1687 
G01 X11.0293 Y44.9922 
G01 X11.4907 Y44.9922 
G01 X11.9169 Y45.1687 
G01 X12.2181 Y45.4700 
G01 X12.2834 Y45.5353 
G01 X12.2907 Y45.5425 
G01 X12.3795 Y45.5939 
G01 X12.4775 Y45.6201 
G01 X12.5813 Y45.6204 
G01 X12.6805 Y45.5939 
G01 X12.7674 Y45.5437 
G01 X12.8419 Y45.4700 
G01 X13.1431 Y45.1687 
G01 X13.5693 Y44.9922 
G01 X14.0307 Y44.9922 
G01 X14.4569 Y45.1687 
G01 X14.7831 Y45.4949 
G01 X14.9493 Y45.8964 
G01 X14.9560 Y45.9213 
G01 X14.9689 Y45.9436 
G01 X14.9787 Y45.9674 
G01 X14.9944 Y45.9878 
G01 X15.0073 Y46.0101 
G01 X15.0255 Y46.0284 
G01 X15.0412 Y46.0488 
G01 X15.0617 Y46.0645 
G01 X15.0799 Y46.0827 
G01 X15.1022 Y46.0956 
G01 X15.1227 Y46.1113 
G01 X15.1465 Y46.1211 
G01 X15.1688 Y46.1340 
G01 X15.1937 Y46.1407 
G01 X15.2175 Y46.1506 
G01 X15.2430 Y46.1539 
G01 X15.2679 Y46.1606 
G01 X15.2937 Y46.1606 
G01 X15.3192 Y46.1640 
G01 X15.3448 Y46.1606 
G01 X18.2108 Y46.1606 
G01 X18.2362 Y46.1538 
G01 X18.3099 Y46.1340 
G01 X18.3988 Y46.0827 
G01 X18.4714 Y46.0101 
G01 X19.3274 Y46.0082 
G01 X19.3782 Y46.0218 
G01 X19.4222 Y46.0336 
G01 X19.4729 Y46.0336 
G01 X19.5248 Y46.0336 
G01 X22.6651 Y46.0336 
G01 X22.7643 Y46.0070 
G01 X22.8531 Y45.9557 
G01 X22.9257 Y45.8831 
G01 X22.9770 Y45.7943 
G01 X23.0036 Y45.6951 
G01 X23.0036 Y35.3698 
G01 X23.1492 Y35.0182 
G01 X23.4182 Y34.7492 
G01 X23.7698 Y34.6036 
G01 X56.9551 Y34.6036 
G01 X57.0543 Y34.5770 
G01 X57.1431 Y34.5257 
G01 X57.2157 Y34.4531 
G01 X57.2670 Y34.3643 
G01 X57.2936 Y34.2651 
G01 X57.2936 Y14.7943 
G01 X57.2970 Y14.7688 
G01 X57.2936 Y14.7432 
G01 X57.2936 Y14.7174 
G01 X57.2869 Y14.6925 
G01 X57.2836 Y14.6670 
G01 X57.2737 Y14.6432 
G01 X57.2670 Y14.6183 
G01 X57.2541 Y14.5960 
G01 X57.0904 Y14.2007 
G01 X57.0904 Y13.7393 
G01 X57.2669 Y13.3131 
G01 X57.5931 Y12.9869 
G00 Z5.0000 
G00 X57.6615 Y13.2529 
G01 Z-0.1400 F254.00 
G01 X57.5329 Y13.3815 F1000.00 
G01 X57.4319 Y13.5327 
G01 X57.3623 Y13.7007 
G01 X57.3268 Y13.8791 
G01 X57.3268 Y14.0609 
G01 X57.3623 Y14.2393 
G01 X57.4319 Y14.4073 
G01 X57.5300 Y14.5542 
G01 X57.5300 Y34.8400 
G01 X23.8891 Y34.8400 
G01 X23.7500 Y34.8677 
G01 X23.6190 Y34.9219 
G01 X23.5010 Y35.0007 
G01 X23.4007 Y35.1010 
G01 X23.3219 Y35.2189 
G01 X23.2677 Y35.3500 
G01 X23.2400 Y35.4891 
G01 X23.2400 Y46.2700 
G01 X19.2142 Y46.2700 
G01 X19.1888 Y46.2446 
G01 X18.5712 Y46.2446 
G01 X18.4188 Y46.3970 
G01 X14.7232 Y46.3970 
G01 X14.7232 Y46.0609 
G01 X14.6877 Y45.8825 
G01 X14.6181 Y45.7145 
G01 X14.5171 Y45.5633 
G01 X14.3885 Y45.4347 
G01 X14.2373 Y45.3337 
G01 X14.0693 Y45.2641 
G01 X13.8909 Y45.2286 
G01 X13.7091 Y45.2286 
G01 X13.5307 Y45.2641 
G01 X13.3627 Y45.3337 
G01 X13.2115 Y45.4347 
G01 X13.0829 Y45.5633 
G01 X12.9819 Y45.7145 
G01 X12.9123 Y45.8825 
G01 X12.8768 Y46.0609 
G01 X12.8768 Y47.9191 
G01 X12.9123 Y48.0975 
G01 X12.9819 Y48.2655 
G01 X13.0829 Y48.4167 
G01 X13.2115 Y48.5453 
G01 X13.3627 Y48.6463 
G01 X13.5307 Y48.7159 
G01 X13.7091 Y48.7514 
G01 X13.8909 Y48.7514 
G01 X14.0693 Y48.7159 
G01 X14.2373 Y48.6463 
G01 X14.3885 Y48.5453 
G01 X14.5171 Y48.4167 
G01 X14.6181 Y48.2655 
G01 X14.6877 Y48.0975 
G01 X14.7232 Y47.9191 
G01 X14.7232 Y47.5830 
G01 X18.4188 Y47.5830 
G01 X18.5712 Y47.7354 
G01 X19.1888 Y47.7354 
G01 X19.2142 Y47.7100 
G01 X24.0309 Y47.7100 
G01 X24.1700 Y47.6823 
G01 X24.3010 Y47.6281 
G01 X24.4190 Y47.5493 
G01 X24.5193 Y47.4490 
G01 X24.5981 Y47.3310 
G01 X24.6523 Y47.2000 
G01 X24.6800 Y47.0609 
G01 X24.6800 Y36.2800 
G01 X57.5300 Y36.2800 
G01 X57.5300 Y45.7909 
G01 X57.5577 Y45.9300 
G01 X57.6119 Y46.0610 
G01 X57.6907 Y46.1790 
G01 X57.7910 Y46.2793 
G01 X57.9089 Y46.3581 
G01 X58.0400 Y46.4123 
G01 X58.1791 Y46.4400 
G01 X63.8800 Y46.4400 
G01 X63.8800 Y46.6558 
G01 X63.8546 Y46.6812 
G01 X63.8546 Y47.2988 
G01 X64.2912 Y47.7354 
G01 X64.9088 Y47.7354 
G01 X65.3454 Y47.2988 
G01 X65.3454 Y46.6812 
G01 X65.3200 Y46.6558 
G01 X65.3200 Y43.9000 
G01 X66.2168 Y43.9000 
G01 X66.2168 Y44.1091 
G01 X66.2523 Y44.2875 
G01 X66.3219 Y44.4555 
G01 X66.4229 Y44.6067 
G01 X66.5515 Y44.7353 
G01 X66.7027 Y44.8363 
G01 X66.8707 Y44.9059 
G01 X67.0491 Y44.9414 
G01 X67.2309 Y44.9414 
G01 X67.4093 Y44.9059 
G01 X67.5773 Y44.8363 
G01 X67.7285 Y44.7353 
G01 X67.8571 Y44.6067 
G01 X67.9581 Y44.4555 
G01 X68.0277 Y44.2875 
G01 X68.0632 Y44.1091 
G01 X68.0632 Y42.2509 
G01 X68.0277 Y42.0725 
G01 X67.9581 Y41.9045 
G01 X67.8571 Y41.7533 
G01 X67.7285 Y41.6247 
G01 X67.5773 Y41.5237 
G01 X67.4093 Y41.4541 
G01 X67.2309 Y41.4186 
G01 X67.0491 Y41.4186 
G01 X66.8707 Y41.4541 
G01 X66.7027 Y41.5237 
G01 X66.5515 Y41.6247 
G01 X66.4229 Y41.7533 
G01 X66.3219 Y41.9045 
G01 X66.2523 Y42.0725 
G01 X66.2168 Y42.2509 
G01 X66.2168 Y42.4600 
G01 X64.5291 Y42.4600 
G01 X64.3900 Y42.4877 
G01 X64.2589 Y42.5419 
G01 X64.1410 Y42.6207 
G01 X64.0407 Y42.7210 
G01 X63.9619 Y42.8389 
G01 X63.9077 Y42.9700 
G01 X63.8800 Y43.1091 
G01 X63.8800 Y45.0000 
G01 X58.9700 Y45.0000 
G01 X58.9700 Y14.5542 
G01 X59.0681 Y14.4073 
G01 X59.1377 Y14.2393 
G01 X59.1732 Y14.0609 
G01 X59.1732 Y13.8791 
G01 X59.1377 Y13.7007 
G01 X59.0681 Y13.5327 
G01 X58.9671 Y13.3815 
G01 X58.8385 Y13.2529 
G01 X58.6873 Y13.1519 
G01 X58.5193 Y13.0823 
G01 X58.3409 Y13.0468 
G01 X58.1591 Y13.0468 
G01 X57.9807 Y13.0823 
G01 X57.8127 Y13.1519 
G01 X57.6615 Y13.2529 
G00 Z5.0000 
G00 X67.3903 Y26.4371 
G01 Z-0.1400 F254.00 
G01 X67.9231 Y25.9043 F1000.00 
G01 X68.5755 Y25.5276 
G01 X69.3033 Y25.3326 
G01 X70.0567 Y25.3326 
G01 X70.7845 Y25.5276 
G01 X71.4369 Y25.9043 
G01 X71.9697 Y26.4371 
G01 X72.3464 Y27.0895 
G01 X72.5414 Y27.8173 
G01 X72.5414 Y28.5707 
G01 X72.3464 Y29.2985 
G01 X71.9697 Y29.9509 
G01 X71.4369 Y30.4837 
G01 X70.7845 Y30.8604 
G01 X70.0567 Y31.0554 
G01 X69.3033 Y31.0554 
G01 X68.5755 Y30.8604 
G01 X67.9231 Y30.4837 
G01 X67.3903 Y29.9509 
G01 X67.0136 Y29.2985 
G01 X66.8186 Y28.5707 
G01 X66.8186 Y27.8173 
G01 X67.0136 Y27.0895 
G01 X67.3903 Y26.4371 
G00 Z5.0000 
G00 X71.2369 Y41.6849 
G01 Z-0.1400 F254.00 
G01 X71.5631 Y41.3587 F1000.00 
G01 X71.9893 Y41.1822 
G01 X72.4507 Y41.1822 
G01 X72.8769 Y41.3587 
G01 X73.2031 Y41.6849 
G01 X73.3693 Y42.0864 
G01 X73.3760 Y42.1113 
G01 X73.3889 Y42.1336 
G01 X73.3988 Y42.1574 
G01 X73.4144 Y42.1778 
G01 X73.4273 Y42.2001 
G01 X73.4455 Y42.2184 
G01 X73.4612 Y42.2388 
G01 X73.4817 Y42.2545 
G01 X73.4999 Y42.2727 
G01 X73.5222 Y42.2856 
G01 X73.5427 Y42.3013 
G01 X73.5665 Y42.3111 
G01 X73.5888 Y42.3240 
G01 X73.6137 Y42.3307 
G01 X73.6375 Y42.3406 
G01 X73.6630 Y42.3439 
G01 X73.6879 Y42.3506 
G01 X73.7137 Y42.3506 
G01 X73.7392 Y42.3540 
G01 X73.7648 Y42.3506 
G01 X76.6308 Y42.3506 
G01 X76.7299 Y42.3240 
G01 X76.8188 Y42.2727 
G01 X76.8914 Y42.2001 
G01 X77.7067 Y42.1982 
G01 X78.2581 Y42.7496 
G01 X78.3186 Y42.8101 
G01 X78.3307 Y42.8222 
G01 X78.4195 Y42.8735 
G01 X78.5175 Y42.8998 
G01 X78.6213 Y42.9001 
G01 X78.7162 Y42.8746 
G01 X78.7205 Y42.8735 
G01 X78.8093 Y42.8222 
G01 X78.8819 Y42.7496 
G01 X78.9327 Y42.6988 
G01 X78.9840 Y42.6099 
G01 X79.0106 Y42.5108 
G01 X79.0106 Y40.0392 
G01 X78.9840 Y39.9401 
G01 X78.9327 Y39.8512 
G01 X78.8601 Y39.7786 
G01 X78.8582 Y38.9633 
G01 X79.4333 Y38.3882 
G01 X80.2467 Y38.3882 
G01 X80.8218 Y38.9633 
G01 X80.8218 Y39.7767 
G01 X80.7473 Y39.8512 
G01 X80.6960 Y39.9401 
G01 X80.6694 Y40.0392 
G01 X80.6694 Y42.5108 
G01 X80.6960 Y42.6099 
G01 X80.7473 Y42.6988 
G01 X80.8199 Y42.7714 
G01 X80.8218 Y43.5867 
G01 X80.2467 Y44.1618 
G01 X79.4333 Y44.1618 
G01 X78.8093 Y43.5378 
G01 X78.7205 Y43.4865 
G01 X78.6213 Y43.4599 
G01 X78.5187 Y43.4599 
G01 X78.4195 Y43.4865 
G01 X78.3307 Y43.5378 
G01 X78.2581 Y43.6104 
G01 X77.7067 Y44.1618 
G01 X76.8933 Y44.1618 
G01 X76.8188 Y44.0873 
G01 X76.7299 Y44.0360 
G01 X76.6308 Y44.0094 
G01 X73.7648 Y44.0094 
G01 X73.7392 Y44.0060 
G01 X73.7137 Y44.0094 
G01 X73.6879 Y44.0094 
G01 X73.6630 Y44.0161 
G01 X73.6375 Y44.0194 
G01 X73.6137 Y44.0293 
G01 X73.5888 Y44.0360 
G01 X73.5665 Y44.0488 
G01 X73.5427 Y44.0587 
G01 X73.5222 Y44.0744 
G01 X73.4999 Y44.0873 
G01 X73.4817 Y44.1055 
G01 X73.4612 Y44.1212 
G01 X73.4455 Y44.1416 
G01 X73.4273 Y44.1599 
G01 X73.4144 Y44.1822 
G01 X73.3988 Y44.2026 
G01 X73.3889 Y44.2264 
G01 X73.3760 Y44.2487 
G01 X73.3693 Y44.2736 
G01 X73.2031 Y44.6751 
G01 X73.1273 Y44.7508 
G01 X73.0760 Y44.8397 
G01 X73.0494 Y44.9389 
G01 X73.0494 Y47.8600 
G01 X73.0479 Y47.9046 
G01 X73.0494 Y47.9112 
G01 X73.0494 Y47.9180 
G01 X73.0610 Y47.9611 
G01 X73.0652 Y47.9796 
G01 X73.0578 Y48.0242 
G01 X73.0494 Y48.0556 
G01 X73.0494 Y48.0746 
G01 X73.0463 Y48.0934 
G01 X73.0494 Y48.1258 
G01 X73.0494 Y48.1710 
G01 X73.0421 Y48.1885 
G01 X73.0236 Y48.2291 
G01 X73.0225 Y48.2358 
G01 X73.0199 Y48.2421 
G01 X73.0141 Y48.2864 
G01 X72.8962 Y48.9940 
G01 X72.8936 Y49.0003 
G01 X72.8878 Y49.0445 
G01 X72.8804 Y49.0886 
G01 X72.8811 Y49.0953 
G01 X72.8802 Y49.1020 
G01 X72.8860 Y49.1463 
G01 X72.8903 Y49.1907 
G01 X72.8927 Y49.1971 
G01 X72.8936 Y49.2038 
G01 X72.9107 Y49.2450 
G01 X72.9263 Y49.2869 
G01 X72.9303 Y49.2924 
G01 X72.9478 Y49.3347 
G01 X72.9478 Y49.7180 
G01 X72.9423 Y49.7386 
G01 X72.9324 Y49.7624 
G01 X72.9291 Y49.7879 
G01 X72.9224 Y49.8128 
G01 X72.9224 Y49.8386 
G01 X72.9190 Y49.8641 
G01 X72.9224 Y49.8897 
G01 X72.9224 Y52.5142 
G01 X72.7768 Y52.8658 
G01 X71.7793 Y53.8632 
G01 X71.4918 Y54.1508 
G01 X71.1402 Y54.2964 
G01 X65.2448 Y54.2964 
G01 X65.1941 Y54.2964 
G01 X65.1422 Y54.2964 
G01 X65.0994 Y54.3079 
G01 X65.0474 Y54.3218 
G01 X64.1526 Y54.3218 
G01 X64.1018 Y54.3082 
G01 X64.0578 Y54.2964 
G01 X64.0071 Y54.2964 
G01 X63.9552 Y54.2964 
G01 X58.2749 Y54.2964 
G01 X58.1757 Y54.3230 
G01 X58.0869 Y54.3743 
G01 X58.0143 Y54.4469 
G01 X57.9630 Y54.5357 
G01 X57.9364 Y54.6349 
G01 X57.9364 Y77.6602 
G01 X57.7908 Y78.0118 
G01 X56.7697 Y79.0329 
G01 X56.7184 Y79.1218 
G01 X56.7097 Y79.1541 
G01 X56.6930 Y79.1831 
G01 X56.6664 Y79.2822 
G01 X56.6664 Y81.2551 
G01 X56.6930 Y81.3543 
G01 X56.7443 Y81.4431 
G01 X56.8169 Y81.5157 
G01 X56.9057 Y81.5670 
G01 X57.0049 Y81.5936 
G01 X59.4020 Y81.5936 
G01 X59.4276 Y81.5970 
G01 X59.4531 Y81.5936 
G01 X59.4789 Y81.5936 
G01 X59.5038 Y81.5869 
G01 X59.5293 Y81.5836 
G01 X59.5531 Y81.5737 
G01 X59.5780 Y81.5670 
G01 X59.6003 Y81.5541 
G01 X59.6241 Y81.5443 
G01 X59.6446 Y81.5286 
G01 X59.6669 Y81.5157 
G01 X59.6851 Y81.4975 
G01 X59.7056 Y81.4818 
G01 X59.7212 Y81.4614 
G01 X59.7395 Y81.4431 
G01 X59.7523 Y81.4208 
G01 X59.7680 Y81.4004 
G01 X59.7779 Y81.3766 
G01 X59.7908 Y81.3543 
G01 X59.7974 Y81.3294 
G01 X59.8073 Y81.3055 
G01 X59.8107 Y81.2800 
G01 X59.8173 Y81.2551 
G01 X59.8173 Y81.2293 
G01 X59.8207 Y81.2038 
G01 X59.8173 Y81.1782 
G01 X59.8173 Y81.1525 
G01 X59.8107 Y81.1276 
G01 X59.8073 Y81.1020 
G01 X59.7974 Y81.0782 
G01 X59.7908 Y81.0533 
G01 X59.7779 Y81.0310 
G01 X59.7680 Y81.0072 
G01 X59.7523 Y80.9868 
G01 X59.7395 Y80.9645 
G01 X59.7212 Y80.9462 
G01 X59.7055 Y80.9258 
G01 X59.6851 Y80.9101 
G01 X59.6669 Y80.8919 
G01 X59.6446 Y80.8790 
G01 X59.6241 Y80.8633 
G01 X59.6003 Y80.8534 
G01 X59.5780 Y80.8406 
G01 X59.5694 Y80.8383 
G01 X59.2973 Y80.5661 
G01 X59.1478 Y80.2053 
G01 X59.1478 Y79.8147 
G01 X59.2973 Y79.4539 
G01 X59.5735 Y79.1777 
G01 X59.9343 Y79.0282 
G01 X61.6457 Y79.0282 
G01 X62.0065 Y79.1777 
G01 X62.2827 Y79.4539 
G01 X62.4322 Y79.8147 
G01 X62.4322 Y80.2053 
G01 X62.2827 Y80.5661 
G01 X62.0065 Y80.8423 
G01 X61.6457 Y80.9918 
G01 X61.5125 Y80.9918 
G01 X61.4870 Y80.9884 
G01 X61.4615 Y80.9918 
G01 X61.4357 Y80.9918 
G01 X61.4108 Y80.9985 
G01 X61.3852 Y81.0018 
G01 X61.3614 Y81.0117 
G01 X61.3365 Y81.0184 
G01 X61.3142 Y81.0313 
G01 X61.2904 Y81.0411 
G01 X61.2700 Y81.0568 
G01 X61.2477 Y81.0697 
G01 X61.2294 Y81.0879 
G01 X61.2090 Y81.1036 
G01 X61.1933 Y81.1240 
G01 X61.1751 Y81.1423 
G01 X61.1622 Y81.1646 
G01 X61.1465 Y81.1850 
G01 X61.1367 Y81.2088 
G01 X61.1238 Y81.2311 
G01 X61.1171 Y81.2560 
G01 X61.1072 Y81.2798 
G01 X61.1039 Y81.3054 
G01 X61.0972 Y81.3303 
G01 X61.0972 Y81.3561 
G01 X61.0938 Y81.3816 
G01 X61.0972 Y81.4071 
G01 X61.0972 Y81.4329 
G01 X61.1039 Y81.4578 
G01 X61.1072 Y81.4834 
G01 X61.1171 Y81.5072 
G01 X61.1238 Y81.5321 
G01 X61.1367 Y81.5544 
G01 X61.1465 Y81.5782 
G01 X61.1622 Y81.5986 
G01 X61.1751 Y81.6209 
G01 X61.1933 Y81.6392 
G01 X61.2090 Y81.6596 
G01 X61.2295 Y81.6753 
G01 X61.2477 Y81.6935 
G01 X61.2700 Y81.7064 
G01 X61.2904 Y81.7221 
G01 X61.3142 Y81.7319 
G01 X61.3365 Y81.7448 
G01 X61.6008 Y82.0082 
G01 X61.7464 Y82.3598 
G01 X61.7464 Y82.7402 
G01 X61.6008 Y83.0918 
G01 X61.3318 Y83.3608 
G01 X60.9802 Y83.5064 
G01 X50.0546 Y83.5064 
G01 X50.0150 Y83.5170 
G01 X49.9555 Y83.5330 
G01 X49.9062 Y83.5614 
G01 X49.8666 Y83.5843 
G01 X49.7940 Y83.6569 
G01 X49.7427 Y83.7457 
G01 X49.7161 Y83.8449 
G01 X49.7161 Y83.9475 
G01 X49.7267 Y83.9871 
G01 X49.7427 Y84.0467 
G01 X49.7712 Y84.0960 
G01 X49.7940 Y84.1355 
G01 X50.3418 Y84.6833 
G01 X50.3418 Y85.4967 
G01 X50.1657 Y85.6728 
G01 X50.1144 Y85.7617 
G01 X50.0878 Y85.8608 
G01 X50.0878 Y89.1037 
G01 X50.1144 Y89.2029 
G01 X50.1657 Y89.2917 
G01 X50.2383 Y89.3643 
G01 X50.3271 Y89.4156 
G01 X50.4263 Y89.4422 
G01 X52.1037 Y89.4422 
G01 X52.2029 Y89.4156 
G01 X52.2917 Y89.3643 
G01 X52.3643 Y89.2917 
G01 X52.4156 Y89.2029 
G01 X52.4422 Y89.1037 
G01 X52.4422 Y88.4008 
G01 X52.4156 Y88.3017 
G01 X52.3643 Y88.2128 
G01 X52.2917 Y88.1402 
G01 X52.1882 Y88.0367 
G01 X52.1882 Y87.2233 
G01 X52.7633 Y86.6482 
G01 X53.5767 Y86.6482 
G01 X54.0265 Y87.0980 
G01 X54.0886 Y87.1601 
G01 X54.0991 Y87.1706 
G01 X54.1879 Y87.2219 
G01 X54.2859 Y87.2482 
G01 X54.3897 Y87.2485 
G01 X54.4846 Y87.2230 
G01 X54.4889 Y87.2219 
G01 X54.5777 Y87.1706 
G01 X54.6503 Y87.0980 
G01 X54.7016 Y87.0091 
G01 X54.7279 Y86.9111 
G01 X54.7282 Y85.9533 
G01 X55.3033 Y85.3782 
G01 X56.1167 Y85.3782 
G01 X56.2928 Y85.5543 
G01 X56.3817 Y85.6056 
G01 X56.4808 Y85.6322 
G01 X59.3588 Y85.6322 
G01 X59.4579 Y85.6056 
G01 X59.5468 Y85.5543 
G01 X59.5735 Y85.5277 
G01 X59.9343 Y85.3782 
G01 X61.6457 Y85.3782 
G01 X62.0065 Y85.5277 
G01 X62.0332 Y85.5543 
G01 X62.1221 Y85.6056 
G01 X62.2212 Y85.6322 
G01 X63.4748 Y85.6322 
G01 X63.4822 Y85.6353 
G01 X63.5078 Y85.6387 
G01 X63.5327 Y85.6453 
G01 X63.5584 Y85.6453 
G01 X63.5840 Y85.6487 
G01 X63.6095 Y85.6453 
G01 X63.6353 Y85.6453 
G01 X63.6602 Y85.6387 
G01 X63.6857 Y85.6353 
G01 X63.7095 Y85.6254 
G01 X63.7345 Y85.6188 
G01 X63.7568 Y85.6059 
G01 X63.7806 Y85.5960 
G01 X63.8010 Y85.5803 
G01 X63.8233 Y85.5674 
G01 X63.8416 Y85.5492 
G01 X63.8620 Y85.5336 
G01 X63.8777 Y85.5131 
G01 X63.8959 Y85.4949 
G01 X63.9088 Y85.4725 
G01 X63.9245 Y85.4521 
G01 X63.9343 Y85.4283 
G01 X63.9472 Y85.4060 
G01 X63.9539 Y85.3811 
G01 X63.9638 Y85.3573 
G01 X63.9671 Y85.3317 
G01 X63.9738 Y85.3068 
G01 X63.9738 Y85.2811 
G01 X63.9772 Y85.2556 
G01 X63.9738 Y85.2300 
G01 X63.9738 Y73.3547 
G01 X63.9472 Y73.2555 
G01 X63.8959 Y73.1667 
G01 X63.8233 Y73.0941 
G01 X63.7345 Y73.0428 
G01 X63.6353 Y73.0162 
G01 X62.3228 Y73.0162 
G01 X62.2974 Y73.0230 
G01 X62.2237 Y73.0428 
G01 X62.1348 Y73.0941 
G01 X62.0622 Y73.1667 
G01 X62.0065 Y73.2223 
G01 X61.6457 Y73.3718 
G01 X59.9343 Y73.3718 
G01 X59.5735 Y73.2223 
G01 X59.2973 Y72.9461 
G01 X59.1478 Y72.5853 
G01 X59.1478 Y72.1947 
G01 X59.2973 Y71.8339 
G01 X59.5735 Y71.5577 
G01 X59.9343 Y71.4082 
G01 X61.6457 Y71.4082 
G01 X62.0065 Y71.5577 
G01 X62.0622 Y71.6133 
G01 X62.1314 Y71.6825 
G01 X62.1348 Y71.6859 
G01 X62.2237 Y71.7372 
G01 X62.2951 Y71.7564 
G01 X62.3228 Y71.7638 
G01 X64.7224 Y71.7638 
G01 X64.7284 Y71.7654 
G01 X64.7522 Y71.7753 
G01 X64.7778 Y71.7786 
G01 X64.8027 Y71.7853 
G01 X64.8284 Y71.7853 
G01 X64.8540 Y71.7887 
G01 X64.8795 Y71.7853 
G01 X64.9053 Y71.7853 
G01 X64.9302 Y71.7786 
G01 X64.9557 Y71.7753 
G01 X64.9796 Y71.7654 
G01 X65.0045 Y71.7587 
G01 X65.0268 Y71.7459 
G01 X65.0506 Y71.7360 
G01 X65.0710 Y71.7203 
G01 X65.0933 Y71.7074 
G01 X65.1116 Y71.6892 
G01 X65.1320 Y71.6735 
G01 X65.1477 Y71.6531 
G01 X65.1659 Y71.6348 
G01 X65.1788 Y71.6125 
G01 X65.1945 Y71.5921 
G01 X65.2043 Y71.5683 
G01 X65.2172 Y71.5460 
G01 X65.2239 Y71.5211 
G01 X65.2338 Y71.4973 
G01 X65.2371 Y71.4717 
G01 X65.2438 Y71.4468 
G01 X65.2438 Y71.4211 
G01 X65.2472 Y71.3955 
G01 X65.2438 Y71.3700 
G01 X65.2438 Y58.2954 
G01 X65.3391 Y58.0653 
G01 X65.5153 Y57.8891 
G01 X65.7454 Y57.7938 
G01 X69.1719 Y57.7938 
G01 X69.2710 Y57.7672 
G01 X69.3599 Y57.7159 
G01 X69.4325 Y57.6433 
G01 X69.5743 Y57.5015 
G01 X69.9725 Y57.3366 
G01 X71.9275 Y57.3366 
G01 X72.3257 Y57.5015 
G01 X72.4385 Y57.6143 
G01 X72.5274 Y57.6656 
G01 X72.6265 Y57.6922 
G01 X73.6937 Y57.6922 
G01 X73.7929 Y57.6656 
G01 X73.8817 Y57.6143 
G01 X73.9543 Y57.5417 
G01 X74.0056 Y57.4529 
G01 X74.0322 Y57.3537 
G01 X74.0322 Y57.0138 
G01 X74.0387 Y56.9895 
G01 X74.0486 Y56.9657 
G01 X74.0519 Y56.9402 
G01 X74.0586 Y56.9153 
G01 X74.0586 Y56.8895 
G01 X74.0620 Y56.8640 
G01 X74.0586 Y56.8384 
G01 X74.0586 Y54.7361 
G01 X74.1075 Y54.6179 
G01 X74.1979 Y54.5275 
G01 X74.3161 Y54.4786 
G01 X76.2239 Y54.4786 
G01 X76.3421 Y54.5275 
G01 X76.4325 Y54.6179 
G01 X76.4814 Y54.7361 
G01 X76.4814 Y57.0239 
G01 X76.4325 Y57.1421 
G01 X76.3421 Y57.2325 
G01 X76.2239 Y57.2814 
G01 X75.8263 Y57.2814 
G01 X75.7271 Y57.3080 
G01 X75.6383 Y57.3593 
G01 X75.5657 Y57.4319 
G01 X75.5144 Y57.5207 
G01 X75.4878 Y57.6199 
G01 X75.4878 Y59.5288 
G01 X75.5144 Y59.6279 
G01 X75.5657 Y59.7168 
G01 X75.5923 Y59.7435 
G01 X75.7418 Y60.1043 
G01 X75.7418 Y61.8157 
G01 X75.5923 Y62.1765 
G01 X75.3161 Y62.4527 
G01 X74.9553 Y62.6022 
G01 X74.5647 Y62.6022 
G01 X74.2039 Y62.4527 
G01 X73.9277 Y62.1765 
G01 X73.7782 Y61.8157 
G01 X73.7782 Y60.1043 
G01 X73.9414 Y59.7104 
G01 X73.9543 Y59.6881 
G01 X73.9609 Y59.6631 
G01 X73.9708 Y59.6394 
G01 X73.9741 Y59.6138 
G01 X73.9808 Y59.5889 
G01 X73.9808 Y59.5631 
G01 X73.9842 Y59.5376 
G01 X73.9808 Y59.5121 
G01 X73.9808 Y59.4863 
G01 X73.9741 Y59.4614 
G01 X73.9708 Y59.4358 
G01 X73.9609 Y59.4120 
G01 X73.9543 Y59.3871 
G01 X73.9414 Y59.3648 
G01 X73.9315 Y59.3410 
G01 X73.9158 Y59.3206 
G01 X73.9029 Y59.2983 
G01 X73.8847 Y59.2800 
G01 X73.8690 Y59.2596 
G01 X73.8486 Y59.2439 
G01 X73.8304 Y59.2257 
G01 X73.8080 Y59.2128 
G01 X73.7876 Y59.1971 
G01 X73.7638 Y59.1872 
G01 X73.7415 Y59.1744 
G01 X73.7166 Y59.1677 
G01 X73.6928 Y59.1578 
G01 X73.6672 Y59.1545 
G01 X73.6423 Y59.1478 
G01 X73.6166 Y59.1478 
G01 X73.5910 Y59.1444 
G01 X73.5655 Y59.1478 
G01 X72.6265 Y59.1478 
G01 X72.5274 Y59.1744 
G01 X72.4385 Y59.2257 
G01 X72.3659 Y59.2983 
G01 X72.3257 Y59.3385 
G01 X72.2990 Y59.3495 
G01 X72.2826 Y59.3621 
G01 X72.2176 Y59.4120 
G01 X72.1864 Y59.4526 
G01 X72.1551 Y59.4934 
G01 X72.1249 Y59.5664 
G01 X72.1158 Y59.5882 
G01 X72.1072 Y59.6539 
G01 X72.1024 Y59.6900 
G01 X72.1094 Y59.7430 
G01 X72.1158 Y59.7917 
G01 X72.1308 Y59.8279 
G01 X72.1551 Y59.8866 
G01 X72.1677 Y59.9030 
G01 X72.2176 Y59.9680 
G01 X72.2582 Y59.9992 
G01 X72.2990 Y60.0305 
G01 X72.3257 Y60.0415 
G01 X72.6305 Y60.3463 
G01 X72.7954 Y60.7445 
G01 X72.7954 Y61.1755 
G01 X72.6305 Y61.5737 
G01 X72.3257 Y61.8785 
G01 X71.9420 Y62.0374 
G01 X71.9171 Y62.0440 
G01 X71.8948 Y62.0569 
G01 X71.8710 Y62.0668 
G01 X71.8506 Y62.0825 
G01 X71.8283 Y62.0954 
G01 X71.8100 Y62.1136 
G01 X71.7896 Y62.1293 
G01 X71.7739 Y62.1497 
G01 X71.7557 Y62.1679 
G01 X71.7428 Y62.1903 
G01 X71.7271 Y62.2107 
G01 X71.7173 Y62.2345 
G01 X71.7044 Y62.2568 
G01 X71.6977 Y62.2817 
G01 X71.6878 Y62.3055 
G01 X71.6845 Y62.3311 
G01 X71.6778 Y62.3560 
G01 X71.6778 Y62.3817 
G01 X71.6744 Y62.4073 
G01 X71.6778 Y62.4328 
G01 X71.6778 Y62.7292 
G01 X71.7044 Y62.8283 
G01 X71.7557 Y62.9172 
G01 X71.8283 Y62.9898 
G01 X71.9318 Y63.0933 
G01 X71.9318 Y63.9067 
G01 X71.3567 Y64.4818 
G01 X70.5433 Y64.4818 
G01 X69.9682 Y63.9067 
G01 X69.9682 Y63.0933 
G01 X70.1443 Y62.9172 
G01 X70.1956 Y62.8283 
G01 X70.2222 Y62.7292 
G01 X70.2222 Y62.4328 
G01 X70.2256 Y62.4073 
G01 X70.2222 Y62.3817 
G01 X70.2222 Y62.3560 
G01 X70.2155 Y62.3311 
G01 X70.2122 Y62.3055 
G01 X70.2023 Y62.2817 
G01 X70.1956 Y62.2568 
G01 X70.1827 Y62.2345 
G01 X70.1729 Y62.2107 
G01 X70.1572 Y62.1903 
G01 X70.1443 Y62.1679 
G01 X70.1261 Y62.1497 
G01 X70.1104 Y62.1293 
G01 X70.0900 Y62.1136 
G01 X70.0717 Y62.0954 
G01 X70.0494 Y62.0825 
G01 X70.0290 Y62.0668 
G01 X70.0052 Y62.0569 
G01 X69.9829 Y62.0440 
G01 X69.9580 Y62.0374 
G01 X69.5743 Y61.8785 
G01 X69.2695 Y61.5737 
G01 X69.1046 Y61.1755 
G01 X69.1046 Y60.7445 
G01 X69.2695 Y60.3463 
G01 X69.5743 Y60.0415 
G01 X69.6010 Y60.0305 
G01 X69.6409 Y59.9998 
G01 X69.6824 Y59.9680 
G01 X69.7313 Y59.9043 
G01 X69.7449 Y59.8866 
G01 X69.7689 Y59.8285 
G01 X69.7842 Y59.7918 
G01 X69.7904 Y59.7441 
G01 X69.7976 Y59.6900 
G01 X69.7929 Y59.6546 
G01 X69.7842 Y59.5882 
G01 X69.7758 Y59.5680 
G01 X69.7449 Y59.4934 
G01 X69.7142 Y59.4535 
G01 X69.6824 Y59.4120 
G01 X69.6187 Y59.3631 
G01 X69.6010 Y59.3495 
G01 X69.5743 Y59.3385 
G01 X69.3599 Y59.1241 
G01 X69.2710 Y59.0728 
G01 X69.1719 Y59.0462 
G01 X66.8347 Y59.0462 
G01 X66.7355 Y59.0728 
G01 X66.6467 Y59.1241 
G01 X66.5741 Y59.1967 
G01 X66.5228 Y59.2855 
G01 X66.4962 Y59.3847 
G01 X66.4962 Y73.9052 
G01 X66.5101 Y73.9572 
G01 X66.5228 Y74.0043 
G01 X66.5301 Y74.0170 
G01 X66.5741 Y74.0932 
G01 X66.6467 Y74.1658 
G01 X66.7355 Y74.2171 
G01 X66.8347 Y74.2437 
G01 X66.9373 Y74.2437 
G01 X66.9893 Y74.2297 
G01 X67.0365 Y74.2171 
G01 X67.0491 Y74.2098 
G01 X67.1253 Y74.1658 
G01 X67.1935 Y74.0977 
G01 X67.5543 Y73.9482 
G01 X69.2657 Y73.9482 
G01 X69.6265 Y74.0977 
G01 X69.9027 Y74.3739 
G01 X70.0522 Y74.7347 
G01 X70.0522 Y75.1253 
G01 X69.9027 Y75.4861 
G01 X69.6265 Y75.7623 
G01 X69.3919 Y75.8595 
G01 X69.3367 Y75.9019 
G01 X69.3105 Y75.9220 
G01 X69.2927 Y75.9452 
G01 X69.2480 Y76.0034 
G01 X69.2087 Y76.0982 
G01 X69.1990 Y76.1721 
G01 X69.1953 Y76.2000 
G01 X69.1987 Y76.2257 
G01 X69.2087 Y76.3017 
G01 X69.2480 Y76.3966 
G01 X69.2904 Y76.4518 
G01 X69.3105 Y76.4780 
G01 X69.3337 Y76.4958 
G01 X69.3919 Y76.5405 
G01 X69.4247 Y76.5541 
G01 X69.4867 Y76.5798 
G01 X69.6265 Y76.6377 
G01 X69.6532 Y76.6643 
G01 X69.7134 Y76.6991 
G01 X69.7421 Y76.7156 
G01 X69.8330 Y76.7400 
G01 X69.8412 Y76.7422 
G01 X69.8919 Y76.7422 
G01 X69.9438 Y76.7422 
G01 X74.6532 Y76.7422 
G01 X74.7523 Y76.7156 
G01 X74.8412 Y76.6643 
G01 X74.9138 Y76.5917 
G01 X74.9651 Y76.5029 
G01 X74.9917 Y76.4037 
G01 X74.9917 Y76.3011 
G01 X74.9651 Y76.2019 
G01 X74.9138 Y76.1131 
G01 X74.8412 Y76.0405 
G01 X74.3663 Y75.5655 
G01 X74.1430 Y75.3423 
G01 X74.0322 Y75.0748 
G01 X74.0322 Y72.1863 
G01 X74.0056 Y72.0871 
G01 X73.9543 Y71.9983 
G01 X73.8817 Y71.9257 
G01 X73.7929 Y71.8744 
G01 X73.6937 Y71.8478 
G01 X71.7208 Y71.8478 
G01 X71.6217 Y71.8744 
G01 X71.5328 Y71.9257 
G01 X71.4602 Y71.9983 
G01 X71.3567 Y72.1018 
G01 X70.5433 Y72.1018 
G01 X69.9682 Y71.5267 
G01 X69.9682 Y70.7133 
G01 X70.5433 Y70.1382 
G01 X71.3567 Y70.1382 
G01 X71.5328 Y70.3143 
G01 X71.6217 Y70.3656 
G01 X71.7208 Y70.3922 
G01 X73.6937 Y70.3922 
G01 X73.7929 Y70.3656 
G01 X73.8817 Y70.3143 
G01 X73.9543 Y70.2417 
G01 X74.0056 Y70.1529 
G01 X74.0322 Y70.0537 
G01 X74.0322 Y67.4712 
G01 X74.0056 Y67.3721 
G01 X73.9543 Y67.2832 
G01 X73.9277 Y67.2565 
G01 X73.7782 Y66.8957 
G01 X73.7782 Y65.1843 
G01 X73.9277 Y64.8235 
G01 X74.2039 Y64.5473 
G01 X74.5647 Y64.3978 
G01 X74.9553 Y64.3978 
G01 X75.3161 Y64.5473 
G01 X75.5923 Y64.8235 
G01 X75.7418 Y65.1843 
G01 X75.7418 Y66.8957 
G01 X75.5923 Y67.2565 
G01 X75.5657 Y67.2832 
G01 X75.5144 Y67.3721 
G01 X75.4878 Y67.4712 
G01 X75.4878 Y69.3801 
G01 X75.5144 Y69.4793 
G01 X75.5657 Y69.5681 
G01 X75.6383 Y69.6407 
G01 X75.7271 Y69.6920 
G01 X75.8263 Y69.7186 
G01 X76.2239 Y69.7186 
G01 X76.3421 Y69.7675 
G01 X76.4325 Y69.8579 
G01 X76.4814 Y69.9761 
G01 X76.4814 Y72.2639 
G01 X76.4325 Y72.3821 
G01 X76.3421 Y72.4725 
G01 X76.2239 Y72.5214 
G01 X75.8263 Y72.5214 
G01 X75.7271 Y72.5480 
G01 X75.6383 Y72.5993 
G01 X75.5657 Y72.6719 
G01 X75.5144 Y72.7607 
G01 X75.4878 Y72.8599 
G01 X75.4878 Y74.5184 
G01 X75.5144 Y74.6175 
G01 X75.5657 Y74.7064 
G01 X75.6383 Y74.7790 
G01 X76.6470 Y75.7877 
G01 X76.7578 Y76.0552 
G01 X76.7578 Y76.7351 
G01 X76.7844 Y76.8342 
G01 X76.8357 Y76.9231 
G01 X76.8408 Y76.9282 
G01 X76.9864 Y77.2798 
G01 X76.9864 Y77.6602 
G01 X76.8408 Y78.0118 
G01 X76.5718 Y78.2808 
G01 X76.2202 Y78.4264 
G01 X75.8398 Y78.4264 
G01 X75.4882 Y78.2808 
G01 X75.4831 Y78.2757 
G01 X75.3942 Y78.2244 
G01 X75.2951 Y78.1978 
G01 X69.9438 Y78.1978 
G01 X69.8931 Y78.1978 
G01 X69.8412 Y78.1978 
G01 X69.8352 Y78.1994 
G01 X69.7421 Y78.2244 
G01 X69.7157 Y78.2396 
G01 X69.6532 Y78.2757 
G01 X69.6265 Y78.3023 
G01 X69.3919 Y78.3995 
G01 X69.3367 Y78.4419 
G01 X69.3105 Y78.4620 
G01 X69.2927 Y78.4852 
G01 X69.2480 Y78.5434 
G01 X69.2087 Y78.6382 
G01 X69.1990 Y78.7121 
G01 X69.1953 Y78.7400 
G01 X69.1987 Y78.7657 
G01 X69.2087 Y78.8418 
G01 X69.2480 Y78.9366 
G01 X69.2904 Y78.9918 
G01 X69.3105 Y79.0180 
G01 X69.3337 Y79.0358 
G01 X69.3919 Y79.0805 
G01 X69.4247 Y79.0941 
G01 X69.4867 Y79.1198 
G01 X69.6265 Y79.1777 
G01 X69.6532 Y79.2043 
G01 X69.7134 Y79.2391 
G01 X69.7421 Y79.2556 
G01 X69.8330 Y79.2800 
G01 X69.8412 Y79.2822 
G01 X69.8919 Y79.2822 
G01 X69.9438 Y79.2822 
G01 X71.4492 Y79.2822 
G01 X71.5483 Y79.2556 
G01 X71.6372 Y79.2043 
G01 X71.7098 Y79.1317 
G01 X71.8133 Y79.0282 
G01 X72.6267 Y79.0282 
G01 X73.2018 Y79.6033 
G01 X73.2018 Y80.4167 
G01 X72.7266 Y80.8919 
G01 X72.6649 Y80.9536 
G01 X72.6540 Y80.9645 
G01 X72.6027 Y81.0533 
G01 X72.5764 Y81.1513 
G01 X72.5761 Y81.2551 
G01 X72.6016 Y81.3500 
G01 X72.6027 Y81.3543 
G01 X72.6540 Y81.4431 
G01 X72.7266 Y81.5157 
G01 X72.8155 Y81.5670 
G01 X72.9135 Y81.5933 
G01 X76.2202 Y81.5936 
G01 X76.5718 Y81.7392 
G01 X79.0932 Y84.2607 
G01 X79.3808 Y84.5482 
G01 X79.5264 Y84.8998 
G01 X79.5264 Y85.2802 
G01 X79.3808 Y85.6318 
G01 X79.1118 Y85.9008 
G01 X78.7602 Y86.0464 
G01 X78.3798 Y86.0464 
G01 X78.0282 Y85.9008 
G01 X77.6681 Y85.5406 
G01 X75.7117 Y83.5843 
G01 X75.6228 Y83.5330 
G01 X75.5237 Y83.5064 
G01 X68.2198 Y83.5064 
G01 X67.8682 Y83.3608 
G01 X67.5992 Y83.0918 
G01 X67.4536 Y82.7402 
G01 X67.4536 Y81.2361 
G01 X67.4570 Y81.2105 
G01 X67.4536 Y81.1850 
G01 X67.4536 Y81.1592 
G01 X67.4469 Y81.1343 
G01 X67.4436 Y81.1088 
G01 X67.4337 Y81.0850 
G01 X67.4270 Y81.0601 
G01 X67.4141 Y81.0377 
G01 X67.4043 Y81.0139 
G01 X67.3886 Y80.9935 
G01 X67.3757 Y80.9712 
G01 X67.3575 Y80.9530 
G01 X67.3418 Y80.9325 
G01 X67.3214 Y80.9168 
G01 X67.3031 Y80.8986 
G01 X67.2808 Y80.8857 
G01 X67.2604 Y80.8700 
G01 X67.2366 Y80.8602 
G01 X67.2143 Y80.8473 
G01 X67.1926 Y80.8415 
G01 X67.1266 Y80.7755 
G01 X67.0513 Y80.7315 
G01 X67.0365 Y80.7229 
G01 X66.9916 Y80.7109 
G01 X66.9373 Y80.6963 
G01 X66.8347 Y80.6963 
G01 X66.7355 Y80.7229 
G01 X66.6467 Y80.7742 
G01 X66.5752 Y80.8457 
G01 X66.5314 Y80.9208 
G01 X66.5228 Y80.9357 
G01 X66.5107 Y80.9805 
G01 X66.4962 Y81.0348 
G01 X66.4962 Y87.8752 
G01 X66.5101 Y87.9272 
G01 X66.5228 Y87.9743 
G01 X66.5301 Y87.9870 
G01 X66.5741 Y88.0632 
G01 X66.6467 Y88.1358 
G01 X66.7355 Y88.1871 
G01 X66.8347 Y88.2137 
G01 X66.9373 Y88.2137 
G01 X66.9893 Y88.1997 
G01 X67.0365 Y88.1871 
G01 X67.0491 Y88.1798 
G01 X67.1253 Y88.1358 
G01 X67.1935 Y88.0677 
G01 X67.5543 Y87.9182 
G01 X69.2657 Y87.9182 
G01 X69.6265 Y88.0677 
G01 X69.6532 Y88.0943 
G01 X69.7134 Y88.1291 
G01 X69.7421 Y88.1456 
G01 X69.8330 Y88.1700 
G01 X69.8412 Y88.1722 
G01 X69.8919 Y88.1722 
G01 X69.9438 Y88.1722 
G01 X75.2951 Y88.1722 
G01 X75.3942 Y88.1456 
G01 X75.4831 Y88.0943 
G01 X75.4882 Y88.0892 
G01 X75.8398 Y87.9436 
G01 X76.2202 Y87.9436 
G01 X76.5718 Y88.0892 
G01 X76.8408 Y88.3582 
G01 X76.9864 Y88.7098 
G01 X76.9864 Y89.0902 
G01 X76.8408 Y89.4418 
G01 X76.5718 Y89.7108 
G01 X76.2202 Y89.8564 
G01 X75.8398 Y89.8564 
G01 X75.4882 Y89.7108 
G01 X75.4831 Y89.7057 
G01 X75.3942 Y89.6544 
G01 X75.2951 Y89.6278 
G01 X69.9438 Y89.6278 
G01 X69.8931 Y89.6278 
G01 X69.8412 Y89.6278 
G01 X69.8352 Y89.6294 
G01 X69.7421 Y89.6544 
G01 X69.7157 Y89.6696 
G01 X69.6532 Y89.7057 
G01 X69.6265 Y89.7323 
G01 X69.3919 Y89.8295 
G01 X69.3367 Y89.8719 
G01 X69.3105 Y89.8920 
G01 X69.2927 Y89.9152 
G01 X69.2480 Y89.9734 
G01 X69.2087 Y90.0682 
G01 X69.1990 Y90.1421 
G01 X69.1953 Y90.1700 
G01 X69.1987 Y90.1957 
G01 X69.2087 Y90.2717 
G01 X69.2480 Y90.3666 
G01 X69.2904 Y90.4218 
G01 X69.3105 Y90.4480 
G01 X69.3337 Y90.4658 
G01 X69.3919 Y90.5105 
G01 X69.4247 Y90.5241 
G01 X69.4867 Y90.5498 
G01 X69.6265 Y90.6077 
G01 X69.9027 Y90.8839 
G01 X70.0522 Y91.2447 
G01 X70.0522 Y91.6353 
G01 X69.9027 Y91.9961 
G01 X69.6306 Y92.2683 
G01 X69.6220 Y92.2706 
G01 X69.5997 Y92.2834 
G01 X69.5759 Y92.2933 
G01 X69.5554 Y92.3090 
G01 X69.5331 Y92.3219 
G01 X69.5149 Y92.3401 
G01 X69.4945 Y92.3558 
G01 X69.4788 Y92.3762 
G01 X69.4605 Y92.3945 
G01 X69.4477 Y92.4168 
G01 X69.4320 Y92.4372 
G01 X69.4221 Y92.4610 
G01 X69.4092 Y92.4833 
G01 X69.4026 Y92.5082 
G01 X69.3927 Y92.5320 
G01 X69.3893 Y92.5576 
G01 X69.3827 Y92.5825 
G01 X69.3827 Y92.6083 
G01 X69.3793 Y92.6338 
G01 X69.3827 Y92.6593 
G01 X69.3827 Y92.6851 
G01 X69.3893 Y92.7100 
G01 X69.3927 Y92.7355 
G01 X69.4026 Y92.7593 
G01 X69.4092 Y92.7843 
G01 X69.4221 Y92.8066 
G01 X69.4320 Y92.8304 
G01 X69.4477 Y92.8508 
G01 X69.4605 Y92.8731 
G01 X69.4788 Y92.8913 
G01 X69.4944 Y92.9118 
G01 X69.5149 Y92.9275 
G01 X69.5331 Y92.9457 
G01 X69.5554 Y92.9586 
G01 X69.5759 Y92.9743 
G01 X69.5997 Y92.9841 
G01 X69.6220 Y92.9970 
G01 X69.6469 Y93.0037 
G01 X69.6707 Y93.0136 
G01 X69.6962 Y93.0169 
G01 X69.7211 Y93.0236 
G01 X69.7469 Y93.0236 
G01 X69.7724 Y93.0270 
G01 X69.7980 Y93.0236 
G01 X70.4437 Y93.0236 
G01 X70.5428 Y92.9970 
G01 X70.6317 Y92.9457 
G01 X70.7043 Y92.8731 
G01 X71.1857 Y92.3917 
G01 X71.2370 Y92.3028 
G01 X71.2636 Y92.2037 
G01 X71.2636 Y92.0848 
G01 X71.2636 Y92.0341 
G01 X71.2636 Y91.9822 
G01 X71.2521 Y91.9394 
G01 X71.2382 Y91.8874 
G01 X71.2382 Y91.0333 
G01 X71.8133 Y90.4582 
G01 X72.6674 Y90.4582 
G01 X72.7182 Y90.4718 
G01 X72.7622 Y90.4836 
G01 X72.8129 Y90.4836 
G01 X72.8648 Y90.4836 
G01 X74.9502 Y90.4836 
G01 X75.3018 Y90.6292 
G01 X75.5708 Y90.8982 
G01 X75.7164 Y91.2498 
G01 X75.7164 Y95.9778 
G01 X75.7418 Y96.0726 
G01 X75.7418 Y96.9674 
G01 X75.7164 Y97.0622 
G01 X75.7164 Y97.7651 
G01 X75.7430 Y97.8643 
G01 X75.7943 Y97.9531 
G01 X75.8669 Y98.0257 
G01 X75.9557 Y98.0770 
G01 X76.0549 Y98.1036 
G01 X78.7602 Y98.1036 
G01 X79.1118 Y98.2492 
G01 X79.3808 Y98.5182 
G01 X79.5264 Y98.8698 
G01 X79.5264 Y99.2502 
G01 X79.3808 Y99.6018 
G01 X79.1118 Y99.8708 
G01 X78.7602 Y100.0164 
G01 X76.0549 Y100.0164 
G01 X75.9557 Y100.0430 
G01 X75.8669 Y100.0943 
G01 X75.7943 Y100.1669 
G01 X75.7430 Y100.2557 
G01 X75.7164 Y100.3549 
G01 X75.7164 Y101.7902 
G01 X75.5708 Y102.1418 
G01 X75.2106 Y102.5019 
G01 X72.7618 Y104.9508 
G01 X72.4102 Y105.0964 
G01 X69.0548 Y105.0964 
G01 X69.0041 Y105.0964 
G01 X68.9522 Y105.0964 
G01 X68.9094 Y105.1079 
G01 X68.8574 Y105.1218 
G01 X67.9626 Y105.1218 
G01 X67.9118 Y105.1082 
G01 X67.8678 Y105.0964 
G01 X67.8171 Y105.0964 
G01 X67.7652 Y105.0964 
G01 X65.8949 Y105.0964 
G01 X65.7957 Y105.1230 
G01 X65.7069 Y105.1743 
G01 X65.6343 Y105.2469 
G01 X65.5830 Y105.3357 
G01 X65.5564 Y105.4349 
G01 X65.5564 Y105.6599 
G01 X65.5530 Y105.6855 
G01 X65.5564 Y105.7110 
G01 X65.5564 Y105.7368 
G01 X65.5631 Y105.7617 
G01 X65.5664 Y105.7872 
G01 X65.5763 Y105.8110 
G01 X65.5818 Y105.8316 
G01 X65.5818 Y107.5357 
G01 X65.4323 Y107.8965 
G01 X65.1561 Y108.1727 
G01 X64.7953 Y108.3222 
G01 X64.4047 Y108.3222 
G01 X64.0439 Y108.1727 
G01 X63.7677 Y107.8965 
G01 X63.6705 Y107.6619 
G01 X63.6080 Y107.5805 
G01 X63.5902 Y107.5668 
G01 X63.5266 Y107.5180 
G01 X63.4862 Y107.5013 
G01 X63.4318 Y107.4787 
G01 X63.3445 Y107.4673 
G01 X63.3300 Y107.4653 
G01 X63.2368 Y107.4776 
G01 X63.2282 Y107.4787 
G01 X63.1334 Y107.5180 
G01 X63.0520 Y107.5805 
G01 X63.0383 Y107.5983 
G01 X62.9895 Y107.6619 
G01 X62.9650 Y107.7210 
G01 X62.8923 Y107.8965 
G01 X62.6161 Y108.1727 
G01 X62.2553 Y108.3222 
G01 X61.8647 Y108.3222 
G01 X61.5039 Y108.1727 
G01 X61.2277 Y107.8965 
G01 X61.1305 Y107.6619 
G01 X61.0680 Y107.5805 
G01 X61.0502 Y107.5668 
G01 X60.9866 Y107.5180 
G01 X60.9462 Y107.5013 
G01 X60.8918 Y107.4787 
G01 X60.8045 Y107.4673 
G01 X60.7900 Y107.4653 
G01 X60.6968 Y107.4776 
G01 X60.6882 Y107.4787 
G01 X60.5934 Y107.5180 
G01 X60.5120 Y107.5805 
G01 X60.4983 Y107.5983 
G01 X60.4495 Y107.6619 
G01 X60.4250 Y107.7210 
G01 X60.3523 Y107.8965 
G01 X60.0761 Y108.1727 
G01 X59.7153 Y108.3222 
G01 X59.3247 Y108.3222 
G01 X58.9639 Y108.1727 
G01 X58.6877 Y107.8965 
G01 X58.5905 Y107.6619 
G01 X58.5280 Y107.5805 
G01 X58.5102 Y107.5668 
G01 X58.4466 Y107.5180 
G01 X58.4062 Y107.5013 
G01 X58.3518 Y107.4787 
G01 X58.2645 Y107.4673 
G01 X58.2500 Y107.4653 
G01 X58.1568 Y107.4776 
G01 X58.1482 Y107.4787 
G01 X58.0534 Y107.5180 
G01 X57.9720 Y107.5805 
G01 X57.9583 Y107.5983 
G01 X57.9095 Y107.6619 
G01 X57.8850 Y107.7210 
G01 X57.8123 Y107.8965 
G01 X57.5361 Y108.1727 
G01 X57.1753 Y108.3222 
G01 X56.7847 Y108.3222 
G01 X56.4239 Y108.1727 
G01 X56.1477 Y107.8965 
G01 X56.0505 Y107.6619 
G01 X55.9880 Y107.5805 
G01 X55.9702 Y107.5668 
G01 X55.9066 Y107.5180 
G01 X55.8662 Y107.5013 
G01 X55.8118 Y107.4787 
G01 X55.7245 Y107.4673 
G01 X55.7100 Y107.4653 
G01 X55.6168 Y107.4776 
G01 X55.6082 Y107.4787 
G01 X55.5134 Y107.5180 
G01 X55.4320 Y107.5805 
G01 X55.4183 Y107.5983 
G01 X55.3695 Y107.6619 
G01 X55.3450 Y107.7210 
G01 X55.2723 Y107.8965 
G01 X54.9961 Y108.1727 
G01 X54.6353 Y108.3222 
G01 X54.2447 Y108.3222 
G01 X53.8839 Y108.1727 
G01 X53.6077 Y107.8965 
G01 X53.5105 Y107.6619 
G01 X53.4480 Y107.5805 
G01 X53.4302 Y107.5668 
G01 X53.3666 Y107.5180 
G01 X53.3262 Y107.5013 
G01 X53.2717 Y107.4787 
G01 X53.1845 Y107.4673 
G01 X53.1700 Y107.4653 
G01 X53.0768 Y107.4776 
G01 X53.0682 Y107.4787 
G01 X52.9734 Y107.5180 
G01 X52.8920 Y107.5805 
G01 X52.8783 Y107.5983 
G01 X52.8295 Y107.6619 
G01 X52.8050 Y107.7210 
G01 X52.7323 Y107.8965 
G01 X52.4561 Y108.1727 
G01 X52.0953 Y108.3222 
G01 X51.7047 Y108.3222 
G01 X51.3439 Y108.1727 
G01 X51.0677 Y107.8965 
G01 X50.9705 Y107.6619 
G01 X50.9080 Y107.5805 
G01 X50.8902 Y107.5668 
G01 X50.8266 Y107.5180 
G01 X50.7862 Y107.5013 
G01 X50.7317 Y107.4787 
G01 X50.6445 Y107.4673 
G01 X50.6300 Y107.4653 
G01 X50.5368 Y107.4776 
G01 X50.5282 Y107.4787 
G01 X50.4334 Y107.5180 
G01 X50.3520 Y107.5805 
G01 X50.3383 Y107.5983 
G01 X50.2895 Y107.6619 
G01 X50.2650 Y107.7210 
G01 X50.1923 Y107.8965 
G01 X49.9161 Y108.1727 
G01 X49.5553 Y108.3222 
G01 X49.1647 Y108.3222 
G01 X48.8039 Y108.1727 
G01 X48.5277 Y107.8965 
G01 X48.3782 Y107.5357 
G01 X48.3782 Y105.8243 
G01 X48.5414 Y105.4304 
G01 X48.5543 Y105.4081 
G01 X48.5609 Y105.3831 
G01 X48.5708 Y105.3594 
G01 X48.5742 Y105.3338 
G01 X48.5808 Y105.3089 
G01 X48.5808 Y105.2831 
G01 X48.5842 Y105.2576 
G01 X48.5808 Y105.2321 
G01 X48.5808 Y105.2063 
G01 X48.5742 Y105.1814 
G01 X48.5708 Y105.1558 
G01 X48.5609 Y105.1320 
G01 X48.5543 Y105.1071 
G01 X48.5414 Y105.0848 
G01 X48.5315 Y105.0610 
G01 X48.5158 Y105.0406 
G01 X48.5029 Y105.0183 
G01 X48.4847 Y105.0000 
G01 X48.4690 Y104.9796 
G01 X48.4486 Y104.9639 
G01 X48.4304 Y104.9457 
G01 X48.4080 Y104.9328 
G01 X48.3876 Y104.9171 
G01 X48.3638 Y104.9073 
G01 X48.3415 Y104.8944 
G01 X48.3166 Y104.8877 
G01 X48.2928 Y104.8778 
G01 X48.2672 Y104.8745 
G01 X48.2423 Y104.8678 
G01 X48.2166 Y104.8678 
G01 X48.1910 Y104.8644 
G01 X48.1655 Y104.8678 
G01 X44.1352 Y104.8678 
G01 X43.8677 Y104.7570 
G01 X43.6153 Y104.5045 
G01 X41.8430 Y102.7323 
G01 X41.7996 Y102.6889 
G01 X41.7704 Y102.6597 
G01 X41.6815 Y102.6084 
G01 X41.5835 Y102.5821 
G01 X41.3333 Y102.5818 
G01 X40.7582 Y102.0067 
G01 X40.7582 Y101.1933 
G01 X41.3333 Y100.6182 
G01 X42.1467 Y100.6182 
G01 X42.7218 Y101.1933 
G01 X42.7218 Y101.4424 
G01 X42.7484 Y101.5415 
G01 X42.7997 Y101.6304 
G01 X42.8723 Y101.7030 
G01 X44.5036 Y103.3343 
G01 X44.5925 Y103.3856 
G01 X44.6916 Y103.4122 
G01 X63.8651 Y103.4122 
G01 X63.9642 Y103.3856 
G01 X64.0531 Y103.3343 
G01 X64.0582 Y103.3292 
G01 X64.4098 Y103.1836 
G01 X67.7652 Y103.1836 
G01 X67.8159 Y103.1836 
G01 X67.8678 Y103.1836 
G01 X67.9106 Y103.1721 
G01 X67.9626 Y103.1582 
G01 X68.8574 Y103.1582 
G01 X68.9082 Y103.1718 
G01 X68.9522 Y103.1836 
G01 X69.0029 Y103.1836 
G01 X69.0548 Y103.1836 
G01 X71.7137 Y103.1836 
G01 X71.8128 Y103.1570 
G01 X71.9017 Y103.1057 
G01 X71.9743 Y103.0331 
G01 X73.7257 Y101.2817 
G01 X73.7770 Y101.1928 
G01 X73.8036 Y101.0937 
G01 X73.8036 Y97.0622 
G01 X73.7782 Y96.9674 
G01 X73.7782 Y96.0726 
G01 X73.8036 Y95.9778 
G01 X73.8036 Y93.3712 
G01 X73.8070 Y93.3457 
G01 X73.8036 Y93.3201 
G01 X73.8036 Y93.2944 
G01 X73.7969 Y93.2695 
G01 X73.7936 Y93.2439 
G01 X73.7837 Y93.2201 
G01 X73.7770 Y93.1952 
G01 X73.7641 Y93.1729 
G01 X73.7543 Y93.1491 
G01 X73.7386 Y93.1287 
G01 X73.7257 Y93.1063 
G01 X73.7075 Y93.0881 
G01 X73.6918 Y93.0677 
G01 X73.6714 Y93.0520 
G01 X73.6531 Y93.0338 
G01 X73.6308 Y93.0209 
G01 X73.6104 Y93.0052 
G01 X73.5866 Y92.9953 
G01 X73.5643 Y92.9825 
G01 X73.5394 Y92.9758 
G01 X73.5156 Y92.9659 
G01 X73.4900 Y92.9626 
G01 X73.4651 Y92.9559 
G01 X73.4393 Y92.9559 
G01 X73.4138 Y92.9525 
G01 X73.3883 Y92.9559 
G01 X73.3625 Y92.9559 
G01 X73.3376 Y92.9626 
G01 X73.3120 Y92.9659 
G01 X73.2882 Y92.9758 
G01 X73.2633 Y92.9825 
G01 X73.2410 Y92.9953 
G01 X73.2172 Y93.0052 
G01 X73.1968 Y93.0209 
G01 X73.1745 Y93.0338 
G01 X73.1562 Y93.0520 
G01 X73.1358 Y93.0677 
G01 X73.1201 Y93.0881 
G01 X73.1019 Y93.1063 
G01 X73.0890 Y93.1287 
G01 X73.0733 Y93.1491 
G01 X73.0635 Y93.1729 
G01 X73.0506 Y93.1952 
G01 X73.0439 Y93.2201 
G01 X73.0308 Y93.2518 
G01 X71.7793 Y94.5032 
G01 X71.4918 Y94.7908 
G01 X71.1402 Y94.9364 
G01 X69.4301 Y94.9364 
G01 X69.4045 Y94.9330 
G01 X69.3790 Y94.9364 
G01 X69.3532 Y94.9364 
G01 X69.3283 Y94.9431 
G01 X69.3028 Y94.9464 
G01 X69.2790 Y94.9563 
G01 X69.2584 Y94.9618 
G01 X67.8600 Y94.9618 
G01 X67.7609 Y94.9884 
G01 X67.6720 Y95.0397 
G01 X67.5994 Y95.1123 
G01 X67.5481 Y95.2011 
G01 X67.5215 Y95.3003 
G01 X67.5215 Y95.4029 
G01 X67.5481 Y95.5021 
G01 X67.5994 Y95.5909 
G01 X67.6720 Y95.6635 
G01 X68.1218 Y96.1133 
G01 X68.1218 Y96.9267 
G01 X67.9457 Y97.1028 
G01 X67.8944 Y97.1917 
G01 X67.8678 Y97.2908 
G01 X67.8678 Y101.7448 
G01 X67.7570 Y102.0123 
G01 X67.5523 Y102.2170 
G01 X67.2848 Y102.3278 
G01 X61.9152 Y102.3278 
G01 X61.6477 Y102.2170 
G01 X61.4430 Y102.0123 
G01 X61.3322 Y101.7448 
G01 X61.3322 Y100.5938 
G01 X61.3322 Y100.5431 
G01 X61.3322 Y100.4912 
G01 X61.3306 Y100.4852 
G01 X61.3056 Y100.3921 
G01 X61.2904 Y100.3657 
G01 X61.2543 Y100.3032 
G01 X61.2277 Y100.2765 
G01 X61.1305 Y100.0419 
G01 X61.0881 Y99.9867 
G01 X61.0680 Y99.9605 
G01 X61.0448 Y99.9427 
G01 X60.9866 Y99.8980 
G01 X60.8918 Y99.8587 
G01 X60.8179 Y99.8490 
G01 X60.7900 Y99.8453 
G01 X60.7643 Y99.8487 
G01 X60.6882 Y99.8587 
G01 X60.5934 Y99.8980 
G01 X60.5382 Y99.9404 
G01 X60.5120 Y99.9605 
G01 X60.4942 Y99.9837 
G01 X60.4495 Y100.0419 
G01 X60.4359 Y100.0747 
G01 X60.4102 Y100.1367 
G01 X60.3523 Y100.2765 
G01 X60.3257 Y100.3032 
G01 X60.2909 Y100.3634 
G01 X60.2744 Y100.3921 
G01 X60.2500 Y100.4830 
G01 X60.2478 Y100.4912 
G01 X60.2478 Y100.5419 
G01 X60.2478 Y100.5938 
G01 X60.2478 Y101.7448 
G01 X60.1370 Y102.0123 
G01 X59.9323 Y102.2170 
G01 X59.6648 Y102.3278 
G01 X45.4052 Y102.3278 
G01 X45.1377 Y102.2170 
G01 X44.9330 Y102.0123 
G01 X44.8222 Y101.7448 
G01 X44.8222 Y99.8308 
G01 X44.7956 Y99.7317 
G01 X44.7443 Y99.6428 
G01 X44.6717 Y99.5702 
G01 X44.5682 Y99.4667 
G01 X44.5682 Y98.6533 
G01 X45.1433 Y98.0782 
G01 X45.9567 Y98.0782 
G01 X46.5318 Y98.6533 
G01 X46.5318 Y99.4667 
G01 X46.4283 Y99.5702 
G01 X46.3582 Y99.6402 
G01 X46.3557 Y99.6428 
G01 X46.3044 Y99.7317 
G01 X46.2782 Y99.8293 
G01 X46.2778 Y100.5337 
G01 X46.3044 Y100.6329 
G01 X46.3557 Y100.7217 
G01 X46.4283 Y100.7943 
G01 X46.5171 Y100.8456 
G01 X46.6163 Y100.8722 
G01 X50.7055 Y100.8722 
G01 X50.7310 Y100.8756 
G01 X50.7566 Y100.8722 
G01 X50.7823 Y100.8722 
G01 X50.8072 Y100.8655 
G01 X50.8328 Y100.8622 
G01 X50.8566 Y100.8523 
G01 X50.8815 Y100.8456 
G01 X50.9038 Y100.8327 
G01 X50.9276 Y100.8229 
G01 X50.9480 Y100.8072 
G01 X50.9704 Y100.7943 
G01 X50.9886 Y100.7761 
G01 X51.0090 Y100.7604 
G01 X51.0247 Y100.7400 
G01 X51.0429 Y100.7217 
G01 X51.0558 Y100.6994 
G01 X51.0715 Y100.6790 
G01 X51.0814 Y100.6552 
G01 X51.0943 Y100.6329 
G01 X51.1009 Y100.6079 
G01 X51.1108 Y100.5842 
G01 X51.1141 Y100.5586 
G01 X51.1208 Y100.5337 
G01 X51.1208 Y100.5079 
G01 X51.1242 Y100.4824 
G01 X51.1208 Y100.4569 
G01 X51.1208 Y100.4311 
G01 X51.1141 Y100.4062 
G01 X51.1108 Y100.3806 
G01 X51.1009 Y100.3569 
G01 X51.0943 Y100.3319 
G01 X51.0814 Y100.3096 
G01 X50.9182 Y99.9157 
G01 X50.9182 Y98.2043 
G01 X51.0677 Y97.8435 
G01 X51.3439 Y97.5673 
G01 X51.7047 Y97.4178 
G01 X52.0953 Y97.4178 
G01 X52.4561 Y97.5673 
G01 X52.7323 Y97.8435 
G01 X52.8064 Y98.0223 
G01 X52.8295 Y98.0781 
G01 X52.8766 Y98.1394 
G01 X52.8920 Y98.1595 
G01 X52.9734 Y98.2220 
G01 X53.0663 Y98.2605 
G01 X53.1700 Y98.2746 
G01 X53.1823 Y98.2730 
G01 X53.2717 Y98.2613 
G01 X53.3284 Y98.2378 
G01 X53.3666 Y98.2220 
G01 X53.4279 Y98.1749 
G01 X53.4480 Y98.1595 
G01 X53.5105 Y98.0781 
G01 X53.6077 Y97.8435 
G01 X53.8839 Y97.5673 
G01 X54.2447 Y97.4178 
G01 X54.6353 Y97.4178 
G01 X54.9961 Y97.5673 
G01 X55.2723 Y97.8435 
G01 X55.3695 Y98.0781 
G01 X55.4320 Y98.1595 
G01 X55.4498 Y98.1732 
G01 X55.5134 Y98.2220 
G01 X55.5538 Y98.2387 
G01 X55.6082 Y98.2613 
G01 X55.6955 Y98.2727 
G01 X55.7100 Y98.2746 
G01 X55.8032 Y98.2624 
G01 X55.8118 Y98.2613 
G01 X55.9066 Y98.2220 
G01 X55.9880 Y98.1595 
G01 X56.0017 Y98.1417 
G01 X56.0505 Y98.0781 
G01 X56.0750 Y98.0190 
G01 X56.1477 Y97.8435 
G01 X56.4239 Y97.5673 
G01 X56.7847 Y97.4178 
G01 X57.1753 Y97.4178 
G01 X57.5361 Y97.5673 
G01 X57.8123 Y97.8435 
G01 X57.8702 Y97.9833 
G01 X57.8939 Y98.0404 
G01 X57.9095 Y98.0781 
G01 X57.9519 Y98.1333 
G01 X57.9720 Y98.1595 
G01 X57.9952 Y98.1773 
G01 X58.0534 Y98.2220 
G01 X58.1482 Y98.2613 
G01 X58.2221 Y98.2710 
G01 X58.2500 Y98.2747 
G01 X58.2757 Y98.2713 
G01 X58.3518 Y98.2613 
G01 X58.4466 Y98.2220 
G01 X58.5018 Y98.1796 
G01 X58.5280 Y98.1595 
G01 X58.5458 Y98.1363 
G01 X58.5905 Y98.0781 
G01 X58.6877 Y97.8434 
G01 X58.9639 Y97.5673 
G01 X59.3247 Y97.4178 
G01 X59.7153 Y97.4178 
G01 X60.0761 Y97.5673 
G01 X60.3523 Y97.8435 
G01 X60.4102 Y97.9833 
G01 X60.4339 Y98.0404 
G01 X60.4495 Y98.0781 
G01 X60.4919 Y98.1333 
G01 X60.5120 Y98.1595 
G01 X60.5352 Y98.1773 
G01 X60.5934 Y98.2220 
G01 X60.6882 Y98.2613 
G01 X60.7621 Y98.2710 
G01 X60.7900 Y98.2747 
G01 X60.8157 Y98.2713 
G01 X60.8918 Y98.2613 
G01 X60.9866 Y98.2220 
G01 X61.0418 Y98.1796 
G01 X61.0680 Y98.1595 
G01 X61.0858 Y98.1363 
G01 X61.1305 Y98.0781 
G01 X61.2277 Y97.8434 
G01 X61.5039 Y97.5673 
G01 X61.8647 Y97.4178 
G01 X62.2553 Y97.4178 
G01 X62.6161 Y97.5673 
G01 X62.8923 Y97.8435 
G01 X62.9502 Y97.9833 
G01 X62.9739 Y98.0404 
G01 X62.9895 Y98.0781 
G01 X63.0319 Y98.1333 
G01 X63.0520 Y98.1595 
G01 X63.0752 Y98.1773 
G01 X63.1334 Y98.2220 
G01 X63.2282 Y98.2613 
G01 X63.3021 Y98.2710 
G01 X63.3300 Y98.2747 
G01 X63.3557 Y98.2713 
G01 X63.4318 Y98.2613 
G01 X63.5266 Y98.2220 
G01 X63.5818 Y98.1796 
G01 X63.6080 Y98.1595 
G01 X63.6258 Y98.1363 
G01 X63.6705 Y98.0781 
G01 X63.7677 Y97.8435 
G01 X63.7943 Y97.8168 
G01 X63.8291 Y97.7566 
G01 X63.8456 Y97.7279 
G01 X63.8700 Y97.6370 
G01 X63.8722 Y97.6288 
G01 X63.8722 Y97.5780 
G01 X63.8722 Y97.5262 
G01 X63.8722 Y96.9316 
G01 X63.8456 Y96.8325 
G01 X63.7943 Y96.7436 
G01 X63.7217 Y96.6710 
G01 X63.1064 Y96.0557 
G01 X63.0175 Y96.0044 
G01 X62.9184 Y95.9778 
G01 X43.1712 Y95.9778 
G01 X43.0721 Y96.0044 
G01 X42.9832 Y96.0557 
G01 X42.9565 Y96.0823 
G01 X42.7219 Y96.1795 
G01 X42.6405 Y96.2420 
G01 X42.6268 Y96.2598 
G01 X42.5780 Y96.3234 
G01 X42.5613 Y96.3638 
G01 X42.5387 Y96.4182 
G01 X42.5273 Y96.5055 
G01 X42.5253 Y96.5200 
G01 X42.5376 Y96.6132 
G01 X42.5387 Y96.6218 
G01 X42.5780 Y96.7166 
G01 X42.6405 Y96.7980 
G01 X42.6583 Y96.8117 
G01 X42.7219 Y96.8605 
G01 X42.7810 Y96.8850 
G01 X42.9565 Y96.9577 
G01 X43.2327 Y97.2339 
G01 X43.3822 Y97.5947 
G01 X43.3822 Y97.9853 
G01 X43.2327 Y98.3461 
G01 X42.9565 Y98.6223 
G01 X42.5957 Y98.7718 
G01 X40.8843 Y98.7718 
G01 X40.5235 Y98.6223 
G01 X40.4968 Y98.5957 
G01 X40.4079 Y98.5444 
G01 X40.3088 Y98.5178 
G01 X38.3416 Y98.5178 
G01 X38.2425 Y98.5444 
G01 X38.1536 Y98.5957 
G01 X38.0810 Y98.6683 
G01 X35.3886 Y101.3607 
G01 X35.3373 Y101.4495 
G01 X35.3107 Y101.5487 
G01 X35.3107 Y101.6513 
G01 X35.3373 Y101.7505 
G01 X35.3886 Y101.8393 
G01 X35.4612 Y101.9119 
G01 X36.8760 Y103.3268 
G01 X36.9649 Y103.3781 
G01 X37.0641 Y103.4047 
G01 X37.1667 Y103.4047 
G01 X37.2659 Y103.3781 
G01 X37.3547 Y103.3268 
G01 X37.4273 Y103.2542 
G01 X37.5233 Y103.1582 
G01 X38.3367 Y103.1582 
G01 X38.9118 Y103.7333 
G01 X38.9118 Y104.5467 
G01 X38.3367 Y105.1218 
G01 X37.5233 Y105.1218 
G01 X37.3472 Y104.9457 
G01 X37.2583 Y104.8944 
G01 X37.1592 Y104.8678 
G01 X36.5152 Y104.8678 
G01 X36.2477 Y104.7570 
G01 X36.0382 Y104.5475 
G01 X36.0226 Y104.5271 
G01 X36.0021 Y104.5114 
G01 X35.9839 Y104.4932 
G01 X35.9616 Y104.4803 
G01 X35.9411 Y104.4646 
G01 X35.9173 Y104.4547 
G01 X35.8950 Y104.4418 
G01 X35.8701 Y104.4352 
G01 X35.8463 Y104.4253 
G01 X35.8208 Y104.4220 
G01 X35.7959 Y104.4153 
G01 X35.7701 Y104.4153 
G01 X35.7446 Y104.4119 
G01 X35.7190 Y104.4153 
G01 X35.6932 Y104.4153 
G01 X35.6683 Y104.4219 
G01 X35.6428 Y104.4253 
G01 X35.6190 Y104.4352 
G01 X35.5941 Y104.4418 
G01 X35.5718 Y104.4547 
G01 X35.5480 Y104.4646 
G01 X35.5275 Y104.4803 
G01 X35.5052 Y104.4932 
G01 X35.4870 Y104.5114 
G01 X35.4665 Y104.5271 
G01 X35.4509 Y104.5475 
G01 X35.4326 Y104.5657 
G01 X35.4198 Y104.5880 
G01 X35.4041 Y104.6085 
G01 X35.3942 Y104.6323 
G01 X35.3813 Y104.6546 
G01 X35.3747 Y104.6795 
G01 X35.2257 Y105.0392 
G01 X34.9232 Y105.3417 
G01 X34.5279 Y105.5054 
G01 X32.5921 Y105.5054 
G01 X32.1968 Y105.3417 
G01 X32.0908 Y105.2357 
G01 X32.0019 Y105.1844 
G01 X31.9028 Y105.1578 
G01 X28.7172 Y105.1578 
G01 X28.6180 Y105.1844 
G01 X28.5292 Y105.2357 
G01 X28.4566 Y105.3083 
G01 X28.4232 Y105.3417 
G01 X28.0279 Y105.5054 
G01 X26.0921 Y105.5054 
G01 X25.6968 Y105.3417 
G01 X25.3943 Y105.0392 
G01 X25.2306 Y104.6439 
G01 X25.2306 Y104.2161 
G01 X25.3943 Y103.8208 
G01 X25.6968 Y103.5183 
G01 X26.0921 Y103.3546 
G01 X28.0279 Y103.3546 
G01 X28.4232 Y103.5183 
G01 X28.5292 Y103.6243 
G01 X28.6180 Y103.6756 
G01 X28.7172 Y103.7022 
G01 X31.9028 Y103.7022 
G01 X32.0019 Y103.6756 
G01 X32.0908 Y103.6243 
G01 X32.1634 Y103.5517 
G01 X32.1968 Y103.5183 
G01 X32.5921 Y103.3546 
G01 X32.7837 Y103.3546 
G01 X32.8829 Y103.3280 
G01 X32.9717 Y103.2767 
G01 X33.0443 Y103.2041 
G01 X33.0956 Y103.1153 
G01 X33.1222 Y103.0161 
G01 X33.1222 Y102.6663 
G01 X33.0956 Y102.5671 
G01 X33.0443 Y102.4783 
G01 X32.9717 Y102.4057 
G01 X32.8829 Y102.3544 
G01 X32.7837 Y102.3278 
G01 X27.6252 Y102.3278 
G01 X27.3577 Y102.2170 
G01 X27.1530 Y102.0123 
G01 X27.0422 Y101.7448 
G01 X27.0422 Y84.3342 
G01 X27.0422 Y84.2316 
G01 X27.0156 Y84.1325 
G01 X26.9643 Y84.0436 
G01 X26.5050 Y83.5843 
G01 X26.4161 Y83.5330 
G01 X26.3170 Y83.5064 
G01 X26.3098 Y83.5064 
G01 X25.9582 Y83.3608 
G01 X25.6892 Y83.0918 
G01 X25.5436 Y82.7402 
G01 X25.5436 Y82.3598 
G01 X25.6892 Y82.0082 
G01 X25.9582 Y81.7392 
G01 X26.3098 Y81.5936 
G01 X26.6902 Y81.5936 
G01 X27.0418 Y81.7392 
G01 X27.3108 Y82.0082 
G01 X27.4564 Y82.3598 
G01 X27.4564 Y82.3670 
G01 X27.4830 Y82.4661 
G01 X27.5343 Y82.5550 
G01 X27.6069 Y82.6276 
G01 X28.1637 Y83.1845 
G01 X28.3870 Y83.4077 
G01 X28.4978 Y83.6752 
G01 X28.4978 Y100.5337 
G01 X28.5244 Y100.6329 
G01 X28.5757 Y100.7217 
G01 X28.6483 Y100.7943 
G01 X28.7371 Y100.8456 
G01 X28.8363 Y100.8722 
G01 X33.3492 Y100.8722 
G01 X33.4483 Y100.8456 
G01 X33.5372 Y100.7943 
G01 X33.6098 Y100.7217 
G01 X33.7133 Y100.6182 
G01 X33.9624 Y100.6182 
G01 X34.0615 Y100.5916 
G01 X34.1504 Y100.5403 
G01 X34.1682 Y100.5226 
G01 X35.2172 Y99.4735 
G01 X35.2720 Y99.4187 
G01 X35.2898 Y99.4009 
G01 X35.3411 Y99.3121 
G01 X35.3674 Y99.2140 
G01 X35.3677 Y99.1103 
G01 X35.3422 Y99.0154 
G01 X35.3411 Y99.0111 
G01 X35.2898 Y98.9223 
G01 X35.2172 Y98.8497 
G01 X35.1283 Y98.7984 
G01 X35.0303 Y98.7721 
G01 X33.2643 Y98.7718 
G01 X32.9035 Y98.6223 
G01 X32.8768 Y98.5957 
G01 X32.7879 Y98.5444 
G01 X32.6888 Y98.5178 
G01 X31.0808 Y98.5178 
G01 X30.9817 Y98.5444 
G01 X30.8928 Y98.5957 
G01 X30.8202 Y98.6683 
G01 X30.7167 Y98.7718 
G01 X29.9033 Y98.7718 
G01 X29.3282 Y98.1967 
G01 X29.3282 Y97.3833 
G01 X29.9522 Y96.7593 
G01 X30.0035 Y96.6705 
G01 X30.0301 Y96.5713 
G01 X30.0301 Y96.4687 
G01 X30.0035 Y96.3695 
G01 X29.9522 Y96.2807 
G01 X29.8796 Y96.2081 
G01 X29.3282 Y95.6567 
G01 X29.3282 Y94.8433 
G01 X29.9522 Y94.2193 
G01 X30.0035 Y94.1305 
G01 X30.0301 Y94.0313 
G01 X30.0301 Y93.9287 
G01 X30.0035 Y93.8295 
G01 X29.9522 Y93.7407 
G01 X29.8796 Y93.6681 
G01 X29.3282 Y93.1167 
G01 X29.3282 Y92.3033 
G01 X29.9522 Y91.6793 
G01 X30.0035 Y91.5905 
G01 X30.0301 Y91.4913 
G01 X30.0301 Y91.3887 
G01 X30.0035 Y91.2895 
G01 X29.9522 Y91.2007 
G01 X29.8796 Y91.1281 
G01 X29.3282 Y90.5767 
G01 X29.3282 Y89.7633 
G01 X29.9522 Y89.1393 
G01 X30.0035 Y89.0505 
G01 X30.0301 Y88.9513 
G01 X30.0301 Y88.8487 
G01 X30.0035 Y88.7495 
G01 X29.9522 Y88.6607 
G01 X29.8796 Y88.5881 
G01 X29.3282 Y88.0367 
G01 X29.3282 Y87.2233 
G01 X29.9522 Y86.5993 
G01 X30.0035 Y86.5105 
G01 X30.0301 Y86.4113 
G01 X30.0301 Y86.3087 
G01 X30.0035 Y86.2095 
G01 X29.9522 Y86.1207 
G01 X29.8796 Y86.0481 
G01 X29.3282 Y85.4967 
G01 X29.3282 Y84.6833 
G01 X29.9033 Y84.1082 
G01 X30.7167 Y84.1082 
G01 X30.8928 Y84.2843 
G01 X30.9817 Y84.3356 
G01 X31.0808 Y84.3622 
G01 X32.6888 Y84.3622 
G01 X32.7879 Y84.3356 
G01 X32.8768 Y84.2843 
G01 X32.9035 Y84.2577 
G01 X33.2643 Y84.1082 
G01 X34.9757 Y84.1082 
G01 X35.3365 Y84.2577 
G01 X35.6127 Y84.5339 
G01 X35.7622 Y84.8947 
G01 X35.7622 Y85.2853 
G01 X35.6127 Y85.6461 
G01 X35.3365 Y85.9223 
G01 X35.1577 Y85.9964 
G01 X35.1019 Y86.0195 
G01 X35.0406 Y86.0666 
G01 X35.0205 Y86.0820 
G01 X34.9580 Y86.1634 
G01 X34.9195 Y86.2563 
G01 X34.9053 Y86.3600 
G01 X34.9070 Y86.3723 
G01 X34.9187 Y86.4617 
G01 X34.9422 Y86.5184 
G01 X34.9580 Y86.5566 
G01 X35.0051 Y86.6179 
G01 X35.0205 Y86.6380 
G01 X35.1019 Y86.7005 
G01 X35.3365 Y86.7977 
G01 X35.6127 Y87.0739 
G01 X35.7622 Y87.4347 
G01 X35.7622 Y87.8253 
G01 X35.6127 Y88.1861 
G01 X35.3365 Y88.4623 
G01 X35.1577 Y88.5364 
G01 X35.1019 Y88.5595 
G01 X35.0406 Y88.6066 
G01 X35.0205 Y88.6220 
G01 X34.9580 Y88.7034 
G01 X34.9195 Y88.7963 
G01 X34.9053 Y88.9000 
G01 X34.9070 Y88.9123 
G01 X34.9187 Y89.0018 
G01 X34.9422 Y89.0584 
G01 X34.9580 Y89.0966 
G01 X35.0051 Y89.1579 
G01 X35.0205 Y89.1780 
G01 X35.1019 Y89.2405 
G01 X35.3365 Y89.3377 
G01 X35.6127 Y89.6139 
G01 X35.7622 Y89.9747 
G01 X35.7622 Y90.3653 
G01 X35.6127 Y90.7261 
G01 X35.3365 Y91.0023 
G01 X35.1577 Y91.0764 
G01 X35.1019 Y91.0995 
G01 X35.0406 Y91.1466 
G01 X35.0205 Y91.1620 
G01 X34.9580 Y91.2434 
G01 X34.9195 Y91.3363 
G01 X34.9053 Y91.4400 
G01 X34.9070 Y91.4523 
G01 X34.9187 Y91.5417 
G01 X34.9422 Y91.5984 
G01 X34.9580 Y91.6366 
G01 X35.0051 Y91.6979 
G01 X35.0205 Y91.7180 
G01 X35.1019 Y91.7805 
G01 X35.3365 Y91.8777 
G01 X35.6127 Y92.1539 
G01 X35.7622 Y92.5147 
G01 X35.7622 Y92.9053 
G01 X35.6127 Y93.2661 
G01 X35.3365 Y93.5423 
G01 X35.1577 Y93.6164 
G01 X35.1019 Y93.6395 
G01 X35.0406 Y93.6866 
G01 X35.0205 Y93.7020 
G01 X34.9580 Y93.7834 
G01 X34.9195 Y93.8763 
G01 X34.9053 Y93.9800 
G01 X34.9070 Y93.9923 
G01 X34.9187 Y94.0817 
G01 X34.9422 Y94.1384 
G01 X34.9580 Y94.1766 
G01 X35.0051 Y94.2379 
G01 X35.0205 Y94.2580 
G01 X35.1019 Y94.3205 
G01 X35.3365 Y94.4177 
G01 X35.6127 Y94.6939 
G01 X35.7622 Y95.0547 
G01 X35.7622 Y95.4453 
G01 X35.6127 Y95.8061 
G01 X35.3365 Y96.0823 
G01 X35.1577 Y96.1564 
G01 X35.1019 Y96.1795 
G01 X35.0406 Y96.2266 
G01 X35.0205 Y96.2420 
G01 X34.9580 Y96.3234 
G01 X34.9195 Y96.4163 
G01 X34.9053 Y96.5200 
G01 X34.9070 Y96.5323 
G01 X34.9187 Y96.6218 
G01 X34.9422 Y96.6784 
G01 X34.9580 Y96.7166 
G01 X35.0051 Y96.7779 
G01 X35.0205 Y96.7980 
G01 X35.1019 Y96.8605 
G01 X35.3365 Y96.9577 
G01 X35.6127 Y97.2339 
G01 X35.7622 Y97.5947 
G01 X35.7622 Y98.0388 
G01 X35.7888 Y98.1379 
G01 X35.8401 Y98.2268 
G01 X35.9127 Y98.2994 
G01 X36.0015 Y98.3507 
G01 X36.1007 Y98.3773 
G01 X36.2033 Y98.3773 
G01 X36.3025 Y98.3507 
G01 X36.3913 Y98.2994 
G01 X36.4639 Y98.2268 
G01 X37.5177 Y97.1730 
G01 X37.7852 Y97.0622 
G01 X40.3088 Y97.0622 
G01 X40.4079 Y97.0356 
G01 X40.4968 Y96.9843 
G01 X40.5234 Y96.9577 
G01 X40.7023 Y96.8836 
G01 X40.7581 Y96.8605 
G01 X40.8194 Y96.8134 
G01 X40.8395 Y96.7980 
G01 X40.9020 Y96.7166 
G01 X40.9405 Y96.6237 
G01 X40.9547 Y96.5200 
G01 X40.9530 Y96.5077 
G01 X40.9413 Y96.4182 
G01 X40.9178 Y96.3616 
G01 X40.9020 Y96.3234 
G01 X40.8549 Y96.2621 
G01 X40.8395 Y96.2420 
G01 X40.7581 Y96.1795 
G01 X40.5234 Y96.0823 
G01 X40.2473 Y95.8061 
G01 X40.0978 Y95.4453 
G01 X40.0978 Y95.0547 
G01 X40.2473 Y94.6939 
G01 X40.5234 Y94.4177 
G01 X40.7581 Y94.3205 
G01 X40.8395 Y94.2580 
G01 X40.8532 Y94.2402 
G01 X40.9020 Y94.1766 
G01 X40.9187 Y94.1362 
G01 X40.9413 Y94.0817 
G01 X40.9527 Y93.9945 
G01 X40.9547 Y93.9800 
G01 X40.9424 Y93.8868 
G01 X40.9413 Y93.8782 
G01 X40.9020 Y93.7834 
G01 X40.8395 Y93.7020 
G01 X40.8217 Y93.6883 
G01 X40.7581 Y93.6395 
G01 X40.6990 Y93.6150 
G01 X40.5234 Y93.5423 
G01 X40.2473 Y93.2661 
G01 X40.0978 Y92.9053 
G01 X40.0978 Y92.5147 
G01 X40.2473 Y92.1539 
G01 X40.5234 Y91.8777 
G01 X40.7581 Y91.7805 
G01 X40.8133 Y91.7381 
G01 X40.8395 Y91.7180 
G01 X40.8573 Y91.6948 
G01 X40.9020 Y91.6366 
G01 X40.9413 Y91.5418 
G01 X40.9510 Y91.4679 
G01 X40.9547 Y91.4400 
G01 X40.9513 Y91.4143 
G01 X40.9413 Y91.3382 
G01 X40.9020 Y91.2434 
G01 X40.8596 Y91.1882 
G01 X40.8395 Y91.1620 
G01 X40.8163 Y91.1442 
G01 X40.7581 Y91.0995 
G01 X40.7253 Y91.0859 
G01 X40.6633 Y91.0602 
G01 X40.5234 Y91.0023 
G01 X40.2473 Y90.7261 
G01 X40.0978 Y90.3653 
G01 X40.0978 Y89.9747 
G01 X40.2473 Y89.6139 
G01 X40.5234 Y89.3377 
G01 X40.7581 Y89.2405 
G01 X40.8133 Y89.1981 
G01 X40.8395 Y89.1780 
G01 X40.8573 Y89.1548 
G01 X40.9020 Y89.0966 
G01 X40.9413 Y89.0018 
G01 X40.9510 Y88.9279 
G01 X40.9547 Y88.9000 
G01 X40.9513 Y88.8743 
G01 X40.9413 Y88.7982 
G01 X40.9020 Y88.7034 
G01 X40.8596 Y88.6482 
G01 X40.8395 Y88.6220 
G01 X40.8163 Y88.6042 
G01 X40.7581 Y88.5595 
G01 X40.7253 Y88.5459 
G01 X40.6633 Y88.5202 
G01 X40.5234 Y88.4623 
G01 X40.2473 Y88.1861 
G01 X40.0978 Y87.8253 
G01 X40.0978 Y87.4347 
G01 X40.2473 Y87.0739 
G01 X40.5234 Y86.7977 
G01 X40.7581 Y86.7005 
G01 X40.8133 Y86.6581 
G01 X40.8395 Y86.6380 
G01 X40.8573 Y86.6148 
G01 X40.9020 Y86.5566 
G01 X40.9413 Y86.4618 
G01 X40.9510 Y86.3879 
G01 X40.9547 Y86.3600 
G01 X40.9513 Y86.3343 
G01 X40.9413 Y86.2582 
G01 X40.9020 Y86.1634 
G01 X40.8596 Y86.1082 
G01 X40.8395 Y86.0820 
G01 X40.8163 Y86.0642 
G01 X40.7581 Y86.0195 
G01 X40.7253 Y86.0059 
G01 X40.6633 Y85.9802 
G01 X40.5234 Y85.9223 
G01 X40.2473 Y85.6461 
G01 X40.0978 Y85.2853 
G01 X40.0978 Y84.8947 
G01 X40.2473 Y84.5339 
G01 X40.5194 Y84.2617 
G01 X40.5280 Y84.2594 
G01 X40.5503 Y84.2465 
G01 X40.5741 Y84.2367 
G01 X40.5946 Y84.2210 
G01 X40.6169 Y84.2081 
G01 X40.6351 Y84.1899 
G01 X40.6555 Y84.1742 
G01 X40.6712 Y84.1538 
G01 X40.6895 Y84.1355 
G01 X40.7023 Y84.1132 
G01 X40.7180 Y84.0928 
G01 X40.7279 Y84.0690 
G01 X40.7408 Y84.0467 
G01 X40.7474 Y84.0218 
G01 X40.7573 Y83.9980 
G01 X40.7607 Y83.9724 
G01 X40.7673 Y83.9475 
G01 X40.7673 Y83.9217 
G01 X40.7707 Y83.8962 
G01 X40.7673 Y83.8707 
G01 X40.7673 Y83.8449 
G01 X40.7607 Y83.8200 
G01 X40.7573 Y83.7945 
G01 X40.7474 Y83.7706 
G01 X40.7408 Y83.7457 
G01 X40.7279 Y83.7234 
G01 X40.7180 Y83.6996 
G01 X40.7023 Y83.6792 
G01 X40.6895 Y83.6569 
G01 X40.6712 Y83.6386 
G01 X40.6556 Y83.6182 
G01 X40.6351 Y83.6025 
G01 X40.6169 Y83.5843 
G01 X40.5946 Y83.5714 
G01 X40.5741 Y83.5557 
G01 X40.5503 Y83.5459 
G01 X40.5280 Y83.5330 
G01 X40.5031 Y83.5263 
G01 X40.4793 Y83.5164 
G01 X40.4538 Y83.5131 
G01 X40.4289 Y83.5064 
G01 X40.4031 Y83.5064 
G01 X40.3776 Y83.5030 
G01 X40.3520 Y83.5064 
G01 X39.0098 Y83.5064 
G01 X38.6582 Y83.3608 
G01 X38.3892 Y83.0918 
G01 X38.2436 Y82.7402 
G01 X38.2436 Y82.3598 
G01 X38.3892 Y82.0082 
G01 X38.6582 Y81.7392 
G01 X39.0098 Y81.5936 
G01 X40.7199 Y81.5936 
G01 X40.7455 Y81.5970 
G01 X40.7710 Y81.5936 
G01 X40.7968 Y81.5936 
G01 X40.8217 Y81.5869 
G01 X40.8472 Y81.5836 
G01 X40.8710 Y81.5737 
G01 X40.8916 Y81.5682 
G01 X42.5884 Y81.5682 
G01 X42.6090 Y81.5737 
G01 X42.6328 Y81.5836 
G01 X42.6583 Y81.5869 
G01 X42.6832 Y81.5936 
G01 X42.7090 Y81.5936 
G01 X42.7345 Y81.5970 
G01 X42.7601 Y81.5936 
G01 X54.4151 Y81.5936 
G01 X54.5143 Y81.5670 
G01 X54.6031 Y81.5157 
G01 X54.6757 Y81.4431 
G01 X54.7270 Y81.3543 
G01 X54.7536 Y81.2551 
G01 X54.7536 Y79.2822 
G01 X54.7282 Y79.1874 
G01 X54.7282 Y78.3333 
G01 X55.3321 Y77.7294 
G01 X55.4171 Y77.6803 
G01 X55.4897 Y77.6077 
G01 X55.9457 Y77.1517 
G01 X55.9970 Y77.0628 
G01 X56.0236 Y76.9637 
G01 X56.0236 Y53.1498 
G01 X56.1692 Y52.7982 
G01 X56.4382 Y52.5292 
G01 X56.7898 Y52.3836 
G01 X63.9552 Y52.3836 
G01 X64.0059 Y52.3836 
G01 X64.0578 Y52.3836 
G01 X64.1006 Y52.3721 
G01 X64.1526 Y52.3582 
G01 X65.0474 Y52.3582 
G01 X65.0982 Y52.3718 
G01 X65.1422 Y52.3836 
G01 X65.1929 Y52.3836 
G01 X65.2448 Y52.3836 
G01 X70.4437 Y52.3836 
G01 X70.5428 Y52.3570 
G01 X70.6317 Y52.3057 
G01 X70.7043 Y52.2331 
G01 X70.9317 Y52.0057 
G01 X70.9830 Y51.9168 
G01 X71.0096 Y51.8177 
G01 X71.0096 Y49.8897 
G01 X71.0130 Y49.8641 
G01 X71.0096 Y49.8386 
G01 X71.0096 Y49.8128 
G01 X71.0029 Y49.7879 
G01 X70.9996 Y49.7624 
G01 X70.9897 Y49.7386 
G01 X70.9842 Y49.7180 
G01 X70.9842 Y49.3347 
G01 X71.1320 Y48.9780 
G01 X71.1390 Y48.9729 
G01 X71.1597 Y48.9478 
G01 X71.1826 Y48.9249 
G01 X71.1922 Y48.9084 
G01 X71.2043 Y48.8937 
G01 X71.2177 Y48.8641 
G01 X71.2340 Y48.8360 
G01 X71.2389 Y48.8176 
G01 X71.2468 Y48.8002 
G01 X71.2521 Y48.7682 
G01 X71.2605 Y48.7369 
G01 X71.2605 Y48.7178 
G01 X71.3822 Y47.9878 
G01 X71.3906 Y47.9564 
G01 X71.3906 Y47.9374 
G01 X71.3937 Y47.9186 
G01 X71.3906 Y47.8862 
G01 X71.3906 Y44.9389 
G01 X71.3640 Y44.8397 
G01 X71.3127 Y44.7508 
G01 X71.2401 Y44.6783 
G01 X71.2369 Y44.6751 
G01 X71.0604 Y44.2489 
G01 X71.0604 Y42.1111 
G01 X71.2369 Y41.6849 
G00 Z5.0000 
G00 X71.5029 Y41.7533 
G01 Z-0.1400 F254.00 
G01 X71.4019 Y41.9045 F1000.00 
G01 X71.3323 Y42.0725 
G01 X71.2968 Y42.2509 
G01 X71.2968 Y44.1091 
G01 X71.3323 Y44.2875 
G01 X71.4019 Y44.4555 
G01 X71.5029 Y44.6067 
G01 X71.6270 Y44.7308 
G01 X71.6270 Y47.9569 
G01 X71.4554 Y48.9864 
G01 X71.3870 Y49.0548 
G01 X71.3054 Y49.1769 
G01 X71.2492 Y49.3126 
G01 X71.2206 Y49.4566 
G01 X71.2206 Y49.6034 
G01 X71.2460 Y49.7311 
G01 X71.2460 Y52.0258 
G01 X70.6518 Y52.6200 
G01 X64.9342 Y52.6200 
G01 X64.9088 Y52.5946 
G01 X64.2912 Y52.5946 
G01 X64.2658 Y52.6200 
G01 X56.9091 Y52.6200 
G01 X56.7700 Y52.6477 
G01 X56.6390 Y52.7019 
G01 X56.5210 Y52.7807 
G01 X56.4207 Y52.8810 
G01 X56.3419 Y52.9990 
G01 X56.2877 Y53.1300 
G01 X56.2600 Y53.2691 
G01 X56.2600 Y77.1718 
G01 X55.4372 Y77.9946 
G01 X55.4012 Y77.9946 
G01 X54.9646 Y78.4312 
G01 X54.9646 Y79.0488 
G01 X54.9900 Y79.0742 
G01 X54.9900 Y81.8300 
G01 X42.6015 Y81.8300 
G01 X42.4738 Y81.8046 
G01 X41.0062 Y81.8046 
G01 X40.8785 Y81.8300 
G01 X39.1291 Y81.8300 
G01 X38.9900 Y81.8577 
G01 X38.8590 Y81.9119 
G01 X38.7410 Y81.9907 
G01 X38.6407 Y82.0910 
G01 X38.5619 Y82.2090 
G01 X38.5077 Y82.3400 
G01 X38.4800 Y82.4791 
G01 X38.4800 Y82.6209 
G01 X38.5077 Y82.7600 
G01 X38.5619 Y82.8910 
G01 X38.6407 Y83.0090 
G01 X38.7410 Y83.1093 
G01 X38.8590 Y83.1881 
G01 X38.9900 Y83.2423 
G01 X39.1291 Y83.2700 
G01 X40.8785 Y83.2700 
G01 X41.0062 Y83.2954 
G01 X42.4738 Y83.2954 
G01 X42.6015 Y83.2700 
G01 X44.8300 Y83.2700 
G01 X44.8300 Y84.7558 
G01 X44.8046 Y84.7812 
G01 X44.8046 Y85.3988 
G01 X45.2412 Y85.8354 
G01 X45.8588 Y85.8354 
G01 X46.2954 Y85.3988 
G01 X46.2954 Y84.7812 
G01 X46.2700 Y84.7558 
G01 X46.2700 Y83.2700 
G01 X60.8609 Y83.2700 
G01 X61.0000 Y83.2423 
G01 X61.1310 Y83.1881 
G01 X61.2490 Y83.1093 
G01 X61.3493 Y83.0090 
G01 X61.4281 Y82.8910 
G01 X61.4823 Y82.7600 
G01 X61.5100 Y82.6209 
G01 X61.5100 Y82.4791 
G01 X61.4823 Y82.3400 
G01 X61.4281 Y82.2090 
G01 X61.3493 Y82.0910 
G01 X61.2490 Y81.9907 
G01 X61.1310 Y81.9119 
G01 X61.0000 Y81.8577 
G01 X60.8609 Y81.8300 
G01 X56.4300 Y81.8300 
G01 X56.4300 Y79.0742 
G01 X56.4554 Y79.0488 
G01 X56.4554 Y79.0128 
G01 X57.5393 Y77.9290 
G01 X57.6181 Y77.8110 
G01 X57.6723 Y77.6800 
G01 X57.7000 Y77.5409 
G01 X57.7000 Y54.0600 
G01 X64.2658 Y54.0600 
G01 X64.2912 Y54.0854 
G01 X64.9088 Y54.0854 
G01 X64.9342 Y54.0600 
G01 X71.0209 Y54.0600 
G01 X71.1600 Y54.0323 
G01 X71.2910 Y53.9781 
G01 X71.4090 Y53.8993 
G01 X71.5093 Y53.7990 
G01 X72.5253 Y52.7830 
G01 X72.6041 Y52.6650 
G01 X72.6583 Y52.5340 
G01 X72.6860 Y52.3949 
G01 X72.6860 Y49.7311 
G01 X72.7114 Y49.6034 
G01 X72.7114 Y49.4566 
G01 X72.6828 Y49.3126 
G01 X72.6266 Y49.1769 
G01 X72.8034 Y48.1126 
G01 X72.8130 Y48.0644 
G01 X72.8130 Y48.0551 
G01 X72.8145 Y48.0459 
G01 X72.8130 Y47.9967 
G01 X72.8130 Y44.7308 
G01 X72.9371 Y44.6067 
G01 X73.0381 Y44.4555 
G01 X73.1077 Y44.2875 
G01 X73.1432 Y44.1091 
G01 X73.1432 Y43.7730 
G01 X76.8388 Y43.7730 
G01 X76.9912 Y43.9254 
G01 X77.6088 Y43.9254 
G01 X78.0454 Y43.4888 
G01 X78.0454 Y42.8712 
G01 X77.6088 Y42.4346 
G01 X76.9912 Y42.4346 
G01 X76.8388 Y42.5870 
G01 X73.1432 Y42.5870 
G01 X73.1432 Y42.2509 
G01 X73.1077 Y42.0725 
G01 X73.0381 Y41.9045 
G01 X72.9371 Y41.7533 
G01 X72.8085 Y41.6247 
G01 X72.6573 Y41.5237 
G01 X72.4893 Y41.4541 
G01 X72.3109 Y41.4186 
G01 X72.1291 Y41.4186 
G01 X71.9507 Y41.4541 
G01 X71.7827 Y41.5237 
G01 X71.6315 Y41.6247 
G01 X71.5029 Y41.7533 
G00 Z5.0000 
G00 X79.0946 Y42.8712 
G01 Z-0.1400 F254.00 
G01 X79.0946 Y43.4888 F1000.00 
G01 X79.5312 Y43.9254 
G01 X80.1488 Y43.9254 
G01 X80.5854 Y43.4888 
G01 X80.5854 Y42.8712 
G01 X80.4330 Y42.7188 
G01 X80.4330 Y39.8312 
G01 X80.5854 Y39.6788 
