(.../pcb-gcode-3.6.2.4/pcb-gcode.ulp)
(Copyright 2005 - 2012 by John Johnson)
(See readme.txt for licensing terms.)
(This file generated from the board:)
(.../my projects/My Controllers/pc.brd)
(Current profile is .../pcb-gcode-3.6.2.4/profiles/emc.pp  )
(This file generated 06.01.2017 19:21:26)
(Settings from pcb-machine.h)
(spindle on time = 3.0000)
(spindle speed = 15000.0000)
(milling depth = -1.4500)
(tool change at 0.0000 0.0000 40.0000 )
(feed rate xy = F600.00 )
(feed rate z  = F127.00 )
(Z Axis Settings)
(  High     Up        Down     Drill)
(15.0000 	5.0000 	-0.1400 	-1.5000 )
(Settings from pcb-defaults.h)
(isolate min = 0.0100)
(isolate max = 1.2700)
(isolate step = 0.1270)
(Generated top outlines, top drill, bottom outlines, bottom drill, )
(Unit of measure: mm)
(Metric Mode)
G21
(Absolute Coordinates)
G90
S15000
G00 Z15.0000 
G00 X0.0000 Y0.0000 
M03
G04 P3.000000
G00 Z5.0000 
G01 Z-1.4500 F127.00 
G01 X-29.0000 Y0.0000 F600.00 
G01 X-29.0000 Y23.0000 
G01 X-47.0000 Y23.0000 
G01 X-47.0000 Y0.0000 
G01 X-90.0000 Y0.0000 
G01 X-90.0000 Y112.0000 
G01 X0.0000 Y112.0000 
G01 X0.0000 Y0.0000 
G00 Z15.0000 
M05
M02
