(.../pcb-gcode-3.6.2.4/pcb-gcode.ulp)
(Copyright 2005 - 2012 by John Johnson)
(See readme.txt for licensing terms.)
(This file generated from the board:)
(.../my projects/My Controllers/pc.brd)
(Current profile is .../pcb-gcode-3.6.2.4/profiles/emc.pp  )
(This file generated 06.01.2017 19:20:52)
(Settings from pcb-machine.h)
(spindle on time = 3.0000)
(  Tool Size)
(0.1500 )
(spindle speed = 20000.0000)
(tool change at 0.0000 0.0000 40.0000 )
(feed rate xy = F1000.00 )
(feed rate z  = F254.00 )
(Z Axis Settings)
(  High     Up        Down     Drill)
(15.0000 	5.0000 	-0.1400 	-1.5000 )
(Settings from pcb-defaults.h)
(isolate min = 0.0100)
(isolate max = 1.2700)
(isolate step = 0.1270)
(Generated top outlines, top drill, bottom outlines, bottom drill, )
(Unit of measure: mm)
(Metric Mode)
G21
(Absolute Coordinates)
G90
S20000
G00 Z15.0000 
G00 X0.0000 Y0.0000 
M03
G04 P3.000000
G00 Z5.0000 
G00 X-3.2748 Y3.0695 
G01 Z-0.1400 F254.00 
G01 X-3.5018 Y2.8885 F1000.00 
G01 X-3.7476 Y2.7340 
G01 X-4.0092 Y2.6080 
G01 X-4.2832 Y2.5121 
G01 X-4.5663 Y2.4475 
G01 X-4.8548 Y2.4150 
G01 X-5.1452 Y2.4150 
G01 X-5.4337 Y2.4475 
G01 X-5.7167 Y2.5121 
G01 X-5.9908 Y2.6080 
G01 X-6.2524 Y2.7340 
G01 X-6.4982 Y2.8885 
G01 X-6.7252 Y3.0695 
G01 X-6.9305 Y3.2748 
G01 X-7.1115 Y3.5018 
G01 X-7.2660 Y3.7476 
G01 X-7.3920 Y4.0092 
G01 X-7.4879 Y4.2832 
G01 X-7.5525 Y4.5663 
G01 X-7.5850 Y4.8548 
G01 X-7.5850 Y5.1452 
G01 X-7.5525 Y5.4337 
G01 X-7.4879 Y5.7167 
G01 X-7.3920 Y5.9908 
G01 X-7.2660 Y6.2524 
G01 X-7.1115 Y6.4982 
G01 X-6.9305 Y6.7252 
G01 X-6.7252 Y6.9305 
G01 X-6.4982 Y7.1115 
G01 X-6.2524 Y7.2660 
G01 X-5.9908 Y7.3920 
G01 X-5.7167 Y7.4879 
G01 X-5.4337 Y7.5525 
G01 X-5.1452 Y7.5850 
G01 X-4.8548 Y7.5850 
G01 X-4.5663 Y7.5525 
G01 X-4.2832 Y7.4879 
G01 X-4.0092 Y7.3920 
G01 X-3.7476 Y7.2660 
G01 X-3.5018 Y7.1115 
G01 X-3.2748 Y6.9305 
G01 X-3.0695 Y6.7252 
G01 X-2.8885 Y6.4982 
G01 X-2.7340 Y6.2524 
G01 X-2.6080 Y5.9908 
G01 X-2.5121 Y5.7167 
G01 X-2.4475 Y5.4337 
G01 X-2.4150 Y5.1452 
G01 X-2.4150 Y4.8548 
G01 X-2.4475 Y4.5663 
G01 X-2.5121 Y4.2832 
G01 X-2.6080 Y4.0092 
G01 X-2.7340 Y3.7476 
G01 X-2.8885 Y3.5018 
G01 X-3.0695 Y3.2748 
G01 X-3.2748 Y3.0695 
G00 Z5.0000 
G00 X-22.8470 Y3.4730 
G01 Z-0.1400 F254.00 
G01 X-23.0647 Y3.3060 F1000.00 
G01 X-23.3023 Y3.1688 
G01 X-23.5558 Y3.0638 
G01 X-23.8208 Y2.9928 
G01 X-24.0928 Y2.9570 
G01 X-24.3672 Y2.9570 
G01 X-24.6392 Y2.9928 
G01 X-24.9042 Y3.0638 
G01 X-25.1577 Y3.1688 
G01 X-25.3953 Y3.3060 
G01 X-25.6130 Y3.4730 
G01 X-25.8070 Y3.6670 
G01 X-25.9740 Y3.8847 
G01 X-26.1112 Y4.1223 
G01 X-26.2162 Y4.3758 
G01 X-26.2872 Y4.6408 
G01 X-26.3230 Y4.9128 
G01 X-26.3230 Y5.1872 
G01 X-26.2872 Y5.4592 
G01 X-26.2162 Y5.7242 
G01 X-26.1112 Y5.9777 
G01 X-25.9740 Y6.2153 
G01 X-25.8070 Y6.4330 
G01 X-25.6130 Y6.6270 
G01 X-25.3953 Y6.7940 
G01 X-25.1577 Y6.9312 
G01 X-24.9042 Y7.0362 
G01 X-24.6392 Y7.1072 
G01 X-24.3672 Y7.1430 
G01 X-24.0928 Y7.1430 
G01 X-23.8208 Y7.1072 
G01 X-23.5558 Y7.0362 
G01 X-23.3023 Y6.9312 
G01 X-23.0647 Y6.7940 
G01 X-22.8470 Y6.6270 
G01 X-22.6530 Y6.4330 
G01 X-22.4860 Y6.2153 
G01 X-22.3488 Y5.9777 
G01 X-22.2438 Y5.7242 
G01 X-22.1728 Y5.4592 
G01 X-22.1370 Y5.1872 
G01 X-22.1370 Y4.9128 
G01 X-22.1728 Y4.6408 
G01 X-22.2438 Y4.3758 
G01 X-22.3488 Y4.1223 
G01 X-22.4860 Y3.8847 
G01 X-22.6530 Y3.6670 
G01 X-22.8470 Y3.4730 
G00 Z5.0000 
G00 X-50.2470 Y3.4730 
G01 Z-0.1400 F254.00 
G01 X-50.4647 Y3.3060 F1000.00 
G01 X-50.7023 Y3.1688 
G01 X-50.9558 Y3.0638 
G01 X-51.2208 Y2.9928 
G01 X-51.4928 Y2.9570 
G01 X-51.7672 Y2.9570 
G01 X-52.0392 Y2.9928 
G01 X-52.3042 Y3.0638 
G01 X-52.5577 Y3.1688 
G01 X-52.7953 Y3.3060 
G01 X-53.0130 Y3.4730 
G01 X-53.2070 Y3.6670 
G01 X-53.3740 Y3.8847 
G01 X-53.5112 Y4.1223 
G01 X-53.6162 Y4.3758 
G01 X-53.6872 Y4.6408 
G01 X-53.7230 Y4.9128 
G01 X-53.7230 Y5.1872 
G01 X-53.6872 Y5.4592 
G01 X-53.6162 Y5.7242 
G01 X-53.5112 Y5.9777 
G01 X-53.3740 Y6.2153 
G01 X-53.2070 Y6.4330 
G01 X-53.0130 Y6.6270 
G01 X-52.7953 Y6.7940 
G01 X-52.5577 Y6.9312 
G01 X-52.3042 Y7.0362 
G01 X-52.0392 Y7.1072 
G01 X-51.7672 Y7.1430 
G01 X-51.4928 Y7.1430 
G01 X-51.2208 Y7.1072 
G01 X-50.9558 Y7.0362 
G01 X-50.7023 Y6.9312 
G01 X-50.4647 Y6.7940 
G01 X-50.2470 Y6.6270 
G01 X-50.0530 Y6.4330 
G01 X-49.8860 Y6.2153 
G01 X-49.7488 Y5.9777 
G01 X-49.6438 Y5.7242 
G01 X-49.5728 Y5.4592 
G01 X-49.5370 Y5.1872 
G01 X-49.5370 Y4.9128 
G01 X-49.5728 Y4.6408 
G01 X-49.6438 Y4.3758 
G01 X-49.7488 Y4.1223 
G01 X-49.8860 Y3.8847 
G01 X-50.0530 Y3.6670 
G01 X-50.2470 Y3.4730 
G00 Z5.0000 
G00 X-57.3623 Y3.5407 
G01 Z-0.1400 F254.00 
G01 X-57.4319 Y3.3727 F1000.00 
G01 X-57.5329 Y3.2215 
G01 X-57.6615 Y3.0929 
G01 X-57.8127 Y2.9919 
G01 X-57.9807 Y2.9223 
G01 X-58.1591 Y2.8868 
G01 X-58.3409 Y2.8868 
G01 X-58.5193 Y2.9223 
G01 X-58.6873 Y2.9919 
G01 X-58.8385 Y3.0929 
G01 X-58.9671 Y3.2215 
G01 X-59.0681 Y3.3727 
G01 X-59.1377 Y3.5407 
G01 X-59.1732 Y3.7191 
G01 X-59.1732 Y3.9009 
G01 X-59.1377 Y4.0793 
G01 X-59.0681 Y4.2473 
G01 X-58.9671 Y4.3985 
G01 X-58.8385 Y4.5271 
G01 X-58.6873 Y4.6281 
G01 X-58.5193 Y4.6977 
G01 X-58.3409 Y4.7332 
G01 X-58.1591 Y4.7332 
G01 X-57.9807 Y4.6977 
G01 X-57.8127 Y4.6281 
G01 X-57.6615 Y4.5271 
G01 X-57.5329 Y4.3985 
G01 X-57.4319 Y4.2473 
G01 X-57.3623 Y4.0793 
G01 X-57.3268 Y3.9009 
G01 X-57.3268 Y3.7191 
G01 X-57.3623 Y3.5407 
G00 Z5.0000 
G00 X-62.2798 Y2.7347 
G01 Z-0.1400 F254.00 
G01 X-62.3063 Y2.5675 F1000.00 
G01 X-62.3586 Y2.4065 
G01 X-62.4355 Y2.2557 
G01 X-62.5350 Y2.1187 
G01 X-62.6547 Y1.9990 
G01 X-62.7917 Y1.8995 
G01 X-62.9425 Y1.8226 
G01 X-63.1035 Y1.7703 
G01 X-63.2707 Y1.7438 
G01 X-63.4400 Y1.7438 
G01 X-63.6073 Y1.7703 
G01 X-63.7683 Y1.8226 
G01 X-63.9191 Y1.8995 
G01 X-64.0561 Y1.9990 
G01 X-64.1758 Y2.1187 
G01 X-64.2753 Y2.2557 
G01 X-64.3522 Y2.4065 
G01 X-64.4045 Y2.5675 
G01 X-64.4310 Y2.7347 
G01 X-64.4310 Y4.8853 
G01 X-64.4045 Y5.0525 
G01 X-64.3522 Y5.2135 
G01 X-64.2753 Y5.3643 
G01 X-64.1758 Y5.5013 
G01 X-64.0561 Y5.6210 
G01 X-63.9191 Y5.7205 
G01 X-63.7683 Y5.7974 
G01 X-63.6073 Y5.8497 
G01 X-63.4400 Y5.8762 
G01 X-63.2707 Y5.8762 
G01 X-63.1035 Y5.8497 
G01 X-62.9425 Y5.7974 
G01 X-62.7917 Y5.7205 
G01 X-62.6547 Y5.6210 
G01 X-62.5350 Y5.5013 
G01 X-62.4355 Y5.3643 
G01 X-62.3586 Y5.2135 
G01 X-62.3063 Y5.0525 
G01 X-62.2798 Y4.8853 
G01 X-62.2798 Y2.7347 
G00 Z5.0000 
G00 X-67.3090 Y2.7347 
G01 Z-0.1400 F254.00 
G01 X-67.3355 Y2.5675 F1000.00 
G01 X-67.3878 Y2.4065 
G01 X-67.4647 Y2.2557 
G01 X-67.5642 Y2.1187 
G01 X-67.6839 Y1.9990 
G01 X-67.8209 Y1.8995 
G01 X-67.9717 Y1.8226 
G01 X-68.1327 Y1.7703 
G01 X-68.2999 Y1.7438 
G01 X-68.4693 Y1.7438 
G01 X-68.6365 Y1.7703 
G01 X-68.7975 Y1.8226 
G01 X-68.9483 Y1.8995 
G01 X-69.0853 Y1.9990 
G01 X-69.2050 Y2.1187 
G01 X-69.3045 Y2.2557 
G01 X-69.3814 Y2.4065 
G01 X-69.4337 Y2.5675 
G01 X-69.4602 Y2.7347 
G01 X-69.4602 Y4.8853 
G01 X-69.4337 Y5.0525 
G01 X-69.3814 Y5.2135 
G01 X-69.3045 Y5.3643 
G01 X-69.2050 Y5.5013 
G01 X-69.0853 Y5.6210 
G01 X-68.9483 Y5.7205 
G01 X-68.7975 Y5.7974 
G01 X-68.6365 Y5.8497 
G01 X-68.4693 Y5.8762 
G01 X-68.2999 Y5.8762 
G01 X-68.1327 Y5.8497 
G01 X-67.9717 Y5.7974 
G01 X-67.8209 Y5.7205 
G01 X-67.6839 Y5.6210 
G01 X-67.5642 Y5.5013 
G01 X-67.4647 Y5.3643 
G01 X-67.3878 Y5.2135 
G01 X-67.3355 Y5.0525 
G01 X-67.3090 Y4.8853 
G01 X-67.3090 Y2.7347 
G00 Z5.0000 
G00 X-83.2748 Y3.0695 
G01 Z-0.1400 F254.00 
G01 X-83.5018 Y2.8885 F1000.00 
G01 X-83.7476 Y2.7340 
G01 X-84.0092 Y2.6080 
G01 X-84.2832 Y2.5121 
G01 X-84.5663 Y2.4475 
G01 X-84.8548 Y2.4150 
G01 X-85.1452 Y2.4150 
G01 X-85.4337 Y2.4475 
G01 X-85.7167 Y2.5121 
G01 X-85.9908 Y2.6080 
G01 X-86.2524 Y2.7340 
G01 X-86.4982 Y2.8885 
G01 X-86.7252 Y3.0695 
G01 X-86.9305 Y3.2748 
G01 X-87.1115 Y3.5018 
G01 X-87.2660 Y3.7476 
G01 X-87.3920 Y4.0092 
G01 X-87.4879 Y4.2832 
G01 X-87.5525 Y4.5663 
G01 X-87.5850 Y4.8548 
G01 X-87.5850 Y5.1452 
G01 X-87.5525 Y5.4337 
G01 X-87.4879 Y5.7167 
G01 X-87.3920 Y5.9908 
G01 X-87.2660 Y6.2524 
G01 X-87.1115 Y6.4982 
G01 X-86.9305 Y6.7252 
G01 X-86.7252 Y6.9305 
G01 X-86.4982 Y7.1115 
G01 X-86.2524 Y7.2660 
G01 X-85.9908 Y7.3920 
G01 X-85.7167 Y7.4879 
G01 X-85.4337 Y7.5525 
G01 X-85.1452 Y7.5850 
G01 X-84.8548 Y7.5850 
G01 X-84.5663 Y7.5525 
G01 X-84.2832 Y7.4879 
G01 X-84.0092 Y7.3920 
G01 X-83.7476 Y7.2660 
G01 X-83.5018 Y7.1115 
G01 X-83.2748 Y6.9305 
G01 X-83.0695 Y6.7252 
G01 X-82.8885 Y6.4982 
G01 X-82.7340 Y6.2524 
G01 X-82.6080 Y5.9908 
G01 X-82.5121 Y5.7167 
G01 X-82.4475 Y5.4337 
G01 X-82.4150 Y5.1452 
G01 X-82.4150 Y4.8548 
G01 X-82.4475 Y4.5663 
G01 X-82.5121 Y4.2832 
G01 X-82.6080 Y4.0092 
G01 X-82.7340 Y3.7476 
G01 X-82.8885 Y3.5018 
G01 X-83.0695 Y3.2748 
G01 X-83.2748 Y3.0695 
G00 Z5.0000 
G00 X-80.5854 Y31.4412 
G01 Z-0.1400 F254.00 
G01 X-80.5854 Y32.0588 F1000.00 
G01 X-80.1488 Y32.4954 
G01 X-79.5312 Y32.4954 
G01 X-79.0946 Y32.0588 
G01 X-79.0946 Y31.4412 
G01 X-79.5312 Y31.0046 
G01 X-80.1488 Y31.0046 
G01 X-80.5854 Y31.4412 
G00 Z5.0000 
G00 X-80.5854 Y39.0612 
G01 Z-0.1400 F254.00 
G01 X-80.5854 Y39.6788 F1000.00 
G01 X-80.1488 Y40.1154 
G01 X-79.5312 Y40.1154 
G01 X-79.0946 Y39.6788 
G01 X-79.0946 Y39.0612 
G01 X-79.5312 Y38.6246 
G01 X-80.1488 Y38.6246 
G01 X-80.5854 Y39.0612 
G00 Z5.0000 
G00 X-80.5854 Y42.8712 
G01 Z-0.1400 F254.00 
G01 X-80.5854 Y43.4888 F1000.00 
G01 X-80.1488 Y43.9254 
G01 X-79.5312 Y43.9254 
G01 X-79.0946 Y43.4888 
G01 X-79.0946 Y42.8712 
G01 X-79.5312 Y42.4346 
G01 X-80.1488 Y42.4346 
G01 X-80.5854 Y42.8712 
G00 Z5.0000 
G00 X-78.0454 Y42.8712 
G01 Z-0.1400 F254.00 
G01 X-78.0454 Y43.4888 F1000.00 
G01 X-77.6088 Y43.9254 
G01 X-76.9912 Y43.9254 
G01 X-76.5546 Y43.4888 
G01 X-76.5546 Y42.8712 
G01 X-76.9912 Y42.4346 
G01 X-77.6088 Y42.4346 
G01 X-78.0454 Y42.8712 
G00 Z5.0000 
G00 X-73.1432 Y42.2509 
G01 Z-0.1400 F254.00 
G01 X-73.1432 Y44.1091 F1000.00 
G01 X-73.1077 Y44.2875 
G01 X-73.0381 Y44.4555 
G01 X-72.9371 Y44.6067 
G01 X-72.8085 Y44.7353 
G01 X-72.6573 Y44.8363 
G01 X-72.4893 Y44.9059 
G01 X-72.3109 Y44.9414 
G01 X-72.1291 Y44.9414 
G01 X-71.9507 Y44.9059 
G01 X-71.7827 Y44.8363 
G01 X-71.6315 Y44.7353 
G01 X-71.5029 Y44.6067 
G01 X-71.4019 Y44.4555 
G01 X-71.3323 Y44.2875 
G01 X-71.2968 Y44.1091 
G01 X-71.2968 Y42.2509 
G01 X-71.3323 Y42.0725 
G01 X-71.4019 Y41.9045 
G01 X-71.5029 Y41.7533 
G01 X-71.6315 Y41.6247 
G01 X-71.7827 Y41.5237 
G01 X-71.9507 Y41.4541 
G01 X-72.1291 Y41.4186 
G01 X-72.3109 Y41.4186 
G01 X-72.4893 Y41.4541 
G01 X-72.6573 Y41.5237 
G01 X-72.8085 Y41.6247 
G01 X-72.9371 Y41.7533 
G01 X-73.0381 Y41.9045 
G01 X-73.1077 Y42.0725 
G01 X-73.1432 Y42.2509 
G00 Z5.0000 
G00 X-70.6032 Y42.2509 
G01 Z-0.1400 F254.00 
G01 X-70.6032 Y44.1091 F1000.00 
G01 X-70.5677 Y44.2875 
G01 X-70.4981 Y44.4555 
G01 X-70.3971 Y44.6067 
G01 X-70.2685 Y44.7353 
G01 X-70.1173 Y44.8363 
G01 X-69.9493 Y44.9059 
G01 X-69.7709 Y44.9414 
G01 X-69.5891 Y44.9414 
G01 X-69.4107 Y44.9059 
G01 X-69.2427 Y44.8363 
G01 X-69.0915 Y44.7353 
G01 X-68.9629 Y44.6067 
G01 X-68.8619 Y44.4555 
G01 X-68.7923 Y44.2875 
G01 X-68.7568 Y44.1091 
G01 X-68.7568 Y42.2509 
G01 X-68.7923 Y42.0725 
G01 X-68.8619 Y41.9045 
G01 X-68.9629 Y41.7533 
G01 X-69.0915 Y41.6247 
G01 X-69.2427 Y41.5237 
G01 X-69.4107 Y41.4541 
G01 X-69.5891 Y41.4186 
G01 X-69.7709 Y41.4186 
G01 X-69.9493 Y41.4541 
G01 X-70.1173 Y41.5237 
G01 X-70.2685 Y41.6247 
G01 X-70.3971 Y41.7533 
G01 X-70.4981 Y41.9045 
G01 X-70.5677 Y42.0725 
G01 X-70.6032 Y42.2509 
G00 Z5.0000 
G00 X-68.0632 Y42.2509 
G01 Z-0.1400 F254.00 
G01 X-68.0632 Y44.1091 F1000.00 
G01 X-68.0277 Y44.2875 
G01 X-67.9581 Y44.4555 
G01 X-67.8571 Y44.6067 
G01 X-67.7285 Y44.7353 
G01 X-67.5773 Y44.8363 
G01 X-67.4093 Y44.9059 
G01 X-67.2309 Y44.9414 
G01 X-67.0491 Y44.9414 
G01 X-66.8707 Y44.9059 
G01 X-66.7027 Y44.8363 
G01 X-66.5515 Y44.7353 
G01 X-66.4229 Y44.6067 
G01 X-66.3219 Y44.4555 
G01 X-66.2523 Y44.2875 
G01 X-66.2168 Y44.1091 
G01 X-66.2168 Y42.2509 
G01 X-66.2523 Y42.0725 
G01 X-66.3219 Y41.9045 
G01 X-66.4229 Y41.7533 
G01 X-66.5515 Y41.6247 
G01 X-66.7027 Y41.5237 
G01 X-66.8707 Y41.4541 
G01 X-67.0491 Y41.4186 
G01 X-67.2309 Y41.4186 
G01 X-67.4093 Y41.4541 
G01 X-67.5773 Y41.5237 
G01 X-67.7285 Y41.6247 
G01 X-67.8571 Y41.7533 
G01 X-67.9581 Y41.9045 
G01 X-68.0277 Y42.0725 
G01 X-68.0632 Y42.2509 
G00 Z5.0000 
G00 X-67.8854 Y46.6812 
G01 Z-0.1400 F254.00 
G01 X-67.8854 Y47.2988 F1000.00 
G01 X-67.4488 Y47.7354 
G01 X-66.8312 Y47.7354 
G01 X-66.3946 Y47.2988 
G01 X-66.3946 Y46.6812 
G01 X-66.8312 Y46.2446 
G01 X-67.4488 Y46.2446 
G01 X-67.8854 Y46.6812 
G00 Z5.0000 
G00 X-65.3454 Y46.6812 
G01 Z-0.1400 F254.00 
G01 X-65.3454 Y47.2988 F1000.00 
G01 X-64.9088 Y47.7354 
G01 X-64.2912 Y47.7354 
G01 X-63.8546 Y47.2988 
G01 X-63.8546 Y46.6812 
G01 X-64.2912 Y46.2446 
G01 X-64.9088 Y46.2446 
G01 X-65.3454 Y46.6812 
G00 Z5.0000 
G00 X-65.3454 Y50.4912 
G01 Z-0.1400 F254.00 
G01 X-65.3454 Y51.1088 F1000.00 
G01 X-64.9088 Y51.5454 
G01 X-64.2912 Y51.5454 
G01 X-63.8546 Y51.1088 
G01 X-63.8546 Y50.4912 
G01 X-64.2912 Y50.0546 
G01 X-64.9088 Y50.0546 
G01 X-65.3454 Y50.4912 
G00 Z5.0000 
G00 X-65.3454 Y53.0312 
G01 Z-0.1400 F254.00 
G01 X-65.3454 Y53.6488 F1000.00 
G01 X-64.9088 Y54.0854 
G01 X-64.2912 Y54.0854 
G01 X-63.8546 Y53.6488 
G01 X-63.8546 Y53.0312 
G01 X-64.2912 Y52.5946 
G01 X-64.9088 Y52.5946 
G01 X-65.3454 Y53.0312 
G00 Z5.0000 
G00 X-69.1886 Y49.8388 
G01 Z-0.1400 F254.00 
G01 X-69.1886 Y49.2212 F1000.00 
G01 X-69.6252 Y48.7846 
G01 X-70.2428 Y48.7846 
G01 X-70.6794 Y49.2212 
G01 X-70.6794 Y49.8388 
G01 X-70.2428 Y50.2754 
G01 X-69.6252 Y50.2754 
G01 X-69.1886 Y49.8388 
G00 Z5.0000 
G00 X-71.2492 Y49.7474 
G01 Z-0.1400 F254.00 
G01 X-71.2206 Y49.6034 F1000.00 
G01 X-71.2206 Y49.4566 
G01 X-71.2492 Y49.3126 
G01 X-71.3054 Y49.1769 
G01 X-71.3870 Y49.0548 
G01 X-71.4908 Y48.9510 
G01 X-71.6129 Y48.8694 
G01 X-71.7486 Y48.8132 
G01 X-71.8926 Y48.7846 
G01 X-72.0394 Y48.7846 
G01 X-72.1834 Y48.8132 
G01 X-72.3191 Y48.8694 
G01 X-72.4412 Y48.9510 
G01 X-72.5450 Y49.0548 
G01 X-72.6266 Y49.1769 
G01 X-72.6828 Y49.3126 
G01 X-72.7114 Y49.4566 
G01 X-72.7114 Y49.6034 
G01 X-72.6828 Y49.7474 
G01 X-72.6266 Y49.8831 
G01 X-72.5450 Y50.0052 
G01 X-72.4412 Y50.1090 
G01 X-72.3191 Y50.1906 
G01 X-72.1834 Y50.2468 
G01 X-72.0394 Y50.2754 
G01 X-71.8926 Y50.2754 
G01 X-71.7486 Y50.2468 
G01 X-71.6129 Y50.1906 
G01 X-71.4908 Y50.1090 
G01 X-71.3870 Y50.0052 
G01 X-71.3054 Y49.8831 
G01 X-71.2492 Y49.7474 
G00 Z5.0000 
G00 X-71.7954 Y57.5730 
G01 Z-0.1400 F254.00 
G01 X-71.9591 Y57.6056 F1000.00 
G01 X-72.1132 Y57.6694 
G01 X-72.2519 Y57.7621 
G01 X-72.3699 Y57.8801 
G01 X-72.4626 Y58.0188 
G01 X-72.5264 Y58.1729 
G01 X-72.5590 Y58.3366 
G01 X-72.5590 Y58.5034 
G01 X-72.5264 Y58.6671 
G01 X-72.4626 Y58.8212 
G01 X-72.3699 Y58.9599 
G01 X-72.2519 Y59.0779 
G01 X-72.1132 Y59.1706 
G01 X-71.9591 Y59.2344 
G01 X-71.7954 Y59.2670 
G01 X-70.1046 Y59.2670 
G01 X-69.9409 Y59.2344 
G01 X-69.7868 Y59.1706 
G01 X-69.6481 Y59.0779 
G01 X-69.5301 Y58.9599 
G01 X-69.4374 Y58.8212 
G01 X-69.3735 Y58.6671 
G01 X-69.3410 Y58.5034 
G01 X-69.3410 Y58.3366 
G01 X-69.3735 Y58.1729 
G01 X-69.4374 Y58.0188 
G01 X-69.5301 Y57.8801 
G01 X-69.6481 Y57.7621 
G01 X-69.7868 Y57.6694 
G01 X-69.9409 Y57.6056 
G01 X-70.1046 Y57.5730 
G01 X-71.7954 Y57.5730 
G00 Z5.0000 
G00 X-71.7954 Y60.1130 
G01 Z-0.1400 F254.00 
G01 X-71.9591 Y60.1456 F1000.00 
G01 X-72.1132 Y60.2094 
G01 X-72.2519 Y60.3021 
G01 X-72.3699 Y60.4201 
G01 X-72.4626 Y60.5588 
G01 X-72.5264 Y60.7129 
G01 X-72.5590 Y60.8766 
G01 X-72.5590 Y61.0434 
G01 X-72.5264 Y61.2071 
G01 X-72.4626 Y61.3612 
G01 X-72.3699 Y61.4999 
G01 X-72.2519 Y61.6179 
G01 X-72.1132 Y61.7106 
G01 X-71.9591 Y61.7744 
G01 X-71.7954 Y61.8070 
G01 X-70.1046 Y61.8070 
G01 X-69.9409 Y61.7744 
G01 X-69.7868 Y61.7106 
G01 X-69.6481 Y61.6179 
G01 X-69.5301 Y61.4999 
G01 X-69.4374 Y61.3612 
G01 X-69.3735 Y61.2071 
G01 X-69.3410 Y61.0434 
G01 X-69.3410 Y60.8766 
G01 X-69.3735 Y60.7129 
G01 X-69.4374 Y60.5588 
G01 X-69.5301 Y60.4201 
G01 X-69.6481 Y60.3021 
G01 X-69.7868 Y60.2094 
G01 X-69.9409 Y60.1456 
G01 X-70.1046 Y60.1130 
G01 X-71.7954 Y60.1130 
G00 Z5.0000 
G00 X-74.0432 Y60.0822 
G01 Z-0.1400 F254.00 
G01 X-74.0994 Y59.9465 F1000.00 
G01 X-74.1810 Y59.8244 
G01 X-74.2848 Y59.7206 
G01 X-74.4069 Y59.6390 
G01 X-74.5426 Y59.5828 
G01 X-74.6866 Y59.5542 
G01 X-74.8334 Y59.5542 
G01 X-74.9774 Y59.5828 
G01 X-75.1131 Y59.6390 
G01 X-75.2352 Y59.7206 
G01 X-75.3390 Y59.8244 
G01 X-75.4206 Y59.9465 
G01 X-75.4768 Y60.0822 
G01 X-75.5054 Y60.2262 
G01 X-75.5054 Y61.6938 
G01 X-75.4768 Y61.8378 
G01 X-75.4206 Y61.9735 
G01 X-75.3390 Y62.0956 
G01 X-75.2352 Y62.1994 
G01 X-75.1131 Y62.2810 
G01 X-74.9774 Y62.3372 
G01 X-74.8334 Y62.3658 
G01 X-74.6866 Y62.3658 
G01 X-74.5426 Y62.3372 
G01 X-74.4069 Y62.2810 
G01 X-74.2848 Y62.1994 
G01 X-74.1810 Y62.0956 
G01 X-74.0994 Y61.9735 
G01 X-74.0432 Y61.8378 
G01 X-74.0146 Y61.6938 
G01 X-74.0146 Y60.2262 
G01 X-74.0432 Y60.0822 
G00 Z5.0000 
G00 X-74.2848 Y64.8006 
G01 Z-0.1400 F254.00 
G01 X-74.4069 Y64.7190 F1000.00 
G01 X-74.5426 Y64.6628 
G01 X-74.6866 Y64.6342 
G01 X-74.8334 Y64.6342 
G01 X-74.9774 Y64.6628 
G01 X-75.1131 Y64.7190 
G01 X-75.2352 Y64.8006 
G01 X-75.3390 Y64.9044 
G01 X-75.4206 Y65.0265 
G01 X-75.4768 Y65.1622 
G01 X-75.5054 Y65.3062 
G01 X-75.5054 Y66.7738 
G01 X-75.4768 Y66.9178 
G01 X-75.4206 Y67.0535 
G01 X-75.3390 Y67.1756 
G01 X-75.2352 Y67.2794 
G01 X-75.1131 Y67.3610 
G01 X-74.9774 Y67.4172 
G01 X-74.8334 Y67.4458 
G01 X-74.6866 Y67.4458 
G01 X-74.5426 Y67.4172 
G01 X-74.4069 Y67.3610 
G01 X-74.2848 Y67.2794 
G01 X-74.1810 Y67.1756 
G01 X-74.0994 Y67.0535 
G01 X-74.0432 Y66.9178 
G01 X-74.0146 Y66.7738 
G01 X-74.0146 Y65.3062 
G01 X-74.0432 Y65.1622 
G01 X-74.0994 Y65.0265 
G01 X-74.1810 Y64.9044 
G01 X-74.2848 Y64.8006 
G00 Z5.0000 
G00 X-71.2588 Y64.2454 
G01 Z-0.1400 F254.00 
G01 X-70.6412 Y64.2454 F1000.00 
G01 X-70.2046 Y63.8088 
G01 X-70.2046 Y63.1912 
G01 X-70.6412 Y62.7546 
G01 X-71.2588 Y62.7546 
G01 X-71.6954 Y63.1912 
G01 X-71.6954 Y63.8088 
G01 X-71.2588 Y64.2454 
G00 Z5.0000 
G00 X-71.2588 Y70.3746 
G01 Z-0.1400 F254.00 
G01 X-71.6954 Y70.8112 F1000.00 
G01 X-71.6954 Y71.4288 
G01 X-71.2588 Y71.8654 
G01 X-70.6412 Y71.8654 
G01 X-70.2046 Y71.4288 
G01 X-70.2046 Y70.8112 
G01 X-70.6412 Y70.3746 
G01 X-71.2588 Y70.3746 
G00 Z5.0000 
G00 X-69.6494 Y71.9148 
G01 Z-0.1400 F254.00 
G01 X-69.7310 Y72.0369 F1000.00 
G01 X-69.7872 Y72.1726 
G01 X-69.8158 Y72.3166 
G01 X-69.8158 Y72.4634 
G01 X-69.7872 Y72.6074 
G01 X-69.7310 Y72.7431 
G01 X-69.6494 Y72.8652 
G01 X-69.5456 Y72.9690 
G01 X-69.4235 Y73.0506 
G01 X-69.2878 Y73.1068 
G01 X-69.1438 Y73.1354 
G01 X-67.6762 Y73.1354 
G01 X-67.5322 Y73.1068 
G01 X-67.3965 Y73.0506 
G01 X-67.2744 Y72.9690 
G01 X-67.1706 Y72.8652 
G01 X-67.0890 Y72.7431 
G01 X-67.0328 Y72.6074 
G01 X-67.0042 Y72.4634 
G01 X-67.0042 Y72.3166 
G01 X-67.0328 Y72.1726 
G01 X-67.0890 Y72.0369 
G01 X-67.1706 Y71.9148 
G01 X-67.2744 Y71.8110 
G01 X-67.3965 Y71.7294 
G01 X-67.5322 Y71.6732 
G01 X-67.6762 Y71.6446 
G01 X-69.1438 Y71.6446 
G01 X-69.2878 Y71.6732 
G01 X-69.4235 Y71.7294 
G01 X-69.5456 Y71.8110 
G01 X-69.6494 Y71.9148 
G00 Z5.0000 
G00 X-69.6494 Y74.4548 
G01 Z-0.1400 F254.00 
G01 X-69.7310 Y74.5769 F1000.00 
G01 X-69.7872 Y74.7126 
G01 X-69.8158 Y74.8566 
G01 X-69.8158 Y75.0034 
G01 X-69.7872 Y75.1474 
G01 X-69.7310 Y75.2831 
G01 X-69.6494 Y75.4052 
G01 X-69.5456 Y75.5090 
G01 X-69.4235 Y75.5906 
G01 X-69.2878 Y75.6468 
G01 X-69.1438 Y75.6754 
G01 X-67.6762 Y75.6754 
G01 X-67.5322 Y75.6468 
G01 X-67.3965 Y75.5906 
G01 X-67.2744 Y75.5090 
G01 X-67.1706 Y75.4052 
G01 X-67.0890 Y75.2831 
G01 X-67.0328 Y75.1474 
G01 X-67.0042 Y75.0034 
G01 X-67.0042 Y74.8566 
G01 X-67.0328 Y74.7126 
G01 X-67.0890 Y74.5769 
G01 X-67.1706 Y74.4548 
G01 X-67.2744 Y74.3510 
G01 X-67.3965 Y74.2694 
G01 X-67.5322 Y74.2132 
G01 X-67.6762 Y74.1846 
G01 X-69.1438 Y74.1846 
G01 X-69.2878 Y74.2132 
G01 X-69.4235 Y74.2694 
G01 X-69.5456 Y74.3510 
G01 X-69.6494 Y74.4548 
G00 Z5.0000 
G00 X-71.4746 Y74.6212 
G01 Z-0.1400 F254.00 
G01 X-71.9112 Y74.1846 F1000.00 
G01 X-72.5288 Y74.1846 
G01 X-72.9654 Y74.6212 
G01 X-72.9654 Y75.2388 
G01 X-72.5288 Y75.6754 
G01 X-71.9112 Y75.6754 
G01 X-71.4746 Y75.2388 
G01 X-71.4746 Y74.6212 
G00 Z5.0000 
G00 X-69.6494 Y76.9948 
G01 Z-0.1400 F254.00 
G01 X-69.7310 Y77.1169 F1000.00 
G01 X-69.7872 Y77.2526 
G01 X-69.8158 Y77.3966 
G01 X-69.8158 Y77.5434 
G01 X-69.7872 Y77.6874 
G01 X-69.7310 Y77.8231 
G01 X-69.6494 Y77.9452 
G01 X-69.5456 Y78.0490 
G01 X-69.4235 Y78.1306 
G01 X-69.2878 Y78.1868 
G01 X-69.1438 Y78.2154 
G01 X-67.6762 Y78.2154 
G01 X-67.5322 Y78.1868 
G01 X-67.3965 Y78.1306 
G01 X-67.2744 Y78.0490 
G01 X-67.1706 Y77.9452 
G01 X-67.0890 Y77.8231 
G01 X-67.0328 Y77.6874 
G01 X-67.0042 Y77.5434 
G01 X-67.0042 Y77.3966 
G01 X-67.0328 Y77.2526 
G01 X-67.0890 Y77.1169 
G01 X-67.1706 Y76.9948 
G01 X-67.2744 Y76.8910 
G01 X-67.3965 Y76.8094 
G01 X-67.5322 Y76.7532 
G01 X-67.6762 Y76.7246 
G01 X-69.1438 Y76.7246 
G01 X-69.2878 Y76.7532 
G01 X-69.4235 Y76.8094 
G01 X-69.5456 Y76.8910 
G01 X-69.6494 Y76.9948 
G00 Z5.0000 
G00 X-69.6494 Y79.5348 
G01 Z-0.1400 F254.00 
G01 X-69.7310 Y79.6569 F1000.00 
G01 X-69.7872 Y79.7926 
G01 X-69.8158 Y79.9366 
G01 X-69.8158 Y80.0834 
G01 X-69.7872 Y80.2274 
G01 X-69.7310 Y80.3631 
G01 X-69.6494 Y80.4852 
G01 X-69.5456 Y80.5890 
G01 X-69.4235 Y80.6706 
G01 X-69.2878 Y80.7268 
G01 X-69.1438 Y80.7554 
G01 X-67.6762 Y80.7554 
G01 X-67.5322 Y80.7268 
G01 X-67.3965 Y80.6706 
G01 X-67.2744 Y80.5890 
G01 X-67.1706 Y80.4852 
G01 X-67.0890 Y80.3631 
G01 X-67.0328 Y80.2274 
G01 X-67.0042 Y80.0834 
G01 X-67.0042 Y79.9366 
G01 X-67.0328 Y79.7926 
G01 X-67.0890 Y79.6569 
G01 X-67.1706 Y79.5348 
G01 X-67.2744 Y79.4310 
G01 X-67.3965 Y79.3494 
G01 X-67.5322 Y79.2932 
G01 X-67.6762 Y79.2646 
G01 X-69.1438 Y79.2646 
G01 X-69.2878 Y79.2932 
G01 X-69.4235 Y79.3494 
G01 X-69.5456 Y79.4310 
G01 X-69.6494 Y79.5348 
G00 Z5.0000 
G00 X-71.4746 Y79.7012 
G01 Z-0.1400 F254.00 
G01 X-71.9112 Y79.2646 F1000.00 
G01 X-72.5288 Y79.2646 
G01 X-72.9654 Y79.7012 
G01 X-72.9654 Y80.3188 
G01 X-72.5288 Y80.7554 
G01 X-71.9112 Y80.7554 
G01 X-71.4746 Y80.3188 
G01 X-71.4746 Y79.7012 
G00 Z5.0000 
G00 X-68.9693 Y82.0910 
G01 Z-0.1400 F254.00 
G01 X-69.0481 Y82.2090 F1000.00 
G01 X-69.1023 Y82.3400 
G01 X-69.1300 Y82.4791 
G01 X-69.1300 Y82.6209 
G01 X-69.1023 Y82.7600 
G01 X-69.0481 Y82.8910 
G01 X-68.9693 Y83.0090 
G01 X-68.8690 Y83.1093 
G01 X-68.7510 Y83.1881 
G01 X-68.6200 Y83.2423 
G01 X-68.4809 Y83.2700 
G01 X-68.3391 Y83.2700 
G01 X-68.2000 Y83.2423 
G01 X-68.0690 Y83.1881 
G01 X-67.9510 Y83.1093 
G01 X-67.8507 Y83.0090 
G01 X-67.8045 Y82.9398 
G01 X-61.3955 Y82.9398 
G01 X-61.3493 Y83.0090 
G01 X-61.2490 Y83.1093 
G01 X-61.1310 Y83.1881 
G01 X-61.0000 Y83.2423 
G01 X-60.8609 Y83.2700 
G01 X-60.7191 Y83.2700 
G01 X-60.5800 Y83.2423 
G01 X-60.4490 Y83.1881 
G01 X-60.3310 Y83.1093 
G01 X-60.2307 Y83.0090 
G01 X-60.1519 Y82.8910 
G01 X-60.0977 Y82.7600 
G01 X-60.0700 Y82.6209 
G01 X-60.0700 Y82.4791 
G01 X-60.0977 Y82.3400 
G01 X-60.1519 Y82.2090 
G01 X-60.2307 Y82.0910 
G01 X-60.3310 Y81.9907 
G01 X-60.4490 Y81.9119 
G01 X-60.5800 Y81.8577 
G01 X-60.7191 Y81.8300 
G01 X-60.8609 Y81.8300 
G01 X-61.0000 Y81.8577 
G01 X-61.1310 Y81.9119 
G01 X-61.2490 Y81.9907 
G01 X-61.3493 Y82.0910 
G01 X-61.3955 Y82.1602 
G01 X-67.8045 Y82.1602 
G01 X-67.8507 Y82.0910 
G01 X-67.9510 Y81.9907 
G01 X-68.0690 Y81.9119 
G01 X-68.2000 Y81.8577 
G01 X-68.3391 Y81.8300 
G01 X-68.4809 Y81.8300 
G01 X-68.6200 Y81.8577 
G01 X-68.7510 Y81.9119 
G01 X-68.8690 Y81.9907 
G01 X-68.9693 Y82.0910 
G00 Z5.0000 
G00 X-69.1438 Y85.6146 
G01 Z-0.1400 F254.00 
G01 X-69.2878 Y85.6432 F1000.00 
G01 X-69.4235 Y85.6994 
G01 X-69.5456 Y85.7810 
G01 X-69.6494 Y85.8848 
G01 X-69.7310 Y86.0069 
G01 X-69.7872 Y86.1426 
G01 X-69.8158 Y86.2866 
G01 X-69.8158 Y86.4334 
G01 X-69.7872 Y86.5774 
G01 X-69.7310 Y86.7131 
G01 X-69.6494 Y86.8352 
G01 X-69.5456 Y86.9390 
G01 X-69.4235 Y87.0206 
G01 X-69.2878 Y87.0768 
G01 X-69.1438 Y87.1054 
G01 X-67.6762 Y87.1054 
G01 X-67.5322 Y87.0768 
G01 X-67.3965 Y87.0206 
G01 X-67.2744 Y86.9390 
G01 X-67.1706 Y86.8352 
G01 X-67.0890 Y86.7131 
G01 X-67.0328 Y86.5774 
G01 X-67.0042 Y86.4334 
G01 X-67.0042 Y86.2866 
G01 X-67.0328 Y86.1426 
G01 X-67.0890 Y86.0069 
G01 X-67.1706 Y85.8848 
G01 X-67.2744 Y85.7810 
G01 X-67.3965 Y85.6994 
G01 X-67.5322 Y85.6432 
G01 X-67.6762 Y85.6146 
G01 X-69.1438 Y85.6146 
G00 Z5.0000 
G00 X-69.1438 Y88.1546 
G01 Z-0.1400 F254.00 
G01 X-69.2878 Y88.1832 F1000.00 
G01 X-69.4235 Y88.2394 
G01 X-69.5456 Y88.3210 
G01 X-69.6494 Y88.4248 
G01 X-69.7310 Y88.5469 
G01 X-69.7872 Y88.6826 
G01 X-69.8158 Y88.8266 
G01 X-69.8158 Y88.9734 
G01 X-69.7872 Y89.1174 
G01 X-69.7310 Y89.2531 
G01 X-69.6494 Y89.3752 
G01 X-69.5456 Y89.4790 
G01 X-69.4235 Y89.5606 
G01 X-69.2878 Y89.6168 
G01 X-69.1438 Y89.6454 
G01 X-67.6762 Y89.6454 
G01 X-67.5322 Y89.6168 
G01 X-67.3965 Y89.5606 
G01 X-67.2744 Y89.4790 
G01 X-67.1706 Y89.3752 
G01 X-67.0890 Y89.2531 
G01 X-67.0328 Y89.1174 
G01 X-67.0042 Y88.9734 
G01 X-67.0042 Y88.8266 
G01 X-67.0328 Y88.6826 
G01 X-67.0890 Y88.5469 
G01 X-67.1706 Y88.4248 
G01 X-67.2744 Y88.3210 
G01 X-67.3965 Y88.2394 
G01 X-67.5322 Y88.1832 
G01 X-67.6762 Y88.1546 
G01 X-69.1438 Y88.1546 
G00 Z5.0000 
G00 X-69.1438 Y90.6946 
G01 Z-0.1400 F254.00 
G01 X-69.2878 Y90.7232 F1000.00 
G01 X-69.4235 Y90.7794 
G01 X-69.5456 Y90.8610 
G01 X-69.6494 Y90.9648 
G01 X-69.7310 Y91.0869 
G01 X-69.7872 Y91.2226 
G01 X-69.8158 Y91.3666 
G01 X-69.8158 Y91.5134 
G01 X-69.7872 Y91.6574 
G01 X-69.7310 Y91.7931 
G01 X-69.6494 Y91.9152 
G01 X-69.5456 Y92.0190 
G01 X-69.4235 Y92.1006 
G01 X-69.2878 Y92.1568 
G01 X-69.1438 Y92.1854 
G01 X-67.6762 Y92.1854 
G01 X-67.5322 Y92.1568 
G01 X-67.3965 Y92.1006 
G01 X-67.2744 Y92.0190 
G01 X-67.1706 Y91.9152 
G01 X-67.0890 Y91.7931 
G01 X-67.0328 Y91.6574 
G01 X-67.0042 Y91.5134 
G01 X-67.0042 Y91.3666 
G01 X-67.0328 Y91.2226 
G01 X-67.0890 Y91.0869 
G01 X-67.1706 Y90.9648 
G01 X-67.2744 Y90.8610 
G01 X-67.3965 Y90.7794 
G01 X-67.5322 Y90.7232 
G01 X-67.6762 Y90.6946 
G01 X-69.1438 Y90.6946 
G00 Z5.0000 
G00 X-69.1438 Y93.2346 
G01 Z-0.1400 F254.00 
G01 X-69.2878 Y93.2632 F1000.00 
G01 X-69.4235 Y93.3194 
G01 X-69.5456 Y93.4010 
G01 X-69.6494 Y93.5048 
G01 X-69.7310 Y93.6269 
G01 X-69.7872 Y93.7626 
G01 X-69.8158 Y93.9066 
G01 X-69.8158 Y94.0534 
G01 X-69.7872 Y94.1974 
G01 X-69.7310 Y94.3331 
G01 X-69.6494 Y94.4552 
G01 X-69.5456 Y94.5590 
G01 X-69.4235 Y94.6406 
G01 X-69.2878 Y94.6968 
G01 X-69.1438 Y94.7254 
G01 X-67.6762 Y94.7254 
G01 X-67.5322 Y94.6968 
G01 X-67.3965 Y94.6406 
G01 X-67.2744 Y94.5590 
G01 X-67.1706 Y94.4552 
G01 X-67.0890 Y94.3331 
G01 X-67.0328 Y94.1974 
G01 X-67.0042 Y94.0534 
G01 X-67.0042 Y93.9066 
G01 X-67.0328 Y93.7626 
G01 X-67.0890 Y93.6269 
G01 X-67.1706 Y93.5048 
G01 X-67.2744 Y93.4010 
G01 X-67.3965 Y93.3194 
G01 X-67.5322 Y93.2632 
G01 X-67.6762 Y93.2346 
G01 X-69.1438 Y93.2346 
G00 Z5.0000 
G00 X-71.4746 Y91.7488 
G01 Z-0.1400 F254.00 
G01 X-71.4746 Y91.1312 F1000.00 
G01 X-71.9112 Y90.6946 
G01 X-72.5288 Y90.6946 
G01 X-72.9654 Y91.1312 
G01 X-72.9654 Y91.7488 
G01 X-72.5288 Y92.1854 
G01 X-71.9112 Y92.1854 
G01 X-71.4746 Y91.7488 
G00 Z5.0000 
G00 X-71.4746 Y86.6688 
G01 Z-0.1400 F254.00 
G01 X-71.4746 Y86.0512 F1000.00 
G01 X-71.9112 Y85.6146 
G01 X-72.5288 Y85.6146 
G01 X-72.9654 Y86.0512 
G01 X-72.9654 Y86.6688 
G01 X-72.5288 Y87.1054 
G01 X-71.9112 Y87.1054 
G01 X-71.4746 Y86.6688 
G00 Z5.0000 
G00 X-75.5710 Y88.3407 
G01 Z-0.1400 F254.00 
G01 X-75.6402 Y88.2945 F1000.00 
G01 X-75.6402 Y78.0755 
G01 X-75.5710 Y78.0293 
G01 X-75.4707 Y77.9290 
G01 X-75.3919 Y77.8110 
G01 X-75.3377 Y77.6800 
G01 X-75.3100 Y77.5409 
G01 X-75.3100 Y77.3991 
G01 X-75.3377 Y77.2600 
G01 X-75.3919 Y77.1290 
G01 X-75.4707 Y77.0110 
G01 X-75.5710 Y76.9107 
G01 X-75.6890 Y76.8319 
G01 X-75.8200 Y76.7777 
G01 X-75.9591 Y76.7500 
G01 X-76.1009 Y76.7500 
G01 X-76.2400 Y76.7777 
G01 X-76.3710 Y76.8319 
G01 X-76.4890 Y76.9107 
G01 X-76.5893 Y77.0110 
G01 X-76.6681 Y77.1290 
G01 X-76.7223 Y77.2600 
G01 X-76.7500 Y77.3991 
G01 X-76.7500 Y77.5409 
G01 X-76.7223 Y77.6800 
G01 X-76.6681 Y77.8110 
G01 X-76.5893 Y77.9290 
G01 X-76.4890 Y78.0293 
G01 X-76.4198 Y78.0755 
G01 X-76.4198 Y88.2945 
G01 X-76.4890 Y88.3407 
G01 X-76.5893 Y88.4410 
G01 X-76.6681 Y88.5589 
G01 X-76.7223 Y88.6900 
G01 X-76.7500 Y88.8291 
G01 X-76.7500 Y88.9709 
G01 X-76.7223 Y89.1100 
G01 X-76.6681 Y89.2410 
G01 X-76.5893 Y89.3590 
G01 X-76.4890 Y89.4593 
G01 X-76.3710 Y89.5381 
G01 X-76.2400 Y89.5923 
G01 X-76.1009 Y89.6200 
G01 X-75.9591 Y89.6200 
G01 X-75.8200 Y89.5923 
G01 X-75.6890 Y89.5381 
G01 X-75.5710 Y89.4593 
G01 X-75.4707 Y89.3590 
G01 X-75.3919 Y89.2410 
G01 X-75.3377 Y89.1100 
G01 X-75.3100 Y88.9709 
G01 X-75.3100 Y88.8291 
G01 X-75.3377 Y88.6900 
G01 X-75.3919 Y88.5589 
G01 X-75.4707 Y88.4410 
G01 X-75.5710 Y88.3407 
G00 Z5.0000 
G00 X-78.0107 Y85.5490 
G01 Z-0.1400 F254.00 
G01 X-77.9319 Y85.4310 F1000.00 
G01 X-77.8777 Y85.3000 
G01 X-77.8500 Y85.1609 
G01 X-77.8500 Y85.0191 
G01 X-77.8777 Y84.8800 
G01 X-77.9319 Y84.7489 
G01 X-78.0107 Y84.6310 
G01 X-78.1110 Y84.5307 
G01 X-78.2289 Y84.4519 
G01 X-78.3600 Y84.3977 
G01 X-78.4991 Y84.3700 
G01 X-78.6409 Y84.3700 
G01 X-78.7800 Y84.3977 
G01 X-78.9110 Y84.4519 
G01 X-79.0290 Y84.5307 
G01 X-79.1293 Y84.6310 
G01 X-79.2081 Y84.7489 
G01 X-79.2623 Y84.8800 
G01 X-79.2900 Y85.0191 
G01 X-79.2900 Y85.1609 
G01 X-79.2623 Y85.3000 
G01 X-79.2081 Y85.4310 
G01 X-79.1293 Y85.5490 
G01 X-79.0290 Y85.6493 
G01 X-78.9598 Y85.6955 
G01 X-78.9598 Y98.4545 
G01 X-79.0290 Y98.5007 
G01 X-79.1293 Y98.6010 
G01 X-79.2081 Y98.7190 
G01 X-79.2623 Y98.8500 
G01 X-79.2900 Y98.9891 
G01 X-79.2900 Y99.1309 
G01 X-79.2623 Y99.2700 
G01 X-79.2081 Y99.4010 
G01 X-79.1293 Y99.5190 
G01 X-79.0290 Y99.6193 
G01 X-78.9110 Y99.6981 
G01 X-78.7800 Y99.7523 
G01 X-78.6409 Y99.7800 
G01 X-78.4991 Y99.7800 
G01 X-78.3600 Y99.7523 
G01 X-78.2289 Y99.6981 
G01 X-78.1110 Y99.6193 
G01 X-78.0107 Y99.5190 
G01 X-77.9319 Y99.4010 
G01 X-77.8777 Y99.2700 
G01 X-77.8500 Y99.1309 
G01 X-77.8500 Y98.9891 
G01 X-77.8777 Y98.8500 
G01 X-77.9319 Y98.7190 
G01 X-78.0107 Y98.6010 
G01 X-78.1110 Y98.5007 
G01 X-78.1802 Y98.4545 
G01 X-78.1802 Y85.6955 
G01 X-78.1110 Y85.6493 
G01 X-78.0107 Y85.5490 
G00 Z5.0000 
G00 X-79.0946 Y80.3188 
G01 Z-0.1400 F254.00 
G01 X-79.0946 Y79.7012 F1000.00 
G01 X-79.5312 Y79.2646 
G01 X-80.1488 Y79.2646 
G01 X-80.5854 Y79.7012 
G01 X-80.5854 Y80.3188 
G01 X-80.1488 Y80.7554 
G01 X-79.5312 Y80.7554 
G01 X-79.0946 Y80.3188 
G00 Z5.0000 
G00 X-83.1090 Y76.7991 
G01 Z-0.1400 F254.00 
G01 X-83.0095 Y76.6621 F1000.00 
G01 X-82.9326 Y76.5113 
G01 X-82.8803 Y76.3503 
G01 X-82.8538 Y76.1830 
G01 X-82.8538 Y76.0137 
G01 X-82.8803 Y75.8465 
G01 X-82.9326 Y75.6855 
G01 X-83.0095 Y75.5347 
G01 X-83.1090 Y75.3977 
G01 X-83.2287 Y75.2780 
G01 X-83.3657 Y75.1785 
G01 X-83.5165 Y75.1016 
G01 X-83.6775 Y75.0493 
G01 X-83.8447 Y75.0228 
G01 X-85.9952 Y75.0228 
G01 X-86.1625 Y75.0493 
G01 X-86.3235 Y75.1016 
G01 X-86.4743 Y75.1785 
G01 X-86.6113 Y75.2780 
G01 X-86.7310 Y75.3977 
G01 X-86.8305 Y75.5347 
G01 X-86.9074 Y75.6855 
G01 X-86.9597 Y75.8465 
G01 X-86.9862 Y76.0137 
G01 X-86.9862 Y76.1830 
G01 X-86.9597 Y76.3503 
G01 X-86.9074 Y76.5113 
G01 X-86.8305 Y76.6621 
G01 X-86.7310 Y76.7991 
G01 X-86.6113 Y76.9188 
G01 X-86.4743 Y77.0183 
G01 X-86.3235 Y77.0952 
G01 X-86.1625 Y77.1475 
G01 X-85.9952 Y77.1740 
G01 X-83.8447 Y77.1740 
G01 X-83.6775 Y77.1475 
G01 X-83.5165 Y77.0952 
G01 X-83.3657 Y77.0183 
G01 X-83.2287 Y76.9188 
G01 X-83.1090 Y76.7991 
G00 Z5.0000 
G00 X-83.1090 Y71.7699 
G01 Z-0.1400 F254.00 
G01 X-83.0095 Y71.6329 F1000.00 
G01 X-82.9326 Y71.4821 
G01 X-82.8803 Y71.3211 
G01 X-82.8538 Y71.1539 
G01 X-82.8538 Y70.9845 
G01 X-82.8803 Y70.8173 
G01 X-82.9326 Y70.6563 
G01 X-83.0095 Y70.5055 
G01 X-83.1090 Y70.3685 
G01 X-83.2287 Y70.2488 
G01 X-83.3657 Y70.1493 
G01 X-83.5165 Y70.0724 
G01 X-83.6775 Y70.0201 
G01 X-83.8447 Y69.9936 
G01 X-85.9952 Y69.9936 
G01 X-86.1625 Y70.0201 
G01 X-86.3235 Y70.0724 
G01 X-86.4743 Y70.1493 
G01 X-86.6113 Y70.2488 
G01 X-86.7310 Y70.3685 
G01 X-86.8305 Y70.5055 
G01 X-86.9074 Y70.6563 
G01 X-86.9597 Y70.8173 
G01 X-86.9862 Y70.9845 
G01 X-86.9862 Y71.1539 
G01 X-86.9597 Y71.3211 
G01 X-86.9074 Y71.4821 
G01 X-86.8305 Y71.6329 
G01 X-86.7310 Y71.7699 
G01 X-86.6113 Y71.8896 
G01 X-86.4743 Y71.9891 
G01 X-86.3235 Y72.0660 
G01 X-86.1625 Y72.1183 
G01 X-85.9952 Y72.1448 
G01 X-83.8447 Y72.1448 
G01 X-83.6775 Y72.1183 
G01 X-83.5165 Y72.0660 
G01 X-83.3657 Y71.9891 
G01 X-83.2287 Y71.8896 
G01 X-83.1090 Y71.7699 
G00 Z5.0000 
G00 X-83.1090 Y66.7915 
G01 Z-0.1400 F254.00 
G01 X-83.0095 Y66.6545 F1000.00 
G01 X-82.9326 Y66.5037 
G01 X-82.8803 Y66.3427 
G01 X-82.8538 Y66.1754 
G01 X-82.8538 Y66.0061 
G01 X-82.8803 Y65.8389 
G01 X-82.9326 Y65.6779 
G01 X-83.0095 Y65.5271 
G01 X-83.1090 Y65.3901 
G01 X-83.2287 Y65.2704 
G01 X-83.3657 Y65.1709 
G01 X-83.5165 Y65.0940 
G01 X-83.6775 Y65.0417 
G01 X-83.8447 Y65.0152 
G01 X-85.9952 Y65.0152 
G01 X-86.1625 Y65.0417 
G01 X-86.3235 Y65.0940 
G01 X-86.4743 Y65.1709 
G01 X-86.6113 Y65.2704 
G01 X-86.7310 Y65.3901 
G01 X-86.8305 Y65.5271 
G01 X-86.9074 Y65.6779 
G01 X-86.9597 Y65.8389 
G01 X-86.9862 Y66.0061 
G01 X-86.9862 Y66.1754 
G01 X-86.9597 Y66.3427 
G01 X-86.9074 Y66.5037 
G01 X-86.8305 Y66.6545 
G01 X-86.7310 Y66.7915 
G01 X-86.6113 Y66.9112 
G01 X-86.4743 Y67.0107 
G01 X-86.3235 Y67.0876 
G01 X-86.1625 Y67.1399 
G01 X-85.9952 Y67.1664 
G01 X-83.8447 Y67.1664 
G01 X-83.6775 Y67.1399 
G01 X-83.5165 Y67.0876 
G01 X-83.3657 Y67.0107 
G01 X-83.2287 Y66.9112 
G01 X-83.1090 Y66.7915 
G00 Z5.0000 
G00 X-80.5854 Y66.7738 
G01 Z-0.1400 F254.00 
G01 X-80.5568 Y66.9178 F1000.00 
G01 X-80.5006 Y67.0535 
G01 X-80.4190 Y67.1756 
G01 X-80.3152 Y67.2794 
G01 X-80.1931 Y67.3610 
G01 X-80.0574 Y67.4172 
G01 X-79.9134 Y67.4458 
G01 X-79.7666 Y67.4458 
G01 X-79.6226 Y67.4172 
G01 X-79.4869 Y67.3610 
G01 X-79.3648 Y67.2794 
G01 X-79.2610 Y67.1756 
G01 X-79.1794 Y67.0535 
G01 X-79.1232 Y66.9178 
G01 X-79.0946 Y66.7738 
G01 X-79.0946 Y65.3062 
G01 X-79.1232 Y65.1622 
G01 X-79.1794 Y65.0265 
G01 X-79.2610 Y64.9044 
G01 X-79.3648 Y64.8006 
G01 X-79.4869 Y64.7190 
G01 X-79.6226 Y64.6628 
G01 X-79.7666 Y64.6342 
G01 X-79.9134 Y64.6342 
G01 X-80.0574 Y64.6628 
G01 X-80.1931 Y64.7190 
G01 X-80.3152 Y64.8006 
G01 X-80.4190 Y64.9044 
G01 X-80.5006 Y65.0265 
G01 X-80.5568 Y65.1622 
G01 X-80.5854 Y65.3062 
G01 X-80.5854 Y66.7738 
G00 Z5.0000 
G00 X-80.3152 Y62.1994 
G01 Z-0.1400 F254.00 
G01 X-80.1931 Y62.2810 F1000.00 
G01 X-80.0574 Y62.3372 
G01 X-79.9134 Y62.3658 
G01 X-79.7666 Y62.3658 
G01 X-79.6226 Y62.3372 
G01 X-79.4869 Y62.2810 
G01 X-79.3648 Y62.1994 
G01 X-79.2610 Y62.0956 
G01 X-79.1794 Y61.9735 
G01 X-79.1232 Y61.8378 
G01 X-79.0946 Y61.6938 
G01 X-79.0946 Y60.2262 
G01 X-79.1232 Y60.0822 
G01 X-79.1794 Y59.9465 
G01 X-79.2610 Y59.8244 
G01 X-79.3648 Y59.7206 
G01 X-79.4869 Y59.6390 
G01 X-79.6226 Y59.5828 
G01 X-79.7666 Y59.5542 
G01 X-79.9134 Y59.5542 
G01 X-80.0574 Y59.5828 
G01 X-80.1931 Y59.6390 
G01 X-80.3152 Y59.7206 
G01 X-80.4190 Y59.8244 
G01 X-80.5006 Y59.9465 
G01 X-80.5568 Y60.0822 
G01 X-80.5854 Y60.2262 
G01 X-80.5854 Y61.6938 
G01 X-80.5568 Y61.8378 
G01 X-80.5006 Y61.9735 
G01 X-80.4190 Y62.0956 
G01 X-80.3152 Y62.1994 
G00 Z5.0000 
G00 X-83.1090 Y61.7623 
G01 Z-0.1400 F254.00 
G01 X-83.0095 Y61.6253 F1000.00 
G01 X-82.9326 Y61.4745 
G01 X-82.8803 Y61.3135 
G01 X-82.8538 Y61.1463 
G01 X-82.8538 Y60.9769 
G01 X-82.8803 Y60.8097 
G01 X-82.9326 Y60.6487 
G01 X-83.0095 Y60.4979 
G01 X-83.1090 Y60.3609 
G01 X-83.2287 Y60.2412 
G01 X-83.3657 Y60.1417 
G01 X-83.5165 Y60.0648 
G01 X-83.6775 Y60.0125 
G01 X-83.8447 Y59.9860 
G01 X-85.9952 Y59.9860 
G01 X-86.1625 Y60.0125 
G01 X-86.3235 Y60.0648 
G01 X-86.4743 Y60.1417 
G01 X-86.6113 Y60.2412 
G01 X-86.7310 Y60.3609 
G01 X-86.8305 Y60.4979 
G01 X-86.9074 Y60.6487 
G01 X-86.9597 Y60.8097 
G01 X-86.9862 Y60.9769 
G01 X-86.9862 Y61.1463 
G01 X-86.9597 Y61.3135 
G01 X-86.9074 Y61.4745 
G01 X-86.8305 Y61.6253 
G01 X-86.7310 Y61.7623 
G01 X-86.6113 Y61.8820 
G01 X-86.4743 Y61.9815 
G01 X-86.3235 Y62.0584 
G01 X-86.1625 Y62.1107 
G01 X-85.9952 Y62.1372 
G01 X-83.8447 Y62.1372 
G01 X-83.6775 Y62.1107 
G01 X-83.5165 Y62.0584 
G01 X-83.3657 Y61.9815 
G01 X-83.2287 Y61.8820 
G01 X-83.1090 Y61.7623 
G00 Z5.0000 
G00 X-86.7146 Y79.7012 
G01 Z-0.1400 F254.00 
G01 X-87.1512 Y79.2646 F1000.00 
G01 X-87.7688 Y79.2646 
G01 X-88.2054 Y79.7012 
G01 X-88.2054 Y80.3188 
G01 X-87.7688 Y80.7554 
G01 X-87.1512 Y80.7554 
G01 X-86.7146 Y80.3188 
G01 X-86.7146 Y79.7012 
G00 Z5.0000 
G00 X-62.1672 Y79.7926 
G01 Z-0.1400 F254.00 
G01 X-62.1958 Y79.9366 F1000.00 
G01 X-62.1958 Y80.0834 
G01 X-62.1672 Y80.2274 
G01 X-62.1110 Y80.3631 
G01 X-62.0294 Y80.4852 
G01 X-61.9256 Y80.5890 
G01 X-61.8035 Y80.6706 
G01 X-61.6678 Y80.7268 
G01 X-61.5238 Y80.7554 
G01 X-60.0562 Y80.7554 
G01 X-59.9122 Y80.7268 
G01 X-59.7765 Y80.6706 
G01 X-59.6544 Y80.5890 
G01 X-59.5506 Y80.4852 
G01 X-59.4690 Y80.3631 
G01 X-59.4128 Y80.2274 
G01 X-59.3842 Y80.0834 
G01 X-59.3842 Y79.9366 
G01 X-59.4128 Y79.7926 
G01 X-59.4690 Y79.6569 
G01 X-59.5506 Y79.5348 
G01 X-59.6544 Y79.4310 
G01 X-59.7765 Y79.3494 
G01 X-59.9122 Y79.2932 
G01 X-60.0562 Y79.2646 
G01 X-61.5238 Y79.2646 
G01 X-61.6678 Y79.2932 
G01 X-61.8035 Y79.3494 
G01 X-61.9256 Y79.4310 
G01 X-62.0294 Y79.5348 
G01 X-62.1110 Y79.6569 
G01 X-62.1672 Y79.7926 
G00 Z5.0000 
G00 X-61.9256 Y78.0490 
G01 Z-0.1400 F254.00 
G01 X-61.8035 Y78.1306 F1000.00 
G01 X-61.6678 Y78.1868 
G01 X-61.5238 Y78.2154 
G01 X-60.0562 Y78.2154 
G01 X-59.9122 Y78.1868 
G01 X-59.7765 Y78.1306 
G01 X-59.6544 Y78.0490 
G01 X-59.5506 Y77.9452 
G01 X-59.4690 Y77.8231 
G01 X-59.4128 Y77.6874 
G01 X-59.3842 Y77.5434 
G01 X-59.3842 Y77.3966 
G01 X-59.4128 Y77.2526 
G01 X-59.4690 Y77.1169 
G01 X-59.5506 Y76.9948 
G01 X-59.6544 Y76.8910 
G01 X-59.7765 Y76.8094 
G01 X-59.9122 Y76.7532 
G01 X-60.0562 Y76.7246 
G01 X-61.5238 Y76.7246 
G01 X-61.6678 Y76.7532 
G01 X-61.8035 Y76.8094 
G01 X-61.9256 Y76.8910 
G01 X-62.0294 Y76.9948 
G01 X-62.1110 Y77.1169 
G01 X-62.1672 Y77.2526 
G01 X-62.1958 Y77.3966 
G01 X-62.1958 Y77.5434 
G01 X-62.1672 Y77.6874 
G01 X-62.1110 Y77.8231 
G01 X-62.0294 Y77.9452 
G01 X-61.9256 Y78.0490 
G00 Z5.0000 
G00 X-61.9256 Y75.5090 
G01 Z-0.1400 F254.00 
G01 X-61.8035 Y75.5906 F1000.00 
G01 X-61.6678 Y75.6468 
G01 X-61.5238 Y75.6754 
G01 X-60.0562 Y75.6754 
G01 X-59.9122 Y75.6468 
G01 X-59.7765 Y75.5906 
G01 X-59.6544 Y75.5090 
G01 X-59.5506 Y75.4052 
G01 X-59.4690 Y75.2831 
G01 X-59.4128 Y75.1474 
G01 X-59.3842 Y75.0034 
G01 X-59.3842 Y74.8566 
G01 X-59.4128 Y74.7126 
G01 X-59.4690 Y74.5769 
G01 X-59.5506 Y74.4548 
G01 X-59.6544 Y74.3510 
G01 X-59.7765 Y74.2694 
G01 X-59.9122 Y74.2132 
G01 X-60.0562 Y74.1846 
G01 X-61.5238 Y74.1846 
G01 X-61.6678 Y74.2132 
G01 X-61.8035 Y74.2694 
G01 X-61.9256 Y74.3510 
G01 X-62.0294 Y74.4548 
G01 X-62.1110 Y74.5769 
G01 X-62.1672 Y74.7126 
G01 X-62.1958 Y74.8566 
G01 X-62.1958 Y75.0034 
G01 X-62.1672 Y75.1474 
G01 X-62.1110 Y75.2831 
G01 X-62.0294 Y75.4052 
G01 X-61.9256 Y75.5090 
G00 Z5.0000 
G00 X-61.9256 Y72.9690 
G01 Z-0.1400 F254.00 
G01 X-61.8035 Y73.0506 F1000.00 
G01 X-61.6678 Y73.1068 
G01 X-61.5238 Y73.1354 
G01 X-60.0562 Y73.1354 
G01 X-59.9122 Y73.1068 
G01 X-59.7765 Y73.0506 
G01 X-59.6544 Y72.9690 
G01 X-59.5506 Y72.8652 
G01 X-59.4690 Y72.7431 
G01 X-59.4128 Y72.6074 
G01 X-59.3842 Y72.4634 
G01 X-59.3842 Y72.3166 
G01 X-59.4128 Y72.1726 
G01 X-59.4690 Y72.0369 
G01 X-59.5506 Y71.9148 
G01 X-59.6544 Y71.8110 
G01 X-59.7765 Y71.7294 
G01 X-59.9122 Y71.6732 
G01 X-60.0562 Y71.6446 
G01 X-61.5238 Y71.6446 
G01 X-61.6678 Y71.6732 
G01 X-61.8035 Y71.7294 
G01 X-61.9256 Y71.8110 
G01 X-62.0294 Y71.9148 
G01 X-62.1110 Y72.0369 
G01 X-62.1672 Y72.1726 
G01 X-62.1958 Y72.3166 
G01 X-62.1958 Y72.4634 
G01 X-62.1672 Y72.6074 
G01 X-62.1110 Y72.7431 
G01 X-62.0294 Y72.8652 
G01 X-61.9256 Y72.9690 
G00 Z5.0000 
G00 X-53.5182 Y72.9690 
G01 Z-0.1400 F254.00 
G01 X-53.3961 Y73.0506 F1000.00 
G01 X-53.2604 Y73.1068 
G01 X-53.1164 Y73.1354 
G01 X-52.9696 Y73.1354 
G01 X-52.8256 Y73.1068 
G01 X-52.6899 Y73.0506 
G01 X-52.5678 Y72.9690 
G01 X-52.4640 Y72.8652 
G01 X-52.3824 Y72.7431 
G01 X-52.3262 Y72.6074 
G01 X-52.2976 Y72.4634 
G01 X-52.2976 Y72.3166 
G01 X-52.3262 Y72.1726 
G01 X-52.3824 Y72.0369 
G01 X-52.4640 Y71.9148 
G01 X-52.5678 Y71.8110 
G01 X-52.6899 Y71.7294 
G01 X-52.8256 Y71.6732 
G01 X-52.9696 Y71.6446 
G01 X-53.1164 Y71.6446 
G01 X-53.2604 Y71.6732 
G01 X-53.3961 Y71.7294 
G01 X-53.5182 Y71.8110 
G01 X-53.6220 Y71.9148 
G01 X-53.7036 Y72.0369 
G01 X-53.7598 Y72.1726 
G01 X-53.7884 Y72.3166 
G01 X-53.7884 Y72.4634 
G01 X-53.7598 Y72.6074 
G01 X-53.7036 Y72.7431 
G01 X-53.6220 Y72.8652 
G01 X-53.5182 Y72.9690 
G00 Z5.0000 
G00 X-48.6922 Y72.9690 
G01 Z-0.1400 F254.00 
G01 X-48.5701 Y73.0506 F1000.00 
G01 X-48.4344 Y73.1068 
G01 X-48.2904 Y73.1354 
G01 X-48.1436 Y73.1354 
G01 X-47.9996 Y73.1068 
G01 X-47.8639 Y73.0506 
G01 X-47.7418 Y72.9690 
G01 X-47.6380 Y72.8652 
G01 X-47.5564 Y72.7431 
G01 X-47.5002 Y72.6074 
G01 X-47.4716 Y72.4634 
G01 X-47.4716 Y72.3166 
G01 X-47.5002 Y72.1726 
G01 X-47.5564 Y72.0369 
G01 X-47.6380 Y71.9148 
G01 X-47.7418 Y71.8110 
G01 X-47.8639 Y71.7294 
G01 X-47.9996 Y71.6732 
G01 X-48.1436 Y71.6446 
G01 X-48.2904 Y71.6446 
G01 X-48.4344 Y71.6732 
G01 X-48.5701 Y71.7294 
G01 X-48.6922 Y71.8110 
G01 X-48.7960 Y71.9148 
G01 X-48.8776 Y72.0369 
G01 X-48.9338 Y72.1726 
G01 X-48.9624 Y72.3166 
G01 X-48.9624 Y72.4634 
G01 X-48.9338 Y72.6074 
G01 X-48.8776 Y72.7431 
G01 X-48.7960 Y72.8652 
G01 X-48.6922 Y72.9690 
G00 Z5.0000 
G00 X-48.3988 Y68.0554 
G01 Z-0.1400 F254.00 
G01 X-47.7812 Y68.0554 F1000.00 
G01 X-47.3446 Y67.6188 
G01 X-47.3446 Y67.0012 
G01 X-47.7812 Y66.5646 
G01 X-48.3988 Y66.5646 
G01 X-48.8354 Y67.0012 
G01 X-48.8354 Y67.6188 
G01 X-48.3988 Y68.0554 
G00 Z5.0000 
G00 X-52.4246 Y67.6188 
G01 Z-0.1400 F254.00 
G01 X-52.4246 Y67.0012 F1000.00 
G01 X-52.8612 Y66.5646 
G01 X-53.4788 Y66.5646 
G01 X-53.9154 Y67.0012 
G01 X-53.9154 Y67.6188 
G01 X-53.4788 Y68.0554 
G01 X-52.8612 Y68.0554 
G01 X-52.4246 Y67.6188 
G00 Z5.0000 
G00 X-52.4246 Y62.5388 
G01 Z-0.1400 F254.00 
G01 X-52.4246 Y61.9212 F1000.00 
G01 X-52.8612 Y61.4846 
G01 X-53.4788 Y61.4846 
G01 X-53.9154 Y61.9212 
G01 X-53.9154 Y62.5388 
G01 X-53.4788 Y62.9754 
G01 X-52.8612 Y62.9754 
G01 X-52.4246 Y62.5388 
G00 Z5.0000 
G00 X-48.8354 Y62.5388 
G01 Z-0.1400 F254.00 
G01 X-48.3988 Y62.9754 F1000.00 
G01 X-47.7812 Y62.9754 
G01 X-47.3446 Y62.5388 
G01 X-47.3446 Y61.9212 
G01 X-47.7812 Y61.4846 
G01 X-48.3988 Y61.4846 
G01 X-48.8354 Y61.9212 
G01 X-48.8354 Y62.5388 
G00 Z5.0000 
G00 X-42.9794 Y64.2948 
G01 Z-0.1400 F254.00 
G01 X-43.0610 Y64.4169 F1000.00 
G01 X-43.1172 Y64.5526 
G01 X-43.1458 Y64.6966 
G01 X-43.1458 Y64.8434 
G01 X-43.1172 Y64.9874 
G01 X-43.0610 Y65.1231 
G01 X-42.9794 Y65.2452 
G01 X-42.8756 Y65.3490 
G01 X-42.7535 Y65.4306 
G01 X-42.6178 Y65.4868 
G01 X-42.4738 Y65.5154 
G01 X-41.0062 Y65.5154 
G01 X-40.8622 Y65.4868 
G01 X-40.7265 Y65.4306 
G01 X-40.6044 Y65.3490 
G01 X-40.5006 Y65.2452 
G01 X-40.4190 Y65.1231 
G01 X-40.3628 Y64.9874 
G01 X-40.3342 Y64.8434 
G01 X-40.3342 Y64.6966 
G01 X-40.3628 Y64.5526 
G01 X-40.4190 Y64.4169 
G01 X-40.5006 Y64.2948 
G01 X-40.6044 Y64.1910 
G01 X-40.7265 Y64.1094 
G01 X-40.8622 Y64.0532 
G01 X-41.0062 Y64.0246 
G01 X-42.4738 Y64.0246 
G01 X-42.6178 Y64.0532 
G01 X-42.7535 Y64.1094 
G01 X-42.8756 Y64.1910 
G01 X-42.9794 Y64.2948 
G00 Z5.0000 
G00 X-42.9794 Y66.8348 
G01 Z-0.1400 F254.00 
G01 X-43.0610 Y66.9569 F1000.00 
G01 X-43.1172 Y67.0926 
G01 X-43.1458 Y67.2366 
G01 X-43.1458 Y67.3834 
G01 X-43.1172 Y67.5274 
G01 X-43.0610 Y67.6631 
G01 X-42.9794 Y67.7852 
G01 X-42.8756 Y67.8890 
G01 X-42.7535 Y67.9706 
G01 X-42.6178 Y68.0268 
G01 X-42.4738 Y68.0554 
G01 X-41.0062 Y68.0554 
G01 X-40.8622 Y68.0268 
G01 X-40.7265 Y67.9706 
G01 X-40.6044 Y67.8890 
G01 X-40.5006 Y67.7852 
G01 X-40.4190 Y67.6631 
G01 X-40.3628 Y67.5274 
G01 X-40.3342 Y67.3834 
G01 X-40.3342 Y67.2366 
G01 X-40.3628 Y67.0926 
G01 X-40.4190 Y66.9569 
G01 X-40.5006 Y66.8348 
G01 X-40.6044 Y66.7310 
G01 X-40.7265 Y66.6494 
G01 X-40.8622 Y66.5932 
G01 X-41.0062 Y66.5646 
G01 X-42.4738 Y66.5646 
G01 X-42.6178 Y66.5932 
G01 X-42.7535 Y66.6494 
G01 X-42.8756 Y66.7310 
G01 X-42.9794 Y66.8348 
G00 Z5.0000 
G00 X-42.9794 Y69.3748 
G01 Z-0.1400 F254.00 
G01 X-43.0610 Y69.4969 F1000.00 
G01 X-43.1172 Y69.6326 
G01 X-43.1458 Y69.7766 
G01 X-43.1458 Y69.9234 
G01 X-43.1172 Y70.0674 
G01 X-43.0610 Y70.2031 
G01 X-42.9794 Y70.3252 
G01 X-42.8756 Y70.4290 
G01 X-42.7535 Y70.5106 
G01 X-42.6178 Y70.5668 
G01 X-42.4738 Y70.5954 
G01 X-41.0062 Y70.5954 
G01 X-40.8622 Y70.5668 
G01 X-40.7265 Y70.5106 
G01 X-40.6044 Y70.4290 
G01 X-40.5006 Y70.3252 
G01 X-40.4190 Y70.2031 
G01 X-40.3628 Y70.0674 
G01 X-40.3342 Y69.9234 
G01 X-40.3342 Y69.7766 
G01 X-40.3628 Y69.6326 
G01 X-40.4190 Y69.4969 
G01 X-40.5006 Y69.3748 
G01 X-40.6044 Y69.2710 
G01 X-40.7265 Y69.1894 
G01 X-40.8622 Y69.1332 
G01 X-41.0062 Y69.1046 
G01 X-42.4738 Y69.1046 
G01 X-42.6178 Y69.1332 
G01 X-42.7535 Y69.1894 
G01 X-42.8756 Y69.2710 
G01 X-42.9794 Y69.3748 
G00 Z5.0000 
G00 X-42.9794 Y71.9148 
G01 Z-0.1400 F254.00 
G01 X-43.0610 Y72.0369 F1000.00 
G01 X-43.1172 Y72.1726 
G01 X-43.1458 Y72.3166 
G01 X-43.1458 Y72.4634 
G01 X-43.1172 Y72.6074 
G01 X-43.0610 Y72.7431 
G01 X-42.9794 Y72.8652 
G01 X-42.8756 Y72.9690 
G01 X-42.7535 Y73.0506 
G01 X-42.6178 Y73.1068 
G01 X-42.4738 Y73.1354 
G01 X-41.0062 Y73.1354 
G01 X-40.8622 Y73.1068 
G01 X-40.7265 Y73.0506 
G01 X-40.6044 Y72.9690 
G01 X-40.5006 Y72.8652 
G01 X-40.4190 Y72.7431 
G01 X-40.3628 Y72.6074 
G01 X-40.3342 Y72.4634 
G01 X-40.3342 Y72.3166 
G01 X-40.3628 Y72.1726 
G01 X-40.4190 Y72.0369 
G01 X-40.5006 Y71.9148 
G01 X-40.6044 Y71.8110 
G01 X-40.7265 Y71.7294 
G01 X-40.8622 Y71.6732 
G01 X-41.0062 Y71.6446 
G01 X-42.4738 Y71.6446 
G01 X-42.6178 Y71.6732 
G01 X-42.7535 Y71.7294 
G01 X-42.8756 Y71.8110 
G01 X-42.9794 Y71.9148 
G00 Z5.0000 
G00 X-42.9794 Y74.4548 
G01 Z-0.1400 F254.00 
G01 X-43.0610 Y74.5769 F1000.00 
G01 X-43.1172 Y74.7126 
G01 X-43.1458 Y74.8566 
G01 X-43.1458 Y75.0034 
G01 X-43.1172 Y75.1474 
G01 X-43.0610 Y75.2831 
G01 X-42.9794 Y75.4052 
G01 X-42.8756 Y75.5090 
G01 X-42.7535 Y75.5906 
G01 X-42.6178 Y75.6468 
G01 X-42.4738 Y75.6754 
G01 X-41.0062 Y75.6754 
G01 X-40.8622 Y75.6468 
G01 X-40.7265 Y75.5906 
G01 X-40.6044 Y75.5090 
G01 X-40.5006 Y75.4052 
G01 X-40.4190 Y75.2831 
G01 X-40.3628 Y75.1474 
G01 X-40.3342 Y75.0034 
G01 X-40.3342 Y74.8566 
G01 X-40.3628 Y74.7126 
G01 X-40.4190 Y74.5769 
G01 X-40.5006 Y74.4548 
G01 X-40.6044 Y74.3510 
G01 X-40.7265 Y74.2694 
G01 X-40.8622 Y74.2132 
G01 X-41.0062 Y74.1846 
G01 X-42.4738 Y74.1846 
G01 X-42.6178 Y74.2132 
G01 X-42.7535 Y74.2694 
G01 X-42.8756 Y74.3510 
G01 X-42.9794 Y74.4548 
G00 Z5.0000 
G00 X-42.9794 Y76.9948 
G01 Z-0.1400 F254.00 
G01 X-43.0610 Y77.1169 F1000.00 
G01 X-43.1172 Y77.2526 
G01 X-43.1458 Y77.3966 
G01 X-43.1458 Y77.5434 
G01 X-43.1172 Y77.6874 
G01 X-43.0610 Y77.8231 
G01 X-42.9794 Y77.9452 
G01 X-42.8756 Y78.0490 
G01 X-42.7535 Y78.1306 
G01 X-42.6178 Y78.1868 
G01 X-42.4738 Y78.2154 
G01 X-41.0062 Y78.2154 
G01 X-40.8622 Y78.1868 
G01 X-40.7265 Y78.1306 
G01 X-40.6044 Y78.0490 
G01 X-40.5006 Y77.9452 
G01 X-40.4190 Y77.8231 
G01 X-40.3628 Y77.6874 
G01 X-40.3342 Y77.5434 
G01 X-40.3342 Y77.3966 
G01 X-40.3628 Y77.2526 
G01 X-40.4190 Y77.1169 
G01 X-40.5006 Y76.9948 
G01 X-40.6044 Y76.8910 
G01 X-40.7265 Y76.8094 
G01 X-40.8622 Y76.7532 
G01 X-41.0062 Y76.7246 
G01 X-42.4738 Y76.7246 
G01 X-42.6178 Y76.7532 
G01 X-42.7535 Y76.8094 
G01 X-42.8756 Y76.8910 
G01 X-42.9794 Y76.9948 
G00 Z5.0000 
G00 X-42.9794 Y79.5348 
G01 Z-0.1400 F254.00 
G01 X-43.0610 Y79.6569 F1000.00 
G01 X-43.1172 Y79.7926 
G01 X-43.1458 Y79.9366 
G01 X-43.1458 Y80.0834 
G01 X-43.1172 Y80.2274 
G01 X-43.0610 Y80.3631 
G01 X-42.9794 Y80.4852 
G01 X-42.8756 Y80.5890 
G01 X-42.7535 Y80.6706 
G01 X-42.6178 Y80.7268 
G01 X-42.4738 Y80.7554 
G01 X-41.0062 Y80.7554 
G01 X-40.8622 Y80.7268 
G01 X-40.7265 Y80.6706 
G01 X-40.6044 Y80.5890 
G01 X-40.5006 Y80.4852 
G01 X-40.4190 Y80.3631 
G01 X-40.3628 Y80.2274 
G01 X-40.3342 Y80.0834 
G01 X-40.3342 Y79.9366 
G01 X-40.3628 Y79.7926 
G01 X-40.4190 Y79.6569 
G01 X-40.5006 Y79.5348 
G01 X-40.6044 Y79.4310 
G01 X-40.7265 Y79.3494 
G01 X-40.8622 Y79.2932 
G01 X-41.0062 Y79.2646 
G01 X-42.4738 Y79.2646 
G01 X-42.6178 Y79.2932 
G01 X-42.7535 Y79.3494 
G01 X-42.8756 Y79.4310 
G01 X-42.9794 Y79.5348 
G00 Z5.0000 
G00 X-44.8046 Y79.7012 
G01 Z-0.1400 F254.00 
G01 X-45.2412 Y79.2646 F1000.00 
G01 X-45.8588 Y79.2646 
G01 X-46.2954 Y79.7012 
G01 X-46.2954 Y80.3188 
G01 X-45.8588 Y80.7554 
G01 X-45.2412 Y80.7554 
G01 X-44.8046 Y80.3188 
G01 X-44.8046 Y79.7012 
G00 Z5.0000 
G00 X-48.6146 Y79.7012 
G01 Z-0.1400 F254.00 
G01 X-49.0512 Y79.2646 F1000.00 
G01 X-49.6688 Y79.2646 
G01 X-50.1054 Y79.7012 
G01 X-50.1054 Y80.3188 
G01 X-49.6688 Y80.7554 
G01 X-49.0512 Y80.7554 
G01 X-48.6146 Y80.3188 
G01 X-48.6146 Y79.7012 
G00 Z5.0000 
G00 X-52.4246 Y79.7012 
G01 Z-0.1400 F254.00 
G01 X-52.8612 Y79.2646 F1000.00 
G01 X-53.4788 Y79.2646 
G01 X-53.9154 Y79.7012 
G01 X-53.9154 Y80.3188 
G01 X-53.4788 Y80.7554 
G01 X-52.8612 Y80.7554 
G01 X-52.4246 Y80.3188 
G01 X-52.4246 Y79.7012 
G00 Z5.0000 
G00 X-54.9646 Y79.0488 
G01 Z-0.1400 F254.00 
G01 X-54.9646 Y78.4312 F1000.00 
G01 X-55.4012 Y77.9946 
G01 X-56.0188 Y77.9946 
G01 X-56.4554 Y78.4312 
G01 X-56.4554 Y79.0488 
G01 X-56.0188 Y79.4854 
G01 X-55.4012 Y79.4854 
G01 X-54.9646 Y79.0488 
G00 Z5.0000 
G00 X-54.9646 Y86.0512 
G01 Z-0.1400 F254.00 
G01 X-55.4012 Y85.6146 F1000.00 
G01 X-56.0188 Y85.6146 
G01 X-56.4554 Y86.0512 
G01 X-56.4554 Y86.6688 
G01 X-56.0188 Y87.1054 
G01 X-55.4012 Y87.1054 
G01 X-54.9646 Y86.6688 
G01 X-54.9646 Y86.0512 
G00 Z5.0000 
G00 X-53.9154 Y87.3212 
G01 Z-0.1400 F254.00 
G01 X-53.9154 Y87.9388 F1000.00 
G01 X-53.4788 Y88.3754 
G01 X-52.8612 Y88.3754 
G01 X-52.4246 Y87.9388 
G01 X-52.4246 Y87.3212 
G01 X-52.8612 Y86.8846 
G01 X-53.4788 Y86.8846 
G01 X-53.9154 Y87.3212 
G00 Z5.0000 
G00 X-49.6688 Y85.8354 
G01 Z-0.1400 F254.00 
G01 X-49.0512 Y85.8354 F1000.00 
G01 X-48.6146 Y85.3988 
G01 X-48.6146 Y84.7812 
G01 X-49.0512 Y84.3446 
G01 X-49.6688 Y84.3446 
G01 X-50.1054 Y84.7812 
G01 X-50.1054 Y85.3988 
G01 X-49.6688 Y85.8354 
G00 Z5.0000 
G00 X-45.8588 Y85.8354 
G01 Z-0.1400 F254.00 
G01 X-45.2412 Y85.8354 F1000.00 
G01 X-44.8046 Y85.3988 
G01 X-44.8046 Y84.7812 
G01 X-45.2412 Y84.3446 
G01 X-45.8588 Y84.3446 
G01 X-46.2954 Y84.7812 
G01 X-46.2954 Y85.3988 
G01 X-45.8588 Y85.8354 
G00 Z5.0000 
G00 X-45.8588 Y88.1546 
G01 Z-0.1400 F254.00 
G01 X-46.2954 Y88.5912 F1000.00 
G01 X-46.2954 Y89.2088 
G01 X-45.8588 Y89.6454 
G01 X-45.2412 Y89.6454 
G01 X-44.8046 Y89.2088 
G01 X-44.8046 Y88.5912 
G01 X-45.2412 Y88.1546 
G01 X-45.8588 Y88.1546 
G00 Z5.0000 
G00 X-42.9794 Y88.1052 
G01 Z-0.1400 F254.00 
G01 X-42.8756 Y88.2090 F1000.00 
G01 X-42.7535 Y88.2906 
G01 X-42.6178 Y88.3468 
G01 X-42.4738 Y88.3754 
G01 X-41.0062 Y88.3754 
G01 X-40.8622 Y88.3468 
G01 X-40.7265 Y88.2906 
G01 X-40.6044 Y88.2090 
G01 X-40.5006 Y88.1052 
G01 X-40.4190 Y87.9831 
G01 X-40.3628 Y87.8474 
G01 X-40.3342 Y87.7034 
G01 X-40.3342 Y87.5566 
G01 X-40.3628 Y87.4126 
G01 X-40.4190 Y87.2769 
G01 X-40.5006 Y87.1548 
G01 X-40.6044 Y87.0510 
G01 X-40.7265 Y86.9694 
G01 X-40.8622 Y86.9132 
G01 X-41.0062 Y86.8846 
G01 X-42.4738 Y86.8846 
G01 X-42.6178 Y86.9132 
G01 X-42.7535 Y86.9694 
G01 X-42.8756 Y87.0510 
G01 X-42.9794 Y87.1548 
G01 X-43.0610 Y87.2769 
G01 X-43.1172 Y87.4126 
G01 X-43.1458 Y87.5566 
G01 X-43.1458 Y87.7034 
G01 X-43.1172 Y87.8474 
G01 X-43.0610 Y87.9831 
G01 X-42.9794 Y88.1052 
G00 Z5.0000 
G00 X-42.9794 Y89.6948 
G01 Z-0.1400 F254.00 
G01 X-43.0610 Y89.8169 F1000.00 
G01 X-43.1172 Y89.9526 
G01 X-43.1458 Y90.0966 
G01 X-43.1458 Y90.2434 
G01 X-43.1172 Y90.3874 
G01 X-43.0610 Y90.5231 
G01 X-42.9794 Y90.6452 
G01 X-42.8756 Y90.7490 
G01 X-42.7535 Y90.8306 
G01 X-42.6178 Y90.8868 
G01 X-42.4738 Y90.9154 
G01 X-41.0062 Y90.9154 
G01 X-40.8622 Y90.8868 
G01 X-40.7265 Y90.8306 
G01 X-40.6044 Y90.7490 
G01 X-40.5006 Y90.6452 
G01 X-40.4190 Y90.5231 
G01 X-40.3628 Y90.3874 
G01 X-40.3342 Y90.2434 
G01 X-40.3342 Y90.0966 
G01 X-40.3628 Y89.9526 
G01 X-40.4190 Y89.8169 
G01 X-40.5006 Y89.6948 
G01 X-40.6044 Y89.5910 
G01 X-40.7265 Y89.5094 
G01 X-40.8622 Y89.4532 
G01 X-41.0062 Y89.4246 
G01 X-42.4738 Y89.4246 
G01 X-42.6178 Y89.4532 
G01 X-42.7535 Y89.5094 
G01 X-42.8756 Y89.5910 
G01 X-42.9794 Y89.6948 
G00 Z5.0000 
G00 X-42.9794 Y92.2348 
G01 Z-0.1400 F254.00 
G01 X-43.0610 Y92.3569 F1000.00 
G01 X-43.1172 Y92.4926 
G01 X-43.1458 Y92.6366 
G01 X-43.1458 Y92.7834 
G01 X-43.1172 Y92.9274 
G01 X-43.0610 Y93.0631 
G01 X-42.9794 Y93.1852 
G01 X-42.8756 Y93.2890 
G01 X-42.7535 Y93.3706 
G01 X-42.6178 Y93.4268 
G01 X-42.4738 Y93.4554 
G01 X-41.0062 Y93.4554 
G01 X-40.8622 Y93.4268 
G01 X-40.7265 Y93.3706 
G01 X-40.6044 Y93.2890 
G01 X-40.5006 Y93.1852 
G01 X-40.4190 Y93.0631 
G01 X-40.3628 Y92.9274 
G01 X-40.3342 Y92.7834 
G01 X-40.3342 Y92.6366 
G01 X-40.3628 Y92.4926 
G01 X-40.4190 Y92.3569 
G01 X-40.5006 Y92.2348 
G01 X-40.6044 Y92.1310 
G01 X-40.7265 Y92.0494 
G01 X-40.8622 Y91.9932 
G01 X-41.0062 Y91.9646 
G01 X-42.4738 Y91.9646 
G01 X-42.6178 Y91.9932 
G01 X-42.7535 Y92.0494 
G01 X-42.8756 Y92.1310 
G01 X-42.9794 Y92.2348 
G00 Z5.0000 
G00 X-42.9794 Y94.7748 
G01 Z-0.1400 F254.00 
G01 X-43.0610 Y94.8969 F1000.00 
G01 X-43.1172 Y95.0326 
G01 X-43.1458 Y95.1766 
G01 X-43.1458 Y95.3234 
G01 X-43.1172 Y95.4674 
G01 X-43.0610 Y95.6031 
G01 X-42.9794 Y95.7252 
G01 X-42.8756 Y95.8290 
G01 X-42.7535 Y95.9106 
G01 X-42.6178 Y95.9668 
G01 X-42.4738 Y95.9954 
G01 X-41.0062 Y95.9954 
G01 X-40.8622 Y95.9668 
G01 X-40.7265 Y95.9106 
G01 X-40.6044 Y95.8290 
G01 X-40.5006 Y95.7252 
G01 X-40.4190 Y95.6031 
G01 X-40.3628 Y95.4674 
G01 X-40.3342 Y95.3234 
G01 X-40.3342 Y95.1766 
G01 X-40.3628 Y95.0326 
G01 X-40.4190 Y94.8969 
G01 X-40.5006 Y94.7748 
G01 X-40.6044 Y94.6710 
G01 X-40.7265 Y94.5894 
G01 X-40.8622 Y94.5332 
G01 X-41.0062 Y94.5046 
G01 X-42.4738 Y94.5046 
G01 X-42.6178 Y94.5332 
G01 X-42.7535 Y94.5894 
G01 X-42.8756 Y94.6710 
G01 X-42.9794 Y94.7748 
G00 Z5.0000 
G00 X-42.9794 Y97.3148 
G01 Z-0.1400 F254.00 
G01 X-43.0610 Y97.4369 F1000.00 
G01 X-43.1172 Y97.5726 
G01 X-43.1458 Y97.7166 
G01 X-43.1458 Y97.8634 
G01 X-43.1172 Y98.0074 
G01 X-43.0610 Y98.1431 
G01 X-42.9794 Y98.2652 
G01 X-42.8756 Y98.3690 
G01 X-42.7535 Y98.4506 
G01 X-42.6178 Y98.5068 
G01 X-42.4738 Y98.5354 
G01 X-41.0062 Y98.5354 
G01 X-40.8622 Y98.5068 
G01 X-40.7265 Y98.4506 
G01 X-40.6044 Y98.3690 
G01 X-40.5006 Y98.2652 
G01 X-40.4190 Y98.1431 
G01 X-40.3628 Y98.0074 
G01 X-40.3342 Y97.8634 
G01 X-40.3342 Y97.7166 
G01 X-40.3628 Y97.5726 
G01 X-40.4190 Y97.4369 
G01 X-40.5006 Y97.3148 
G01 X-40.6044 Y97.2110 
G01 X-40.7265 Y97.1294 
G01 X-40.8622 Y97.0732 
G01 X-41.0062 Y97.0446 
G01 X-42.4738 Y97.0446 
G01 X-42.6178 Y97.0732 
G01 X-42.7535 Y97.1294 
G01 X-42.8756 Y97.2110 
G01 X-42.9794 Y97.3148 
G00 Z5.0000 
G00 X-44.8046 Y98.7512 
G01 Z-0.1400 F254.00 
G01 X-45.2412 Y98.3146 F1000.00 
G01 X-45.8588 Y98.3146 
G01 X-46.2954 Y98.7512 
G01 X-46.2954 Y99.3688 
G01 X-45.8588 Y99.8054 
G01 X-45.2412 Y99.8054 
G01 X-44.8046 Y99.3688 
G01 X-44.8046 Y98.7512 
G00 Z5.0000 
G00 X-48.6146 Y98.3262 
G01 Z-0.1400 F254.00 
G01 X-48.6432 Y98.1822 F1000.00 
G01 X-48.6994 Y98.0465 
G01 X-48.7810 Y97.9244 
G01 X-48.8848 Y97.8206 
G01 X-49.0069 Y97.7390 
G01 X-49.1426 Y97.6828 
G01 X-49.2866 Y97.6542 
G01 X-49.4334 Y97.6542 
G01 X-49.5774 Y97.6828 
G01 X-49.7131 Y97.7390 
G01 X-49.8352 Y97.8206 
G01 X-49.9390 Y97.9244 
G01 X-50.0206 Y98.0465 
G01 X-50.0768 Y98.1822 
G01 X-50.1054 Y98.3262 
G01 X-50.1054 Y99.7938 
G01 X-50.0768 Y99.9378 
G01 X-50.0206 Y100.0735 
G01 X-49.9390 Y100.1956 
G01 X-49.8352 Y100.2994 
G01 X-49.7131 Y100.3810 
G01 X-49.5774 Y100.4372 
G01 X-49.4334 Y100.4658 
G01 X-49.2866 Y100.4658 
G01 X-49.1426 Y100.4372 
G01 X-49.0069 Y100.3810 
G01 X-48.8848 Y100.2994 
G01 X-48.7810 Y100.1956 
G01 X-48.6994 Y100.0735 
G01 X-48.6432 Y99.9378 
G01 X-48.6146 Y99.7938 
G01 X-48.6146 Y98.3262 
G00 Z5.0000 
G00 X-51.1546 Y98.3262 
G01 Z-0.1400 F254.00 
G01 X-51.1832 Y98.1822 F1000.00 
G01 X-51.2394 Y98.0465 
G01 X-51.3210 Y97.9244 
G01 X-51.4248 Y97.8206 
G01 X-51.5469 Y97.7390 
G01 X-51.6826 Y97.6828 
G01 X-51.8266 Y97.6542 
G01 X-51.9734 Y97.6542 
G01 X-52.1174 Y97.6828 
G01 X-52.2531 Y97.7390 
G01 X-52.3752 Y97.8206 
G01 X-52.4790 Y97.9244 
G01 X-52.5606 Y98.0465 
G01 X-52.6168 Y98.1822 
G01 X-52.6454 Y98.3262 
G01 X-52.6454 Y99.7938 
G01 X-52.6168 Y99.9378 
G01 X-52.5606 Y100.0735 
G01 X-52.4790 Y100.1956 
G01 X-52.3752 Y100.2994 
G01 X-52.2531 Y100.3810 
G01 X-52.1174 Y100.4372 
G01 X-51.9734 Y100.4658 
G01 X-51.8266 Y100.4658 
G01 X-51.6826 Y100.4372 
G01 X-51.5469 Y100.3810 
G01 X-51.4248 Y100.2994 
G01 X-51.3210 Y100.1956 
G01 X-51.2394 Y100.0735 
G01 X-51.1832 Y99.9378 
G01 X-51.1546 Y99.7938 
G01 X-51.1546 Y98.3262 
G00 Z5.0000 
G00 X-53.6946 Y98.3262 
G01 Z-0.1400 F254.00 
G01 X-53.7232 Y98.1822 F1000.00 
G01 X-53.7794 Y98.0465 
G01 X-53.8610 Y97.9244 
G01 X-53.9648 Y97.8206 
G01 X-54.0869 Y97.7390 
G01 X-54.2226 Y97.6828 
G01 X-54.3666 Y97.6542 
G01 X-54.5134 Y97.6542 
G01 X-54.6574 Y97.6828 
G01 X-54.7931 Y97.7390 
G01 X-54.9152 Y97.8206 
G01 X-55.0190 Y97.9244 
G01 X-55.1006 Y98.0465 
G01 X-55.1568 Y98.1822 
G01 X-55.1854 Y98.3262 
G01 X-55.1854 Y99.7938 
G01 X-55.1568 Y99.9378 
G01 X-55.1006 Y100.0735 
G01 X-55.0190 Y100.1956 
G01 X-54.9152 Y100.2994 
G01 X-54.7931 Y100.3810 
G01 X-54.6574 Y100.4372 
G01 X-54.5134 Y100.4658 
G01 X-54.3666 Y100.4658 
G01 X-54.2226 Y100.4372 
G01 X-54.0869 Y100.3810 
G01 X-53.9648 Y100.2994 
G01 X-53.8610 Y100.1956 
G01 X-53.7794 Y100.0735 
G01 X-53.7232 Y99.9378 
G01 X-53.6946 Y99.7938 
G01 X-53.6946 Y98.3262 
G00 Z5.0000 
G00 X-56.2346 Y98.3262 
G01 Z-0.1400 F254.00 
G01 X-56.2632 Y98.1822 F1000.00 
G01 X-56.3194 Y98.0465 
G01 X-56.4010 Y97.9244 
G01 X-56.5048 Y97.8206 
G01 X-56.6269 Y97.7390 
G01 X-56.7626 Y97.6828 
G01 X-56.9066 Y97.6542 
G01 X-57.0534 Y97.6542 
G01 X-57.1974 Y97.6828 
G01 X-57.3331 Y97.7390 
G01 X-57.4552 Y97.8206 
G01 X-57.5590 Y97.9244 
G01 X-57.6406 Y98.0465 
G01 X-57.6968 Y98.1822 
G01 X-57.7254 Y98.3262 
G01 X-57.7254 Y99.7938 
G01 X-57.6968 Y99.9378 
G01 X-57.6406 Y100.0735 
G01 X-57.5590 Y100.1956 
G01 X-57.4552 Y100.2994 
G01 X-57.3331 Y100.3810 
G01 X-57.1974 Y100.4372 
G01 X-57.0534 Y100.4658 
G01 X-56.9066 Y100.4658 
G01 X-56.7626 Y100.4372 
G01 X-56.6269 Y100.3810 
G01 X-56.5048 Y100.2994 
G01 X-56.4010 Y100.1956 
G01 X-56.3194 Y100.0735 
G01 X-56.2632 Y99.9378 
G01 X-56.2346 Y99.7938 
G01 X-56.2346 Y98.3262 
G00 Z5.0000 
G00 X-58.7746 Y98.3262 
G01 Z-0.1400 F254.00 
G01 X-58.8032 Y98.1822 F1000.00 
G01 X-58.8594 Y98.0465 
G01 X-58.9410 Y97.9244 
G01 X-59.0448 Y97.8206 
G01 X-59.1669 Y97.7390 
G01 X-59.3026 Y97.6828 
G01 X-59.4466 Y97.6542 
G01 X-59.5934 Y97.6542 
G01 X-59.7374 Y97.6828 
G01 X-59.8731 Y97.7390 
G01 X-59.9952 Y97.8206 
G01 X-60.0990 Y97.9244 
G01 X-60.1806 Y98.0465 
G01 X-60.2368 Y98.1822 
G01 X-60.2654 Y98.3262 
G01 X-60.2654 Y99.7938 
G01 X-60.2368 Y99.9378 
G01 X-60.1806 Y100.0735 
G01 X-60.0990 Y100.1956 
G01 X-59.9952 Y100.2994 
G01 X-59.8731 Y100.3810 
G01 X-59.7374 Y100.4372 
G01 X-59.5934 Y100.4658 
G01 X-59.4466 Y100.4658 
G01 X-59.3026 Y100.4372 
G01 X-59.1669 Y100.3810 
G01 X-59.0448 Y100.2994 
G01 X-58.9410 Y100.1956 
G01 X-58.8594 Y100.0735 
G01 X-58.8032 Y99.9378 
G01 X-58.7746 Y99.7938 
G01 X-58.7746 Y98.3262 
G00 Z5.0000 
G00 X-61.3146 Y98.3262 
G01 Z-0.1400 F254.00 
G01 X-61.3432 Y98.1822 F1000.00 
G01 X-61.3994 Y98.0465 
G01 X-61.4810 Y97.9244 
G01 X-61.5848 Y97.8206 
G01 X-61.7069 Y97.7390 
G01 X-61.8426 Y97.6828 
G01 X-61.9866 Y97.6542 
G01 X-62.1334 Y97.6542 
G01 X-62.2774 Y97.6828 
G01 X-62.4131 Y97.7390 
G01 X-62.5352 Y97.8206 
G01 X-62.6390 Y97.9244 
G01 X-62.7206 Y98.0465 
G01 X-62.7768 Y98.1822 
G01 X-62.8054 Y98.3262 
G01 X-62.8054 Y99.7938 
G01 X-62.7768 Y99.9378 
G01 X-62.7206 Y100.0735 
G01 X-62.6390 Y100.1956 
G01 X-62.5352 Y100.2994 
G01 X-62.4131 Y100.3810 
G01 X-62.2774 Y100.4372 
G01 X-62.1334 Y100.4658 
G01 X-61.9866 Y100.4658 
G01 X-61.8426 Y100.4372 
G01 X-61.7069 Y100.3810 
G01 X-61.5848 Y100.2994 
G01 X-61.4810 Y100.1956 
G01 X-61.3994 Y100.0735 
G01 X-61.3432 Y99.9378 
G01 X-61.3146 Y99.7938 
G01 X-61.3146 Y98.3262 
G00 Z5.0000 
G00 X-63.8546 Y98.3262 
G01 Z-0.1400 F254.00 
G01 X-63.8832 Y98.1822 F1000.00 
G01 X-63.9394 Y98.0465 
G01 X-64.0210 Y97.9244 
G01 X-64.1248 Y97.8206 
G01 X-64.2469 Y97.7390 
G01 X-64.3826 Y97.6828 
G01 X-64.5266 Y97.6542 
G01 X-64.6734 Y97.6542 
G01 X-64.8174 Y97.6828 
G01 X-64.9531 Y97.7390 
G01 X-65.0752 Y97.8206 
G01 X-65.1790 Y97.9244 
G01 X-65.2606 Y98.0465 
G01 X-65.3168 Y98.1822 
G01 X-65.3454 Y98.3262 
G01 X-65.3454 Y99.7938 
G01 X-65.3168 Y99.9378 
G01 X-65.2606 Y100.0735 
G01 X-65.1790 Y100.1956 
G01 X-65.0752 Y100.2994 
G01 X-64.9531 Y100.3810 
G01 X-64.8174 Y100.4372 
G01 X-64.6734 Y100.4658 
G01 X-64.5266 Y100.4658 
G01 X-64.3826 Y100.4372 
G01 X-64.2469 Y100.3810 
G01 X-64.1248 Y100.2994 
G01 X-64.0210 Y100.1956 
G01 X-63.9394 Y100.0735 
G01 X-63.8832 Y99.9378 
G01 X-63.8546 Y99.7938 
G01 X-63.8546 Y98.3262 
G00 Z5.0000 
G00 X-66.3946 Y96.8288 
G01 Z-0.1400 F254.00 
G01 X-66.3946 Y96.2112 F1000.00 
G01 X-66.8312 Y95.7746 
G01 X-67.4488 Y95.7746 
G01 X-67.8854 Y96.2112 
G01 X-67.8854 Y96.8288 
G01 X-67.4488 Y97.2654 
G01 X-66.8312 Y97.2654 
G01 X-66.3946 Y96.8288 
G00 Z5.0000 
G00 X-61.9256 Y94.5590 
G01 Z-0.1400 F254.00 
G01 X-61.8035 Y94.6406 F1000.00 
G01 X-61.6678 Y94.6968 
G01 X-61.5238 Y94.7254 
G01 X-60.0562 Y94.7254 
G01 X-59.9122 Y94.6968 
G01 X-59.7765 Y94.6406 
G01 X-59.6544 Y94.5590 
G01 X-59.5506 Y94.4552 
G01 X-59.4690 Y94.3331 
G01 X-59.4128 Y94.1974 
G01 X-59.3842 Y94.0534 
G01 X-59.3842 Y93.9066 
G01 X-59.4128 Y93.7626 
G01 X-59.4690 Y93.6269 
G01 X-59.5506 Y93.5048 
G01 X-59.6544 Y93.4010 
G01 X-59.7765 Y93.3194 
G01 X-59.9122 Y93.2632 
G01 X-60.0562 Y93.2346 
G01 X-61.5238 Y93.2346 
G01 X-61.6678 Y93.2632 
G01 X-61.8035 Y93.3194 
G01 X-61.9256 Y93.4010 
G01 X-62.0294 Y93.5048 
G01 X-62.1110 Y93.6269 
G01 X-62.1672 Y93.7626 
G01 X-62.1958 Y93.9066 
G01 X-62.1958 Y94.0534 
G01 X-62.1672 Y94.1974 
G01 X-62.1110 Y94.3331 
G01 X-62.0294 Y94.4552 
G01 X-61.9256 Y94.5590 
G00 Z5.0000 
G00 X-61.9256 Y92.0190 
G01 Z-0.1400 F254.00 
G01 X-61.8035 Y92.1006 F1000.00 
G01 X-61.6678 Y92.1568 
G01 X-61.5238 Y92.1854 
G01 X-60.0562 Y92.1854 
G01 X-59.9122 Y92.1568 
G01 X-59.7765 Y92.1006 
G01 X-59.6544 Y92.0190 
G01 X-59.5506 Y91.9152 
G01 X-59.4690 Y91.7931 
G01 X-59.4128 Y91.6574 
G01 X-59.3842 Y91.5134 
G01 X-59.3842 Y91.3666 
G01 X-59.4128 Y91.2226 
G01 X-59.4690 Y91.0869 
G01 X-59.5506 Y90.9648 
G01 X-59.6544 Y90.8610 
G01 X-59.7765 Y90.7794 
G01 X-59.9122 Y90.7232 
G01 X-60.0562 Y90.6946 
G01 X-61.5238 Y90.6946 
G01 X-61.6678 Y90.7232 
G01 X-61.8035 Y90.7794 
G01 X-61.9256 Y90.8610 
G01 X-62.0294 Y90.9648 
G01 X-62.1110 Y91.0869 
G01 X-62.1672 Y91.2226 
G01 X-62.1958 Y91.3666 
G01 X-62.1958 Y91.5134 
G01 X-62.1672 Y91.6574 
G01 X-62.1110 Y91.7931 
G01 X-62.0294 Y91.9152 
G01 X-61.9256 Y92.0190 
G00 Z5.0000 
G00 X-61.9256 Y89.4790 
G01 Z-0.1400 F254.00 
G01 X-61.8035 Y89.5606 F1000.00 
G01 X-61.6678 Y89.6168 
G01 X-61.5238 Y89.6454 
G01 X-60.0562 Y89.6454 
G01 X-59.9122 Y89.6168 
G01 X-59.7765 Y89.5606 
G01 X-59.6544 Y89.4790 
G01 X-59.5506 Y89.3752 
G01 X-59.4690 Y89.2531 
G01 X-59.4128 Y89.1174 
G01 X-59.3842 Y88.9734 
G01 X-59.3842 Y88.8266 
G01 X-59.4128 Y88.6826 
G01 X-59.4690 Y88.5469 
G01 X-59.5506 Y88.4248 
G01 X-59.6544 Y88.3210 
G01 X-59.7765 Y88.2394 
G01 X-59.9122 Y88.1832 
G01 X-60.0562 Y88.1546 
G01 X-61.5238 Y88.1546 
G01 X-61.6678 Y88.1832 
G01 X-61.8035 Y88.2394 
G01 X-61.9256 Y88.3210 
G01 X-62.0294 Y88.4248 
G01 X-62.1110 Y88.5469 
G01 X-62.1672 Y88.6826 
G01 X-62.1958 Y88.8266 
G01 X-62.1958 Y88.9734 
G01 X-62.1672 Y89.1174 
G01 X-62.1110 Y89.2531 
G01 X-62.0294 Y89.3752 
G01 X-61.9256 Y89.4790 
G00 Z5.0000 
G00 X-61.9256 Y86.9390 
G01 Z-0.1400 F254.00 
G01 X-61.8035 Y87.0206 F1000.00 
G01 X-61.6678 Y87.0768 
G01 X-61.5238 Y87.1054 
G01 X-60.0562 Y87.1054 
G01 X-59.9122 Y87.0768 
G01 X-59.7765 Y87.0206 
G01 X-59.6544 Y86.9390 
G01 X-59.5506 Y86.8352 
G01 X-59.4690 Y86.7131 
G01 X-59.4128 Y86.5774 
G01 X-59.3842 Y86.4334 
G01 X-59.3842 Y86.2866 
G01 X-59.4128 Y86.1426 
G01 X-59.4690 Y86.0069 
G01 X-59.5506 Y85.8848 
G01 X-59.6544 Y85.7810 
G01 X-59.7765 Y85.6994 
G01 X-59.9122 Y85.6432 
G01 X-60.0562 Y85.6146 
G01 X-61.5238 Y85.6146 
G01 X-61.6678 Y85.6432 
G01 X-61.8035 Y85.6994 
G01 X-61.9256 Y85.7810 
G01 X-62.0294 Y85.8848 
G01 X-62.1110 Y86.0069 
G01 X-62.1672 Y86.1426 
G01 X-62.1958 Y86.2866 
G01 X-62.1958 Y86.4334 
G01 X-62.1672 Y86.5774 
G01 X-62.1110 Y86.7131 
G01 X-62.0294 Y86.8352 
G01 X-61.9256 Y86.9390 
G00 Z5.0000 
G00 X-61.9866 Y105.2742 
G01 Z-0.1400 F254.00 
G01 X-62.1334 Y105.2742 F1000.00 
G01 X-62.2774 Y105.3028 
G01 X-62.4131 Y105.3590 
G01 X-62.5352 Y105.4406 
G01 X-62.6390 Y105.5444 
G01 X-62.7206 Y105.6665 
G01 X-62.7768 Y105.8022 
G01 X-62.8054 Y105.9462 
G01 X-62.8054 Y107.4138 
G01 X-62.7768 Y107.5578 
G01 X-62.7206 Y107.6935 
G01 X-62.6390 Y107.8156 
G01 X-62.5352 Y107.9194 
G01 X-62.4131 Y108.0010 
G01 X-62.2774 Y108.0572 
G01 X-62.1334 Y108.0858 
G01 X-61.9866 Y108.0858 
G01 X-61.8426 Y108.0572 
G01 X-61.7069 Y108.0010 
G01 X-61.5848 Y107.9194 
G01 X-61.4810 Y107.8156 
G01 X-61.3994 Y107.6935 
G01 X-61.3432 Y107.5578 
G01 X-61.3146 Y107.4138 
G01 X-61.3146 Y105.9462 
G01 X-61.3432 Y105.8022 
G01 X-61.3994 Y105.6665 
G01 X-61.4810 Y105.5444 
G01 X-61.5848 Y105.4406 
G01 X-61.7069 Y105.3590 
G01 X-61.8426 Y105.3028 
G01 X-61.9866 Y105.2742 
G00 Z5.0000 
G00 X-60.0990 Y105.5444 
G01 Z-0.1400 F254.00 
G01 X-60.1806 Y105.6665 F1000.00 
G01 X-60.2368 Y105.8022 
G01 X-60.2654 Y105.9462 
G01 X-60.2654 Y107.4138 
G01 X-60.2368 Y107.5578 
G01 X-60.1806 Y107.6935 
G01 X-60.0990 Y107.8156 
G01 X-59.9952 Y107.9194 
G01 X-59.8731 Y108.0010 
G01 X-59.7374 Y108.0572 
G01 X-59.5934 Y108.0858 
G01 X-59.4466 Y108.0858 
G01 X-59.3026 Y108.0572 
G01 X-59.1669 Y108.0010 
G01 X-59.0448 Y107.9194 
G01 X-58.9410 Y107.8156 
G01 X-58.8594 Y107.6935 
G01 X-58.8032 Y107.5578 
G01 X-58.7746 Y107.4138 
G01 X-58.7746 Y105.9462 
G01 X-58.8032 Y105.8022 
G01 X-58.8594 Y105.6665 
G01 X-58.9410 Y105.5444 
G01 X-59.0448 Y105.4406 
G01 X-59.1669 Y105.3590 
G01 X-59.3026 Y105.3028 
G01 X-59.4466 Y105.2742 
G01 X-59.5934 Y105.2742 
G01 X-59.7374 Y105.3028 
G01 X-59.8731 Y105.3590 
G01 X-59.9952 Y105.4406 
G01 X-60.0990 Y105.5444 
G00 Z5.0000 
G00 X-57.5590 Y105.5444 
G01 Z-0.1400 F254.00 
G01 X-57.6406 Y105.6665 F1000.00 
G01 X-57.6968 Y105.8022 
G01 X-57.7254 Y105.9462 
G01 X-57.7254 Y107.4138 
G01 X-57.6968 Y107.5578 
G01 X-57.6406 Y107.6935 
G01 X-57.5590 Y107.8156 
G01 X-57.4552 Y107.9194 
G01 X-57.3331 Y108.0010 
G01 X-57.1974 Y108.0572 
G01 X-57.0534 Y108.0858 
G01 X-56.9066 Y108.0858 
G01 X-56.7626 Y108.0572 
G01 X-56.6269 Y108.0010 
G01 X-56.5048 Y107.9194 
G01 X-56.4010 Y107.8156 
G01 X-56.3194 Y107.6935 
G01 X-56.2632 Y107.5578 
G01 X-56.2346 Y107.4138 
G01 X-56.2346 Y105.9462 
G01 X-56.2632 Y105.8022 
G01 X-56.3194 Y105.6665 
G01 X-56.4010 Y105.5444 
G01 X-56.5048 Y105.4406 
G01 X-56.6269 Y105.3590 
G01 X-56.7626 Y105.3028 
G01 X-56.9066 Y105.2742 
G01 X-57.0534 Y105.2742 
G01 X-57.1974 Y105.3028 
G01 X-57.3331 Y105.3590 
G01 X-57.4552 Y105.4406 
G01 X-57.5590 Y105.5444 
G00 Z5.0000 
G00 X-55.0190 Y105.5444 
G01 Z-0.1400 F254.00 
G01 X-55.1006 Y105.6665 F1000.00 
G01 X-55.1568 Y105.8022 
G01 X-55.1854 Y105.9462 
G01 X-55.1854 Y107.4138 
G01 X-55.1568 Y107.5578 
G01 X-55.1006 Y107.6935 
G01 X-55.0190 Y107.8156 
G01 X-54.9152 Y107.9194 
G01 X-54.7931 Y108.0010 
G01 X-54.6574 Y108.0572 
G01 X-54.5134 Y108.0858 
G01 X-54.3666 Y108.0858 
G01 X-54.2226 Y108.0572 
G01 X-54.0869 Y108.0010 
G01 X-53.9648 Y107.9194 
G01 X-53.8610 Y107.8156 
G01 X-53.7794 Y107.6935 
G01 X-53.7232 Y107.5578 
G01 X-53.6946 Y107.4138 
G01 X-53.6946 Y105.9462 
G01 X-53.7232 Y105.8022 
G01 X-53.7794 Y105.6665 
G01 X-53.8610 Y105.5444 
G01 X-53.9648 Y105.4406 
G01 X-54.0869 Y105.3590 
G01 X-54.2226 Y105.3028 
G01 X-54.3666 Y105.2742 
G01 X-54.5134 Y105.2742 
G01 X-54.6574 Y105.3028 
G01 X-54.7931 Y105.3590 
G01 X-54.9152 Y105.4406 
G01 X-55.0190 Y105.5444 
G00 Z5.0000 
G00 X-52.4790 Y105.5444 
G01 Z-0.1400 F254.00 
G01 X-52.5606 Y105.6665 F1000.00 
G01 X-52.6168 Y105.8022 
G01 X-52.6454 Y105.9462 
G01 X-52.6454 Y107.4138 
G01 X-52.6168 Y107.5578 
G01 X-52.5606 Y107.6935 
G01 X-52.4790 Y107.8156 
G01 X-52.3752 Y107.9194 
G01 X-52.2531 Y108.0010 
G01 X-52.1174 Y108.0572 
G01 X-51.9734 Y108.0858 
G01 X-51.8266 Y108.0858 
G01 X-51.6826 Y108.0572 
G01 X-51.5469 Y108.0010 
G01 X-51.4248 Y107.9194 
G01 X-51.3210 Y107.8156 
G01 X-51.2394 Y107.6935 
G01 X-51.1832 Y107.5578 
G01 X-51.1546 Y107.4138 
G01 X-51.1546 Y105.9462 
G01 X-51.1832 Y105.8022 
G01 X-51.2394 Y105.6665 
G01 X-51.3210 Y105.5444 
G01 X-51.4248 Y105.4406 
G01 X-51.5469 Y105.3590 
G01 X-51.6826 Y105.3028 
G01 X-51.8266 Y105.2742 
G01 X-51.9734 Y105.2742 
G01 X-52.1174 Y105.3028 
G01 X-52.2531 Y105.3590 
G01 X-52.3752 Y105.4406 
G01 X-52.4790 Y105.5444 
G00 Z5.0000 
G00 X-49.9390 Y105.5444 
G01 Z-0.1400 F254.00 
G01 X-50.0206 Y105.6665 F1000.00 
G01 X-50.0768 Y105.8022 
G01 X-50.1054 Y105.9462 
G01 X-50.1054 Y107.4138 
G01 X-50.0768 Y107.5578 
G01 X-50.0206 Y107.6935 
G01 X-49.9390 Y107.8156 
G01 X-49.8352 Y107.9194 
G01 X-49.7131 Y108.0010 
G01 X-49.5774 Y108.0572 
G01 X-49.4334 Y108.0858 
G01 X-49.2866 Y108.0858 
G01 X-49.1426 Y108.0572 
G01 X-49.0069 Y108.0010 
G01 X-48.8848 Y107.9194 
G01 X-48.7810 Y107.8156 
G01 X-48.6994 Y107.6935 
G01 X-48.6432 Y107.5578 
G01 X-48.6146 Y107.4138 
G01 X-48.6146 Y105.9462 
G01 X-48.6432 Y105.8022 
G01 X-48.6994 Y105.6665 
G01 X-48.7810 Y105.5444 
G01 X-48.8848 Y105.4406 
G01 X-49.0069 Y105.3590 
G01 X-49.1426 Y105.3028 
G01 X-49.2866 Y105.2742 
G01 X-49.4334 Y105.2742 
G01 X-49.5774 Y105.3028 
G01 X-49.7131 Y105.3590 
G01 X-49.8352 Y105.4406 
G01 X-49.9390 Y105.5444 
G00 Z5.0000 
G00 X-42.0488 Y102.3454 
G01 Z-0.1400 F254.00 
G01 X-41.4312 Y102.3454 F1000.00 
G01 X-40.9946 Y101.9088 
G01 X-40.9946 Y101.2912 
G01 X-41.4312 Y100.8546 
G01 X-42.0488 Y100.8546 
G01 X-42.4854 Y101.2912 
G01 X-42.4854 Y101.9088 
G01 X-42.0488 Y102.3454 
G00 Z5.0000 
G00 X-38.6754 Y103.8312 
G01 Z-0.1400 F254.00 
G01 X-38.6754 Y104.4488 F1000.00 
G01 X-38.2388 Y104.8854 
G01 X-37.6212 Y104.8854 
G01 X-37.1846 Y104.4488 
G01 X-37.1846 Y103.8312 
G01 X-37.6212 Y103.3946 
G01 X-38.2388 Y103.3946 
G01 X-38.6754 Y103.8312 
G00 Z5.0000 
G00 X-34.9657 Y103.8952 
G01 Z-0.1400 F254.00 
G01 X-35.0575 Y104.0326 F1000.00 
G01 X-35.1208 Y104.1853 
G01 X-35.1530 Y104.3474 
G01 X-35.1530 Y104.5126 
G01 X-35.1208 Y104.6747 
G01 X-35.0575 Y104.8274 
G01 X-34.9657 Y104.9648 
G01 X-34.8488 Y105.0817 
G01 X-34.7114 Y105.1735 
G01 X-34.5587 Y105.2368 
G01 X-34.3966 Y105.2690 
G01 X-32.7234 Y105.2690 
G01 X-32.5613 Y105.2368 
G01 X-32.4086 Y105.1735 
G01 X-32.2712 Y105.0817 
G01 X-32.1543 Y104.9648 
G01 X-32.0625 Y104.8274 
G01 X-31.9992 Y104.6747 
G01 X-31.9670 Y104.5126 
G01 X-31.9670 Y104.3474 
G01 X-31.9992 Y104.1853 
G01 X-32.0625 Y104.0326 
G01 X-32.1543 Y103.8952 
G01 X-32.2712 Y103.7783 
G01 X-32.4086 Y103.6865 
G01 X-32.5613 Y103.6232 
G01 X-32.7234 Y103.5910 
G01 X-34.3966 Y103.5910 
G01 X-34.5587 Y103.6232 
G01 X-34.7114 Y103.6865 
G01 X-34.8488 Y103.7783 
G01 X-34.9657 Y103.8952 
G00 Z5.0000 
G00 X-34.4288 Y102.3454 
G01 Z-0.1400 F254.00 
G01 X-33.8112 Y102.3454 F1000.00 
G01 X-33.3746 Y101.9088 
G01 X-33.3746 Y101.2912 
G01 X-33.8112 Y100.8546 
G01 X-34.4288 Y100.8546 
G01 X-34.8654 Y101.2912 
G01 X-34.8654 Y101.9088 
G01 X-34.4288 Y102.3454 
G00 Z5.0000 
G00 X-34.8538 Y98.5354 
G01 Z-0.1400 F254.00 
G01 X-33.3862 Y98.5354 F1000.00 
G01 X-33.2422 Y98.5068 
G01 X-33.1065 Y98.4506 
G01 X-32.9844 Y98.3690 
G01 X-32.8806 Y98.2652 
G01 X-32.7990 Y98.1431 
G01 X-32.7428 Y98.0074 
G01 X-32.7142 Y97.8634 
G01 X-32.7142 Y97.7166 
G01 X-32.7428 Y97.5726 
G01 X-32.7990 Y97.4369 
G01 X-32.8806 Y97.3148 
G01 X-32.9844 Y97.2110 
G01 X-33.1065 Y97.1294 
G01 X-33.2422 Y97.0732 
G01 X-33.3862 Y97.0446 
G01 X-34.8538 Y97.0446 
G01 X-34.9978 Y97.0732 
G01 X-35.1335 Y97.1294 
G01 X-35.2556 Y97.2110 
G01 X-35.3594 Y97.3148 
G01 X-35.4410 Y97.4369 
G01 X-35.4972 Y97.5726 
G01 X-35.5258 Y97.7166 
G01 X-35.5258 Y97.8634 
G01 X-35.4972 Y98.0074 
G01 X-35.4410 Y98.1431 
G01 X-35.3594 Y98.2652 
G01 X-35.2556 Y98.3690 
G01 X-35.1335 Y98.4506 
G01 X-34.9978 Y98.5068 
G01 X-34.8538 Y98.5354 
G00 Z5.0000 
G00 X-34.8538 Y95.9954 
G01 Z-0.1400 F254.00 
G01 X-33.3862 Y95.9954 F1000.00 
G01 X-33.2422 Y95.9668 
G01 X-33.1065 Y95.9106 
G01 X-32.9844 Y95.8290 
G01 X-32.8806 Y95.7252 
G01 X-32.7990 Y95.6031 
G01 X-32.7428 Y95.4674 
G01 X-32.7142 Y95.3234 
G01 X-32.7142 Y95.1766 
G01 X-32.7428 Y95.0326 
G01 X-32.7990 Y94.8969 
G01 X-32.8806 Y94.7748 
G01 X-32.9844 Y94.6710 
G01 X-33.1065 Y94.5894 
G01 X-33.2422 Y94.5332 
G01 X-33.3862 Y94.5046 
G01 X-34.8538 Y94.5046 
G01 X-34.9978 Y94.5332 
G01 X-35.1335 Y94.5894 
G01 X-35.2556 Y94.6710 
G01 X-35.3594 Y94.7748 
G01 X-35.4410 Y94.8969 
G01 X-35.4972 Y95.0326 
G01 X-35.5258 Y95.1766 
G01 X-35.5258 Y95.3234 
G01 X-35.4972 Y95.4674 
G01 X-35.4410 Y95.6031 
G01 X-35.3594 Y95.7252 
G01 X-35.2556 Y95.8290 
G01 X-35.1335 Y95.9106 
G01 X-34.9978 Y95.9668 
G01 X-34.8538 Y95.9954 
G00 Z5.0000 
G00 X-34.8538 Y93.4554 
G01 Z-0.1400 F254.00 
G01 X-33.3862 Y93.4554 F1000.00 
G01 X-33.2422 Y93.4268 
G01 X-33.1065 Y93.3706 
G01 X-32.9844 Y93.2890 
G01 X-32.8806 Y93.1852 
G01 X-32.7990 Y93.0631 
G01 X-32.7428 Y92.9274 
G01 X-32.7142 Y92.7834 
G01 X-32.7142 Y92.6366 
G01 X-32.7428 Y92.4926 
G01 X-32.7990 Y92.3569 
G01 X-32.8806 Y92.2348 
G01 X-32.9844 Y92.1310 
G01 X-33.1065 Y92.0494 
G01 X-33.2422 Y91.9932 
G01 X-33.3862 Y91.9646 
G01 X-34.8538 Y91.9646 
G01 X-34.9978 Y91.9932 
G01 X-35.1335 Y92.0494 
G01 X-35.2556 Y92.1310 
G01 X-35.3594 Y92.2348 
G01 X-35.4410 Y92.3569 
G01 X-35.4972 Y92.4926 
G01 X-35.5258 Y92.6366 
G01 X-35.5258 Y92.7834 
G01 X-35.4972 Y92.9274 
G01 X-35.4410 Y93.0631 
G01 X-35.3594 Y93.1852 
G01 X-35.2556 Y93.2890 
G01 X-35.1335 Y93.3706 
G01 X-34.9978 Y93.4268 
G01 X-34.8538 Y93.4554 
G00 Z5.0000 
G00 X-34.8538 Y90.9154 
G01 Z-0.1400 F254.00 
G01 X-33.3862 Y90.9154 F1000.00 
G01 X-33.2422 Y90.8868 
G01 X-33.1065 Y90.8306 
G01 X-32.9844 Y90.7490 
G01 X-32.8806 Y90.6452 
G01 X-32.7990 Y90.5231 
G01 X-32.7428 Y90.3874 
G01 X-32.7142 Y90.2434 
G01 X-32.7142 Y90.0966 
G01 X-32.7428 Y89.9526 
G01 X-32.7990 Y89.8169 
G01 X-32.8806 Y89.6948 
G01 X-32.9844 Y89.5910 
G01 X-33.1065 Y89.5094 
G01 X-33.2422 Y89.4532 
G01 X-33.3862 Y89.4246 
G01 X-34.8538 Y89.4246 
G01 X-34.9978 Y89.4532 
G01 X-35.1335 Y89.5094 
G01 X-35.2556 Y89.5910 
G01 X-35.3594 Y89.6948 
G01 X-35.4410 Y89.8169 
G01 X-35.4972 Y89.9526 
G01 X-35.5258 Y90.0966 
G01 X-35.5258 Y90.2434 
G01 X-35.4972 Y90.3874 
G01 X-35.4410 Y90.5231 
G01 X-35.3594 Y90.6452 
G01 X-35.2556 Y90.7490 
G01 X-35.1335 Y90.8306 
G01 X-34.9978 Y90.8868 
G01 X-34.8538 Y90.9154 
G00 Z5.0000 
G00 X-34.8538 Y88.3754 
G01 Z-0.1400 F254.00 
G01 X-33.3862 Y88.3754 F1000.00 
G01 X-33.2422 Y88.3468 
G01 X-33.1065 Y88.2906 
G01 X-32.9844 Y88.2090 
G01 X-32.8806 Y88.1052 
G01 X-32.7990 Y87.9831 
G01 X-32.7428 Y87.8474 
G01 X-32.7142 Y87.7034 
G01 X-32.7142 Y87.5566 
G01 X-32.7428 Y87.4126 
G01 X-32.7990 Y87.2769 
G01 X-32.8806 Y87.1548 
G01 X-32.9844 Y87.0510 
G01 X-33.1065 Y86.9694 
G01 X-33.2422 Y86.9132 
G01 X-33.3862 Y86.8846 
G01 X-34.8538 Y86.8846 
G01 X-34.9978 Y86.9132 
G01 X-35.1335 Y86.9694 
G01 X-35.2556 Y87.0510 
G01 X-35.3594 Y87.1548 
G01 X-35.4410 Y87.2769 
G01 X-35.4972 Y87.4126 
G01 X-35.5258 Y87.5566 
G01 X-35.5258 Y87.7034 
G01 X-35.4972 Y87.8474 
G01 X-35.4410 Y87.9831 
G01 X-35.3594 Y88.1052 
G01 X-35.2556 Y88.2090 
G01 X-35.1335 Y88.2906 
G01 X-34.9978 Y88.3468 
G01 X-34.8538 Y88.3754 
G00 Z5.0000 
G00 X-34.8538 Y85.8354 
G01 Z-0.1400 F254.00 
G01 X-33.3862 Y85.8354 F1000.00 
G01 X-33.2422 Y85.8068 
G01 X-33.1065 Y85.7506 
G01 X-32.9844 Y85.6690 
G01 X-32.8806 Y85.5652 
G01 X-32.7990 Y85.4431 
G01 X-32.7428 Y85.3074 
G01 X-32.7142 Y85.1634 
G01 X-32.7142 Y85.0166 
G01 X-32.7428 Y84.8726 
G01 X-32.7990 Y84.7369 
G01 X-32.8806 Y84.6148 
G01 X-32.9844 Y84.5110 
G01 X-33.1065 Y84.4294 
G01 X-33.2422 Y84.3732 
G01 X-33.3862 Y84.3446 
G01 X-34.8538 Y84.3446 
G01 X-34.9978 Y84.3732 
G01 X-35.1335 Y84.4294 
G01 X-35.2556 Y84.5110 
G01 X-35.3594 Y84.6148 
G01 X-35.4410 Y84.7369 
G01 X-35.4972 Y84.8726 
G01 X-35.5258 Y85.0166 
G01 X-35.5258 Y85.1634 
G01 X-35.4972 Y85.3074 
G01 X-35.4410 Y85.4431 
G01 X-35.3594 Y85.5652 
G01 X-35.2556 Y85.6690 
G01 X-35.1335 Y85.7506 
G01 X-34.9978 Y85.8068 
G01 X-34.8538 Y85.8354 
G00 Z5.0000 
G00 X-34.8538 Y83.2954 
G01 Z-0.1400 F254.00 
G01 X-33.3862 Y83.2954 F1000.00 
G01 X-33.2422 Y83.2668 
G01 X-33.1065 Y83.2106 
G01 X-32.9844 Y83.1290 
G01 X-32.8806 Y83.0252 
G01 X-32.7990 Y82.9031 
G01 X-32.7428 Y82.7674 
G01 X-32.7142 Y82.6234 
G01 X-32.7142 Y82.4766 
G01 X-32.7428 Y82.3326 
G01 X-32.7990 Y82.1969 
G01 X-32.8806 Y82.0748 
G01 X-32.9844 Y81.9710 
G01 X-33.1065 Y81.8894 
G01 X-33.2422 Y81.8332 
G01 X-33.3862 Y81.8046 
G01 X-34.8538 Y81.8046 
G01 X-34.9978 Y81.8332 
G01 X-35.1335 Y81.8894 
G01 X-35.2556 Y81.9710 
G01 X-35.3594 Y82.0748 
G01 X-35.4410 Y82.1969 
G01 X-35.4972 Y82.3326 
G01 X-35.5258 Y82.4766 
G01 X-35.5258 Y82.6234 
G01 X-35.4972 Y82.7674 
G01 X-35.4410 Y82.9031 
G01 X-35.3594 Y83.0252 
G01 X-35.2556 Y83.1290 
G01 X-35.1335 Y83.2106 
G01 X-34.9978 Y83.2668 
G01 X-34.8538 Y83.2954 
G00 Z5.0000 
G00 X-34.8538 Y80.7554 
G01 Z-0.1400 F254.00 
G01 X-33.3862 Y80.7554 F1000.00 
G01 X-33.2422 Y80.7268 
G01 X-33.1065 Y80.6706 
G01 X-32.9844 Y80.5890 
G01 X-32.8806 Y80.4852 
G01 X-32.7990 Y80.3631 
G01 X-32.7428 Y80.2274 
G01 X-32.7142 Y80.0834 
G01 X-32.7142 Y79.9366 
G01 X-32.7428 Y79.7926 
G01 X-32.7990 Y79.6569 
G01 X-32.8806 Y79.5348 
G01 X-32.9844 Y79.4310 
G01 X-33.1065 Y79.3494 
G01 X-33.2422 Y79.2932 
G01 X-33.3862 Y79.2646 
G01 X-34.8538 Y79.2646 
G01 X-34.9978 Y79.2932 
G01 X-35.1335 Y79.3494 
G01 X-35.2556 Y79.4310 
G01 X-35.3594 Y79.5348 
G01 X-35.4410 Y79.6569 
G01 X-35.4972 Y79.7926 
G01 X-35.5258 Y79.9366 
G01 X-35.5258 Y80.0834 
G01 X-35.4972 Y80.2274 
G01 X-35.4410 Y80.3631 
G01 X-35.3594 Y80.4852 
G01 X-35.2556 Y80.5890 
G01 X-35.1335 Y80.6706 
G01 X-34.9978 Y80.7268 
G01 X-34.8538 Y80.7554 
G00 Z5.0000 
G00 X-34.8538 Y78.2154 
G01 Z-0.1400 F254.00 
G01 X-33.3862 Y78.2154 F1000.00 
G01 X-33.2422 Y78.1868 
G01 X-33.1065 Y78.1306 
G01 X-32.9844 Y78.0490 
G01 X-32.8806 Y77.9452 
G01 X-32.7990 Y77.8231 
G01 X-32.7428 Y77.6874 
G01 X-32.7142 Y77.5434 
G01 X-32.7142 Y77.3966 
G01 X-32.7428 Y77.2526 
G01 X-32.7990 Y77.1169 
G01 X-32.8806 Y76.9948 
G01 X-32.9844 Y76.8910 
G01 X-33.1065 Y76.8094 
G01 X-33.2422 Y76.7532 
G01 X-33.3862 Y76.7246 
G01 X-34.8538 Y76.7246 
G01 X-34.9978 Y76.7532 
G01 X-35.1335 Y76.8094 
G01 X-35.2556 Y76.8910 
G01 X-35.3594 Y76.9948 
G01 X-35.4410 Y77.1169 
G01 X-35.4972 Y77.2526 
G01 X-35.5258 Y77.3966 
G01 X-35.5258 Y77.5434 
G01 X-35.4972 Y77.6874 
G01 X-35.4410 Y77.8231 
G01 X-35.3594 Y77.9452 
G01 X-35.2556 Y78.0490 
G01 X-35.1335 Y78.1306 
G01 X-34.9978 Y78.1868 
G01 X-34.8538 Y78.2154 
G00 Z5.0000 
G00 X-36.1007 Y77.9290 
G01 Z-0.1400 F254.00 
G01 X-36.0219 Y77.8110 F1000.00 
G01 X-35.9677 Y77.6800 
G01 X-35.9400 Y77.5409 
G01 X-35.9400 Y77.3991 
G01 X-35.9677 Y77.2600 
G01 X-36.0219 Y77.1290 
G01 X-36.1007 Y77.0110 
G01 X-36.2010 Y76.9107 
G01 X-36.3190 Y76.8319 
G01 X-36.4500 Y76.7777 
G01 X-36.5891 Y76.7500 
G01 X-36.7309 Y76.7500 
G01 X-36.8700 Y76.7777 
G01 X-37.0010 Y76.8319 
G01 X-37.1190 Y76.9107 
G01 X-37.2193 Y77.0110 
G01 X-37.2981 Y77.1290 
G01 X-37.3523 Y77.2600 
G01 X-37.3800 Y77.3991 
G01 X-37.3800 Y77.5409 
G01 X-37.3523 Y77.6800 
G01 X-37.2981 Y77.8110 
G01 X-37.2799 Y77.8382 
G01 X-39.2763 Y81.8311 
G01 X-39.4100 Y81.8577 
G01 X-39.5410 Y81.9119 
G01 X-39.6590 Y81.9907 
G01 X-39.7593 Y82.0910 
G01 X-39.8381 Y82.2090 
G01 X-39.8923 Y82.3400 
G01 X-39.9200 Y82.4791 
G01 X-39.9200 Y82.6209 
G01 X-39.8923 Y82.7600 
G01 X-39.8381 Y82.8910 
G01 X-39.7593 Y83.0090 
G01 X-39.6590 Y83.1093 
G01 X-39.5410 Y83.1881 
G01 X-39.4100 Y83.2423 
G01 X-39.2709 Y83.2700 
G01 X-39.1291 Y83.2700 
G01 X-38.9900 Y83.2423 
G01 X-38.8590 Y83.1881 
G01 X-38.7410 Y83.1093 
G01 X-38.6407 Y83.0090 
G01 X-38.5619 Y82.8910 
G01 X-38.5077 Y82.7600 
G01 X-38.4800 Y82.6209 
G01 X-38.4800 Y82.4791 
G01 X-38.5077 Y82.3400 
G01 X-38.5619 Y82.2090 
G01 X-38.5801 Y82.1818 
G01 X-36.5836 Y78.1889 
G01 X-36.4500 Y78.1623 
G01 X-36.3190 Y78.1081 
G01 X-36.2010 Y78.0293 
G01 X-36.1007 Y77.9290 
G00 Z5.0000 
G00 X-35.2556 Y75.5090 
G01 Z-0.1400 F254.00 
G01 X-35.1335 Y75.5906 F1000.00 
G01 X-34.9978 Y75.6468 
G01 X-34.8538 Y75.6754 
G01 X-33.3862 Y75.6754 
G01 X-33.2422 Y75.6468 
G01 X-33.1065 Y75.5906 
G01 X-32.9844 Y75.5090 
G01 X-32.8806 Y75.4052 
G01 X-32.7990 Y75.2831 
G01 X-32.7428 Y75.1474 
G01 X-32.7142 Y75.0034 
G01 X-32.7142 Y74.8566 
G01 X-32.7428 Y74.7126 
G01 X-32.7990 Y74.5769 
G01 X-32.8806 Y74.4548 
G01 X-32.9844 Y74.3510 
G01 X-33.1065 Y74.2694 
G01 X-33.2422 Y74.2132 
G01 X-33.3862 Y74.1846 
G01 X-34.8538 Y74.1846 
G01 X-34.9978 Y74.2132 
G01 X-35.1335 Y74.2694 
G01 X-35.2556 Y74.3510 
G01 X-35.3594 Y74.4548 
G01 X-35.4410 Y74.5769 
G01 X-35.4972 Y74.7126 
G01 X-35.5258 Y74.8566 
G01 X-35.5258 Y75.0034 
G01 X-35.4972 Y75.1474 
G01 X-35.4410 Y75.2831 
G01 X-35.3594 Y75.4052 
G01 X-35.2556 Y75.5090 
G00 Z5.0000 
G00 X-35.2556 Y72.9690 
G01 Z-0.1400 F254.00 
G01 X-35.1335 Y73.0506 F1000.00 
G01 X-34.9978 Y73.1068 
G01 X-34.8538 Y73.1354 
G01 X-33.3862 Y73.1354 
G01 X-33.2422 Y73.1068 
G01 X-33.1065 Y73.0506 
G01 X-32.9844 Y72.9690 
G01 X-32.8806 Y72.8652 
G01 X-32.7990 Y72.7431 
G01 X-32.7428 Y72.6074 
G01 X-32.7142 Y72.4634 
G01 X-32.7142 Y72.3166 
G01 X-32.7428 Y72.1726 
G01 X-32.7990 Y72.0369 
G01 X-32.8806 Y71.9148 
G01 X-32.9844 Y71.8110 
G01 X-33.1065 Y71.7294 
G01 X-33.2422 Y71.6732 
G01 X-33.3862 Y71.6446 
G01 X-34.8538 Y71.6446 
G01 X-34.9978 Y71.6732 
G01 X-35.1335 Y71.7294 
G01 X-35.2556 Y71.8110 
G01 X-35.3594 Y71.9148 
G01 X-35.4410 Y72.0369 
G01 X-35.4972 Y72.1726 
G01 X-35.5258 Y72.3166 
G01 X-35.5258 Y72.4634 
G01 X-35.4972 Y72.6074 
G01 X-35.4410 Y72.7431 
G01 X-35.3594 Y72.8652 
G01 X-35.2556 Y72.9690 
G00 Z5.0000 
G00 X-35.2556 Y70.4290 
G01 Z-0.1400 F254.00 
G01 X-35.1335 Y70.5106 F1000.00 
G01 X-34.9978 Y70.5668 
G01 X-34.8538 Y70.5954 
G01 X-33.3862 Y70.5954 
G01 X-33.2422 Y70.5668 
G01 X-33.1065 Y70.5106 
G01 X-32.9844 Y70.4290 
G01 X-32.8806 Y70.3252 
G01 X-32.7990 Y70.2031 
G01 X-32.7428 Y70.0674 
G01 X-32.7142 Y69.9234 
G01 X-32.7142 Y69.7766 
G01 X-32.7428 Y69.6326 
G01 X-32.7990 Y69.4969 
G01 X-32.8806 Y69.3748 
G01 X-32.9844 Y69.2710 
G01 X-33.1065 Y69.1894 
G01 X-33.2422 Y69.1332 
G01 X-33.3862 Y69.1046 
G01 X-34.8538 Y69.1046 
G01 X-34.9978 Y69.1332 
G01 X-35.1335 Y69.1894 
G01 X-35.2556 Y69.2710 
G01 X-35.3594 Y69.3748 
G01 X-35.4410 Y69.4969 
G01 X-35.4972 Y69.6326 
G01 X-35.5258 Y69.7766 
G01 X-35.5258 Y69.9234 
G01 X-35.4972 Y70.0674 
G01 X-35.4410 Y70.2031 
G01 X-35.3594 Y70.3252 
G01 X-35.2556 Y70.4290 
G00 Z5.0000 
G00 X-35.2556 Y67.8890 
G01 Z-0.1400 F254.00 
G01 X-35.1335 Y67.9706 F1000.00 
G01 X-34.9978 Y68.0268 
G01 X-34.8538 Y68.0554 
G01 X-33.3862 Y68.0554 
G01 X-33.2422 Y68.0268 
G01 X-33.1065 Y67.9706 
G01 X-32.9844 Y67.8890 
G01 X-32.8806 Y67.7852 
G01 X-32.7990 Y67.6631 
G01 X-32.7428 Y67.5274 
G01 X-32.7142 Y67.3834 
G01 X-32.7142 Y67.2366 
G01 X-32.7428 Y67.0926 
G01 X-32.7990 Y66.9569 
G01 X-32.8806 Y66.8348 
G01 X-32.9844 Y66.7310 
G01 X-33.1065 Y66.6494 
G01 X-33.2422 Y66.5932 
G01 X-33.3862 Y66.5646 
G01 X-34.8538 Y66.5646 
G01 X-34.9978 Y66.5932 
G01 X-35.1335 Y66.6494 
G01 X-35.2556 Y66.7310 
G01 X-35.3594 Y66.8348 
G01 X-35.4410 Y66.9569 
G01 X-35.4972 Y67.0926 
G01 X-35.5258 Y67.2366 
G01 X-35.5258 Y67.3834 
G01 X-35.4972 Y67.5274 
G01 X-35.4410 Y67.6631 
G01 X-35.3594 Y67.7852 
G01 X-35.2556 Y67.8890 
G00 Z5.0000 
G00 X-35.2556 Y65.3490 
G01 Z-0.1400 F254.00 
G01 X-35.1335 Y65.4306 F1000.00 
G01 X-34.9978 Y65.4868 
G01 X-34.8538 Y65.5154 
G01 X-33.3862 Y65.5154 
G01 X-33.2422 Y65.4868 
G01 X-33.1065 Y65.4306 
G01 X-32.9844 Y65.3490 
G01 X-32.8806 Y65.2452 
G01 X-32.7990 Y65.1231 
G01 X-32.7428 Y64.9874 
G01 X-32.7142 Y64.8434 
G01 X-32.7142 Y64.6966 
G01 X-32.7428 Y64.5526 
G01 X-32.7990 Y64.4169 
G01 X-32.8806 Y64.2948 
G01 X-32.9844 Y64.1910 
G01 X-33.1065 Y64.1094 
G01 X-33.2422 Y64.0532 
G01 X-33.3862 Y64.0246 
G01 X-34.8538 Y64.0246 
G01 X-34.9978 Y64.0532 
G01 X-35.1335 Y64.1094 
G01 X-35.2556 Y64.1910 
G01 X-35.3594 Y64.2948 
G01 X-35.4410 Y64.4169 
G01 X-35.4972 Y64.5526 
G01 X-35.5258 Y64.6966 
G01 X-35.5258 Y64.8434 
G01 X-35.4972 Y64.9874 
G01 X-35.4410 Y65.1231 
G01 X-35.3594 Y65.2452 
G01 X-35.2556 Y65.3490 
G00 Z5.0000 
G00 X-32.1393 Y68.1210 
G01 Z-0.1400 F254.00 
G01 X-32.2181 Y68.2390 F1000.00 
G01 X-32.2723 Y68.3700 
G01 X-32.3000 Y68.5091 
G01 X-32.3000 Y68.6509 
G01 X-32.2723 Y68.7900 
G01 X-32.2181 Y68.9210 
G01 X-32.1393 Y69.0390 
G01 X-32.0390 Y69.1393 
G01 X-31.9698 Y69.1855 
G01 X-31.9698 Y71.7845 
G01 X-32.0390 Y71.8307 
G01 X-32.1393 Y71.9310 
G01 X-32.2181 Y72.0490 
G01 X-32.2723 Y72.1800 
G01 X-32.3000 Y72.3191 
G01 X-32.3000 Y72.4609 
G01 X-32.2723 Y72.6000 
G01 X-32.2181 Y72.7310 
G01 X-32.1393 Y72.8490 
G01 X-32.0390 Y72.9493 
G01 X-31.9210 Y73.0281 
G01 X-31.7900 Y73.0823 
G01 X-31.6509 Y73.1100 
G01 X-31.5091 Y73.1100 
G01 X-31.3700 Y73.0823 
G01 X-31.2389 Y73.0281 
G01 X-31.1210 Y72.9493 
G01 X-31.0207 Y72.8490 
G01 X-30.9419 Y72.7310 
G01 X-30.8877 Y72.6000 
G01 X-30.8600 Y72.4609 
G01 X-30.8600 Y72.3191 
G01 X-30.8877 Y72.1800 
G01 X-30.9419 Y72.0490 
G01 X-31.0207 Y71.9310 
G01 X-31.1210 Y71.8307 
G01 X-31.1902 Y71.7845 
G01 X-31.1902 Y69.1855 
G01 X-31.1210 Y69.1393 
G01 X-31.0207 Y69.0390 
G01 X-30.9419 Y68.9210 
G01 X-30.8877 Y68.7900 
G01 X-30.8600 Y68.6509 
G01 X-30.8600 Y68.5091 
G01 X-30.8877 Y68.3700 
G01 X-30.9419 Y68.2390 
G01 X-31.0207 Y68.1210 
G01 X-31.1210 Y68.0207 
G01 X-31.2389 Y67.9419 
G01 X-31.3700 Y67.8877 
G01 X-31.5091 Y67.8600 
G01 X-31.6509 Y67.8600 
G01 X-31.7900 Y67.8877 
G01 X-31.9210 Y67.9419 
G01 X-32.0390 Y68.0207 
G01 X-32.1393 Y68.1210 
G00 Z5.0000 
G00 X-29.5993 Y68.1210 
G01 Z-0.1400 F254.00 
G01 X-29.6781 Y68.2390 F1000.00 
G01 X-29.7323 Y68.3700 
G01 X-29.7600 Y68.5091 
G01 X-29.7600 Y68.6509 
G01 X-29.7323 Y68.7900 
G01 X-29.6781 Y68.9210 
G01 X-29.5993 Y69.0390 
G01 X-29.4990 Y69.1393 
G01 X-29.4298 Y69.1855 
G01 X-29.4298 Y74.3245 
G01 X-29.4990 Y74.3707 
G01 X-29.5993 Y74.4710 
G01 X-29.6781 Y74.5889 
G01 X-29.7323 Y74.7200 
G01 X-29.7600 Y74.8591 
G01 X-29.7600 Y75.0009 
G01 X-29.7323 Y75.1400 
G01 X-29.6781 Y75.2710 
G01 X-29.5993 Y75.3890 
G01 X-29.4990 Y75.4893 
G01 X-29.3810 Y75.5681 
G01 X-29.2500 Y75.6223 
G01 X-29.1109 Y75.6500 
G01 X-28.9691 Y75.6500 
G01 X-28.8300 Y75.6223 
G01 X-28.6989 Y75.5681 
G01 X-28.5810 Y75.4893 
G01 X-28.4807 Y75.3890 
G01 X-28.4019 Y75.2710 
G01 X-28.3477 Y75.1400 
G01 X-28.3200 Y75.0009 
G01 X-28.3200 Y74.8591 
G01 X-28.3477 Y74.7200 
G01 X-28.4019 Y74.5889 
G01 X-28.4807 Y74.4710 
G01 X-28.5810 Y74.3707 
G01 X-28.6502 Y74.3245 
G01 X-28.6502 Y69.1855 
G01 X-28.5810 Y69.1393 
G01 X-28.4807 Y69.0390 
G01 X-28.4019 Y68.9210 
G01 X-28.3477 Y68.7900 
G01 X-28.3200 Y68.6509 
G01 X-28.3200 Y68.5091 
G01 X-28.3477 Y68.3700 
G01 X-28.4019 Y68.2390 
G01 X-28.4807 Y68.1210 
G01 X-28.5810 Y68.0207 
G01 X-28.6989 Y67.9419 
G01 X-28.8300 Y67.8877 
G01 X-28.9691 Y67.8600 
G01 X-29.1109 Y67.8600 
G01 X-29.2500 Y67.8877 
G01 X-29.3810 Y67.9419 
G01 X-29.4990 Y68.0207 
G01 X-29.5993 Y68.1210 
G00 Z5.0000 
G00 X-28.2290 Y67.8693 
G01 Z-0.1400 F254.00 
G01 X-28.1110 Y67.9481 F1000.00 
G01 X-27.9800 Y68.0023 
G01 X-27.8409 Y68.0300 
G01 X-27.6991 Y68.0300 
G01 X-27.5600 Y68.0023 
G01 X-27.4290 Y67.9481 
G01 X-27.3110 Y67.8693 
G01 X-27.2107 Y67.7690 
G01 X-27.1319 Y67.6510 
G01 X-27.0777 Y67.5200 
G01 X-27.0500 Y67.3809 
G01 X-27.0500 Y67.2391 
G01 X-27.0777 Y67.1000 
G01 X-27.1319 Y66.9690 
G01 X-27.2107 Y66.8510 
G01 X-27.3110 Y66.7507 
G01 X-27.3802 Y66.7045 
G01 X-27.3802 Y56.4855 
G01 X-27.3110 Y56.4393 
G01 X-27.2107 Y56.3390 
G01 X-27.1319 Y56.2210 
G01 X-27.0777 Y56.0900 
G01 X-27.0500 Y55.9509 
G01 X-27.0500 Y55.8091 
G01 X-27.0777 Y55.6700 
G01 X-27.1319 Y55.5389 
G01 X-27.2107 Y55.4210 
G01 X-27.3110 Y55.3207 
G01 X-27.4290 Y55.2419 
G01 X-27.5600 Y55.1877 
G01 X-27.6991 Y55.1600 
G01 X-27.8409 Y55.1600 
G01 X-27.9800 Y55.1877 
G01 X-28.1110 Y55.2419 
G01 X-28.2290 Y55.3207 
G01 X-28.3293 Y55.4210 
G01 X-28.4081 Y55.5389 
G01 X-28.4623 Y55.6700 
G01 X-28.4900 Y55.8091 
G01 X-28.4900 Y55.9509 
G01 X-28.4623 Y56.0900 
G01 X-28.4081 Y56.2210 
G01 X-28.3293 Y56.3390 
G01 X-28.2290 Y56.4393 
G01 X-28.1598 Y56.4855 
G01 X-28.1598 Y66.7045 
G01 X-28.2290 Y66.7507 
G01 X-28.3293 Y66.8510 
G01 X-28.4081 Y66.9690 
G01 X-28.4623 Y67.1000 
G01 X-28.4900 Y67.2391 
G01 X-28.4900 Y67.3809 
G01 X-28.4623 Y67.5200 
G01 X-28.4081 Y67.6510 
G01 X-28.3293 Y67.7690 
G01 X-28.2290 Y67.8693 
G00 Z5.0000 
G00 X-27.0593 Y69.3910 
G01 Z-0.1400 F254.00 
G01 X-27.1381 Y69.5089 F1000.00 
G01 X-27.1923 Y69.6400 
G01 X-27.2200 Y69.7791 
G01 X-27.2200 Y69.9209 
G01 X-27.1923 Y70.0600 
G01 X-27.1381 Y70.1910 
G01 X-27.0593 Y70.3090 
G01 X-26.9590 Y70.4093 
G01 X-26.8898 Y70.4555 
G01 X-26.8898 Y81.9445 
G01 X-26.9590 Y81.9907 
G01 X-27.0593 Y82.0910 
G01 X-27.1381 Y82.2090 
G01 X-27.1923 Y82.3400 
G01 X-27.2200 Y82.4791 
G01 X-27.2200 Y82.6209 
G01 X-27.1923 Y82.7600 
G01 X-27.1381 Y82.8910 
G01 X-27.0593 Y83.0090 
G01 X-26.9590 Y83.1093 
G01 X-26.8410 Y83.1881 
G01 X-26.7100 Y83.2423 
G01 X-26.5709 Y83.2700 
G01 X-26.4291 Y83.2700 
G01 X-26.2900 Y83.2423 
G01 X-26.1590 Y83.1881 
G01 X-26.0410 Y83.1093 
G01 X-25.9407 Y83.0090 
G01 X-25.8619 Y82.8910 
G01 X-25.8077 Y82.7600 
G01 X-25.7800 Y82.6209 
G01 X-25.7800 Y82.4791 
G01 X-25.8077 Y82.3400 
G01 X-25.8619 Y82.2090 
G01 X-25.9407 Y82.0910 
G01 X-26.0410 Y81.9907 
G01 X-26.1102 Y81.9445 
G01 X-26.1102 Y70.4555 
G01 X-26.0410 Y70.4093 
G01 X-25.9407 Y70.3090 
G01 X-25.8619 Y70.1910 
G01 X-25.8077 Y70.0600 
G01 X-25.7800 Y69.9209 
G01 X-25.7800 Y69.7791 
G01 X-25.8077 Y69.6400 
G01 X-25.8619 Y69.5089 
G01 X-25.9407 Y69.3910 
G01 X-26.0410 Y69.2907 
G01 X-26.1590 Y69.2119 
G01 X-26.2900 Y69.1577 
G01 X-26.4291 Y69.1300 
G01 X-26.5709 Y69.1300 
G01 X-26.7100 Y69.1577 
G01 X-26.8410 Y69.2119 
G01 X-26.9590 Y69.2907 
G01 X-27.0593 Y69.3910 
G00 Z5.0000 
G00 X-24.9848 Y69.4255 
G01 Z-0.1400 F254.00 
G01 X-24.9848 Y70.2745 F1000.00 
G01 X-24.3845 Y70.8748 
G01 X-23.5355 Y70.8748 
G01 X-22.9352 Y70.2745 
G01 X-22.9352 Y69.4255 
G01 X-23.5355 Y68.8252 
G01 X-24.3845 Y68.8252 
G01 X-24.9848 Y69.4255 
G00 Z5.0000 
G00 X-24.3845 Y68.3348 
G01 Z-0.1400 F254.00 
G01 X-23.5355 Y68.3348 F1000.00 
G01 X-22.9352 Y67.7345 
G01 X-22.9352 Y66.8855 
G01 X-23.5355 Y66.2852 
G01 X-24.3845 Y66.2852 
G01 X-24.9848 Y66.8855 
G01 X-24.9848 Y67.7345 
G01 X-24.3845 Y68.3348 
G00 Z5.0000 
G00 X-24.3845 Y65.7948 
G01 Z-0.1400 F254.00 
G01 X-23.5355 Y65.7948 F1000.00 
G01 X-22.9352 Y65.1945 
G01 X-22.9352 Y64.3455 
G01 X-23.5355 Y63.7452 
G01 X-24.3845 Y63.7452 
G01 X-24.9848 Y64.3455 
G01 X-24.9848 Y65.1945 
G01 X-24.3845 Y65.7948 
G00 Z5.0000 
G00 X-21.8445 Y65.7948 
G01 Z-0.1400 F254.00 
G01 X-20.9955 Y65.7948 F1000.00 
G01 X-20.3952 Y65.1945 
G01 X-20.3952 Y64.3455 
G01 X-20.9955 Y63.7452 
G01 X-21.8445 Y63.7452 
G01 X-22.4448 Y64.3455 
G01 X-22.4448 Y65.1945 
G01 X-21.8445 Y65.7948 
G00 Z5.0000 
G00 X-21.8445 Y66.2852 
G01 Z-0.1400 F254.00 
G01 X-22.4448 Y66.8855 F1000.00 
G01 X-22.4448 Y67.7345 
G01 X-21.8445 Y68.3348 
G01 X-20.9955 Y68.3348 
G01 X-20.3952 Y67.7345 
G01 X-20.3952 Y66.8855 
G01 X-20.9955 Y66.2852 
G01 X-21.8445 Y66.2852 
G00 Z5.0000 
G00 X-21.8445 Y68.8252 
G01 Z-0.1400 F254.00 
G01 X-22.4448 Y69.4255 F1000.00 
G01 X-22.4448 Y70.2745 
G01 X-21.8445 Y70.8748 
G01 X-20.9955 Y70.8748 
G01 X-20.3952 Y70.2745 
G01 X-20.3952 Y69.4255 
G01 X-20.9955 Y68.8252 
G01 X-21.8445 Y68.8252 
G00 Z5.0000 
G00 X-21.8445 Y71.3652 
G01 Z-0.1400 F254.00 
G01 X-22.4448 Y71.9655 F1000.00 
G01 X-22.4448 Y72.8145 
G01 X-21.8445 Y73.4148 
G01 X-20.9955 Y73.4148 
G01 X-20.3952 Y72.8145 
G01 X-20.3952 Y71.9655 
G01 X-20.9955 Y71.3652 
G01 X-21.8445 Y71.3652 
G00 Z5.0000 
G00 X-22.9352 Y71.9655 
G01 Z-0.1400 F254.00 
G01 X-23.5355 Y71.3652 F1000.00 
G01 X-24.3845 Y71.3652 
G01 X-24.9848 Y71.9655 
G01 X-24.9848 Y72.8145 
G01 X-24.3845 Y73.4148 
G01 X-23.5355 Y73.4148 
G01 X-22.9352 Y72.8145 
G01 X-22.9352 Y71.9655 
G00 Z5.0000 
G00 X-22.9352 Y74.5055 
G01 Z-0.1400 F254.00 
G01 X-23.5355 Y73.9052 F1000.00 
G01 X-24.3845 Y73.9052 
G01 X-24.9848 Y74.5055 
G01 X-24.9848 Y75.3545 
G01 X-24.3845 Y75.9548 
G01 X-23.5355 Y75.9548 
G01 X-22.9352 Y75.3545 
G01 X-22.9352 Y74.5055 
G00 Z5.0000 
G00 X-22.4448 Y74.5055 
G01 Z-0.1400 F254.00 
G01 X-22.4448 Y75.3545 F1000.00 
G01 X-21.8445 Y75.9548 
G01 X-20.9955 Y75.9548 
G01 X-20.3952 Y75.3545 
G01 X-20.3952 Y74.5055 
G01 X-20.9955 Y73.9052 
G01 X-21.8445 Y73.9052 
G01 X-22.4448 Y74.5055 
G00 Z5.0000 
G00 X-19.6254 Y78.4312 
G01 Z-0.1400 F254.00 
G01 X-19.6254 Y79.0488 F1000.00 
G01 X-19.1888 Y79.4854 
G01 X-18.5712 Y79.4854 
G01 X-18.1346 Y79.0488 
G01 X-18.1346 Y78.4312 
G01 X-18.5712 Y77.9946 
G01 X-19.1888 Y77.9946 
G01 X-19.6254 Y78.4312 
G00 Z5.0000 
G00 X-17.0854 Y78.4312 
G01 Z-0.1400 F254.00 
G01 X-17.0854 Y79.0488 F1000.00 
G01 X-16.6488 Y79.4854 
G01 X-16.0312 Y79.4854 
G01 X-15.5946 Y79.0488 
G01 X-15.5946 Y78.4312 
G01 X-16.0312 Y77.9946 
G01 X-16.6488 Y77.9946 
G01 X-17.0854 Y78.4312 
G00 Z5.0000 
G00 X-17.0854 Y83.5112 
G01 Z-0.1400 F254.00 
G01 X-17.0854 Y84.1288 F1000.00 
G01 X-16.6488 Y84.5654 
G01 X-16.0312 Y84.5654 
G01 X-15.5946 Y84.1288 
G01 X-15.5946 Y83.5112 
G01 X-16.0312 Y83.0746 
G01 X-16.6488 Y83.0746 
G01 X-17.0854 Y83.5112 
G00 Z5.0000 
G00 X-18.1346 Y83.5112 
G01 Z-0.1400 F254.00 
G01 X-18.5712 Y83.0746 F1000.00 
G01 X-19.1888 Y83.0746 
G01 X-19.6254 Y83.5112 
G01 X-19.6254 Y84.1288 
G01 X-19.1888 Y84.5654 
G01 X-18.5712 Y84.5654 
G01 X-18.1346 Y84.1288 
G01 X-18.1346 Y83.5112 
G00 Z5.0000 
G00 X-18.1346 Y88.5912 
G01 Z-0.1400 F254.00 
G01 X-18.5712 Y88.1546 F1000.00 
G01 X-19.1888 Y88.1546 
G01 X-19.6254 Y88.5912 
G01 X-19.6254 Y89.2088 
G01 X-19.1888 Y89.6454 
G01 X-18.5712 Y89.6454 
G01 X-18.1346 Y89.2088 
G01 X-18.1346 Y88.5912 
G00 Z5.0000 
G00 X-17.0854 Y88.5912 
G01 Z-0.1400 F254.00 
G01 X-17.0854 Y89.2088 F1000.00 
G01 X-16.6488 Y89.6454 
G01 X-16.0312 Y89.6454 
G01 X-15.5946 Y89.2088 
G01 X-15.5946 Y88.5912 
G01 X-16.0312 Y88.1546 
G01 X-16.6488 Y88.1546 
G01 X-17.0854 Y88.5912 
G00 Z5.0000 
G00 X-17.0854 Y93.6712 
G01 Z-0.1400 F254.00 
G01 X-17.0854 Y94.2888 F1000.00 
G01 X-16.6488 Y94.7254 
G01 X-16.0312 Y94.7254 
G01 X-15.5946 Y94.2888 
G01 X-15.5946 Y93.6712 
G01 X-16.0312 Y93.2346 
G01 X-16.6488 Y93.2346 
G01 X-17.0854 Y93.6712 
G00 Z5.0000 
G00 X-18.1346 Y93.6712 
G01 Z-0.1400 F254.00 
G01 X-18.5712 Y93.2346 F1000.00 
G01 X-19.1888 Y93.2346 
G01 X-19.6254 Y93.6712 
G01 X-19.6254 Y94.2888 
G01 X-19.1888 Y94.7254 
G01 X-18.5712 Y94.7254 
G01 X-18.1346 Y94.2888 
G01 X-18.1346 Y93.6712 
G00 Z5.0000 
G00 X-21.9446 Y93.0188 
G01 Z-0.1400 F254.00 
G01 X-21.9446 Y92.4012 F1000.00 
G01 X-22.3812 Y91.9646 
G01 X-22.9988 Y91.9646 
G01 X-23.4354 Y92.4012 
G01 X-23.4354 Y93.0188 
G01 X-22.9988 Y93.4554 
G01 X-22.3812 Y93.4554 
G01 X-21.9446 Y93.0188 
G00 Z5.0000 
G00 X-21.9446 Y94.9412 
G01 Z-0.1400 F254.00 
G01 X-22.3812 Y94.5046 F1000.00 
G01 X-22.9988 Y94.5046 
G01 X-23.4354 Y94.9412 
G01 X-23.4354 Y95.5588 
G01 X-22.9988 Y95.9954 
G01 X-22.3812 Y95.9954 
G01 X-21.9446 Y95.5588 
G01 X-21.9446 Y94.9412 
G00 Z5.0000 
G00 X-21.9446 Y97.4812 
G01 Z-0.1400 F254.00 
G01 X-22.3812 Y97.0446 F1000.00 
G01 X-22.9988 Y97.0446 
G01 X-23.4354 Y97.4812 
G01 X-23.4354 Y98.0988 
G01 X-22.9988 Y98.5354 
G01 X-22.3812 Y98.5354 
G01 X-21.9446 Y98.0988 
G01 X-21.9446 Y97.4812 
G00 Z5.0000 
G00 X-19.6254 Y98.7512 
G01 Z-0.1400 F254.00 
G01 X-19.6254 Y99.3688 F1000.00 
G01 X-19.1888 Y99.8054 
G01 X-18.5712 Y99.8054 
G01 X-18.1346 Y99.3688 
G01 X-18.1346 Y98.7512 
G01 X-18.5712 Y98.3146 
G01 X-19.1888 Y98.3146 
G01 X-19.6254 Y98.7512 
G00 Z5.0000 
G00 X-17.0854 Y98.7512 
G01 Z-0.1400 F254.00 
G01 X-17.0854 Y99.3688 F1000.00 
G01 X-16.6488 Y99.8054 
G01 X-16.0312 Y99.8054 
G01 X-15.5946 Y99.3688 
G01 X-15.5946 Y98.7512 
G01 X-16.0312 Y98.3146 
G01 X-16.6488 Y98.3146 
G01 X-17.0854 Y98.7512 
G00 Z5.0000 
G00 X-17.0854 Y103.8312 
G01 Z-0.1400 F254.00 
G01 X-17.0854 Y104.4488 F1000.00 
G01 X-16.6488 Y104.8854 
G01 X-16.0312 Y104.8854 
G01 X-15.5946 Y104.4488 
G01 X-15.5946 Y103.8312 
G01 X-16.0312 Y103.3946 
G01 X-16.6488 Y103.3946 
G01 X-17.0854 Y103.8312 
G00 Z5.0000 
G00 X-18.1346 Y103.8312 
G01 Z-0.1400 F254.00 
G01 X-18.5712 Y103.3946 F1000.00 
G01 X-19.1888 Y103.3946 
G01 X-19.6254 Y103.8312 
G01 X-19.6254 Y104.4488 
G01 X-19.1888 Y104.8854 
G01 X-18.5712 Y104.8854 
G01 X-18.1346 Y104.4488 
G01 X-18.1346 Y103.8312 
G00 Z5.0000 
G00 X-25.6543 Y103.8952 
G01 Z-0.1400 F254.00 
G01 X-25.7712 Y103.7783 F1000.00 
G01 X-25.9086 Y103.6865 
G01 X-26.0613 Y103.6232 
G01 X-26.2234 Y103.5910 
G01 X-27.8966 Y103.5910 
G01 X-28.0587 Y103.6232 
G01 X-28.2114 Y103.6865 
G01 X-28.3488 Y103.7783 
G01 X-28.4657 Y103.8952 
G01 X-28.5575 Y104.0326 
G01 X-28.6208 Y104.1853 
G01 X-28.6530 Y104.3474 
G01 X-28.6530 Y104.5126 
G01 X-28.6208 Y104.6747 
G01 X-28.5575 Y104.8274 
G01 X-28.4657 Y104.9648 
G01 X-28.3488 Y105.0817 
G01 X-28.2114 Y105.1735 
G01 X-28.0587 Y105.2368 
G01 X-27.8966 Y105.2690 
G01 X-26.2234 Y105.2690 
G01 X-26.0613 Y105.2368 
G01 X-25.9086 Y105.1735 
G01 X-25.7712 Y105.0817 
G01 X-25.6543 Y104.9648 
G01 X-25.5625 Y104.8274 
G01 X-25.4992 Y104.6747 
G01 X-25.4670 Y104.5126 
G01 X-25.4670 Y104.3474 
G01 X-25.4992 Y104.1853 
G01 X-25.5625 Y104.0326 
G01 X-25.6543 Y103.8952 
G00 Z5.0000 
G00 X-25.7712 Y108.2783 
G01 Z-0.1400 F254.00 
G01 X-25.9086 Y108.1865 F1000.00 
G01 X-26.0613 Y108.1232 
G01 X-26.2234 Y108.0910 
G01 X-27.8966 Y108.0910 
G01 X-28.0587 Y108.1232 
G01 X-28.2114 Y108.1865 
G01 X-28.3488 Y108.2783 
G01 X-28.4657 Y108.3952 
G01 X-28.5575 Y108.5326 
G01 X-28.6208 Y108.6853 
G01 X-28.6530 Y108.8474 
G01 X-28.6530 Y109.0126 
G01 X-28.6208 Y109.1747 
G01 X-28.5575 Y109.3274 
G01 X-28.4657 Y109.4648 
G01 X-28.3488 Y109.5817 
G01 X-28.2114 Y109.6735 
G01 X-28.0587 Y109.7368 
G01 X-27.8966 Y109.7690 
G01 X-26.2234 Y109.7690 
G01 X-26.0613 Y109.7368 
G01 X-25.9086 Y109.6735 
G01 X-25.7712 Y109.5817 
G01 X-25.6543 Y109.4648 
G01 X-25.5625 Y109.3274 
G01 X-25.4992 Y109.1747 
G01 X-25.4670 Y109.0126 
G01 X-25.4670 Y108.8474 
G01 X-25.4992 Y108.6853 
G01 X-25.5625 Y108.5326 
G01 X-25.6543 Y108.3952 
G01 X-25.7712 Y108.2783 
G00 Z5.0000 
G00 X-32.2712 Y108.2783 
G01 Z-0.1400 F254.00 
G01 X-32.4086 Y108.1865 F1000.00 
G01 X-32.5613 Y108.1232 
G01 X-32.7234 Y108.0910 
G01 X-34.3966 Y108.0910 
G01 X-34.5587 Y108.1232 
G01 X-34.7114 Y108.1865 
G01 X-34.8488 Y108.2783 
G01 X-34.9657 Y108.3952 
G01 X-35.0575 Y108.5326 
G01 X-35.1208 Y108.6853 
G01 X-35.1530 Y108.8474 
G01 X-35.1530 Y109.0126 
G01 X-35.1208 Y109.1747 
G01 X-35.0575 Y109.3274 
G01 X-34.9657 Y109.4648 
G01 X-34.8488 Y109.5817 
G01 X-34.7114 Y109.6735 
G01 X-34.5587 Y109.7368 
G01 X-34.3966 Y109.7690 
G01 X-32.7234 Y109.7690 
G01 X-32.5613 Y109.7368 
G01 X-32.4086 Y109.6735 
G01 X-32.2712 Y109.5817 
G01 X-32.1543 Y109.4648 
G01 X-32.0625 Y109.3274 
G01 X-31.9992 Y109.1747 
G01 X-31.9670 Y109.0126 
G01 X-31.9670 Y108.8474 
G01 X-31.9992 Y108.6853 
G01 X-32.0625 Y108.5326 
G01 X-32.1543 Y108.3952 
G01 X-32.2712 Y108.2783 
G00 Z5.0000 
G00 X-37.1846 Y108.9112 
G01 Z-0.1400 F254.00 
G01 X-37.6212 Y108.4746 F1000.00 
G01 X-38.2388 Y108.4746 
G01 X-38.6754 Y108.9112 
G01 X-38.6754 Y109.5288 
G01 X-38.2388 Y109.9654 
G01 X-37.6212 Y109.9654 
G01 X-37.1846 Y109.5288 
G01 X-37.1846 Y108.9112 
G00 Z5.0000 
G00 X-30.6188 Y98.5354 
G01 Z-0.1400 F254.00 
G01 X-30.0012 Y98.5354 F1000.00 
G01 X-29.5646 Y98.0988 
G01 X-29.5646 Y97.4812 
G01 X-30.0012 Y97.0446 
G01 X-30.6188 Y97.0446 
G01 X-31.0554 Y97.4812 
G01 X-31.0554 Y98.0988 
